;FLAVOR:RepRap
;TIME:1643
;Filament used: 1.39283m
;Layer height: 0.2
;Generated with Cura_SteamEngine 2.5.0
M190 S60
M104 S200
M109 S200
G21 ;metric values
G90 ;absolute positioning
M82 ;set extruder to absolute mode
M107 ;start with the fan off
G28 X0 Y0 ;move X/Y to min endstops
G28 Z0 ;move Z to min endstops
G1 Z15.0 F9000 ;move the platform down 15mm
G92 E0 ;zero the extruded length
G1 F200 E3 ;extrude 3mm of feed stock
G92 E0 ;zero the extruded length again
G1 F9000
;Put printing message on LCD screen
M117 Printing...
;LAYER_COUNT:100
;LAYER:0
M107
G0 F3600 X87.998 Y121.77 Z0.3
;TYPE:SKIRT
G1 F1200 X88.486 Y121.515 E0.02747
G1 X89.006 Y121.332 E0.05497
G1 X89.547 Y121.227 E0.08247
G1 X90 Y121.2 E0.10511
G1 X110 Y121.2 E1.10291
G1 X110.55 Y121.24 E1.13042
G1 X111.088 Y121.359 E1.15791
G1 X111.603 Y121.555 E1.1854
G1 X112.084 Y121.823 E1.21287
G1 X112.522 Y122.157 E1.24036
G1 X112.906 Y122.552 E1.26784
G1 X113.23 Y122.998 E1.29534
G1 X113.485 Y123.486 E1.32281
G1 X113.668 Y124.006 E1.35031
G1 X113.773 Y124.547 E1.37781
G1 X113.8 Y125 E1.40045
G1 X113.8 Y145 E2.39825
G1 X113.76 Y145.55 E2.42577
G1 X113.641 Y146.088 E2.45325
G1 X113.445 Y146.603 E2.48075
G1 X113.177 Y147.084 E2.50822
G1 X112.843 Y147.522 E2.5357
G1 X112.448 Y147.906 E2.56318
G1 X112.002 Y148.23 E2.59068
G1 X111.514 Y148.485 E2.61815
G1 X110.994 Y148.668 E2.64566
G1 X110.453 Y148.773 E2.67315
G1 X110 Y148.8 E2.69579
G1 X90 Y148.8 E3.6936
G1 X89.45 Y148.76 E3.72111
G1 X88.912 Y148.641 E3.7486
G1 X88.397 Y148.445 E3.77609
G1 X87.916 Y148.177 E3.80356
G1 X87.478 Y147.843 E3.83104
G1 X87.094 Y147.448 E3.85852
G1 X86.77 Y147.002 E3.88603
G1 X86.515 Y146.514 E3.9135
G1 X86.332 Y145.994 E3.941
G1 X86.227 Y145.453 E3.96849
G1 X86.2 Y145 E3.99113
G1 X86.2 Y125 E4.98894
G1 X86.24 Y124.45 E5.01645
G1 X86.359 Y123.912 E5.04394
G1 X86.555 Y123.397 E5.07143
G1 X86.823 Y122.916 E5.0989
G1 X87.157 Y122.478 E5.12638
G1 X87.552 Y122.094 E5.15387
G1 X87.998 Y121.77 E5.18137
G0 F3600 X88.38 Y122.011
G1 F1200 X88.855 Y121.798 E5.20734
G1 X89.358 Y121.661 E5.23335
G1 X90 Y121.6 E5.26552
G1 X110 Y121.6 E6.26333
G1 X110.52 Y121.64 E6.28935
G1 X111.027 Y121.759 E6.31533
G1 X111.51 Y121.954 E6.34131
G1 X111.958 Y122.22 E6.36731
G1 X112.36 Y122.552 E6.39332
G1 X112.706 Y122.942 E6.41933
G1 X112.989 Y123.38 E6.44535
G1 X113.202 Y123.855 E6.47132
G1 X113.339 Y124.358 E6.49733
G1 X113.4 Y125 E6.5295
G1 X113.4 Y145 E7.5273
G1 X113.36 Y145.52 E7.55332
G1 X113.241 Y146.027 E7.57931
G1 X113.046 Y146.51 E7.60529
G1 X112.78 Y146.958 E7.63129
G1 X112.448 Y147.36 E7.6573
G1 X112.058 Y147.706 E7.68331
G1 X111.62 Y147.989 E7.70932
G1 X111.145 Y148.202 E7.7353
G1 X110.642 Y148.339 E7.7613
G1 X110 Y148.4 E7.79348
G1 X90 Y148.4 E8.79128
G1 X89.48 Y148.36 E8.8173
G1 X88.973 Y148.241 E8.84328
G1 X88.49 Y148.046 E8.86927
G1 X88.042 Y147.78 E8.89526
G1 X87.64 Y147.448 E8.92128
G1 X87.294 Y147.058 E8.94729
G1 X87.011 Y146.62 E8.9733
G1 X86.798 Y146.145 E8.99927
G1 X86.661 Y145.642 E9.02528
G1 X86.6 Y145 E9.05746
G1 X86.6 Y125 E10.05526
G1 X86.64 Y124.48 E10.08128
G1 X86.759 Y123.973 E10.10726
G1 X86.954 Y123.49 E10.13325
G1 X87.22 Y123.042 E10.15924
G1 X87.552 Y122.64 E10.18525
G1 X87.942 Y122.294 E10.21126
G1 X88.38 Y122.011 E10.23728
G0 F3600 X88.757 Y122.27
G1 F1200 X89.217 Y122.104 E10.26168
G1 X89.698 Y122.015 E10.28608
G1 X90 Y122 E10.30117
G1 X110 Y122 E11.29897
G1 X110.488 Y122.04 E11.3234
G1 X110.963 Y122.159 E11.34783
G1 X111.412 Y122.353 E11.37223
G1 X111.824 Y122.618 E11.39667
G1 X112.187 Y122.946 E11.42108
G1 X112.492 Y123.329 E11.44551
G1 X112.73 Y123.757 E11.46994
G1 X112.896 Y124.217 E11.49434
G1 X112.985 Y124.698 E11.51874
G1 X113 Y125 E11.53383
G1 X113 Y145 E12.53163
G1 X112.96 Y145.488 E12.55606
G1 X112.841 Y145.963 E12.58049
G1 X112.647 Y146.412 E12.60489
G1 X112.382 Y146.824 E12.62933
G1 X112.054 Y147.187 E12.65374
G1 X111.671 Y147.492 E12.67817
G1 X111.243 Y147.73 E12.7026
G1 X110.783 Y147.896 E12.727
G1 X110.302 Y147.985 E12.7514
G1 X110 Y148 E12.76649
G1 X90 Y148 E13.76429
G1 X89.512 Y147.96 E13.78872
G1 X89.037 Y147.841 E13.81315
G1 X88.588 Y147.647 E13.83755
G1 X88.176 Y147.382 E13.86199
G1 X87.813 Y147.054 E13.8864
G1 X87.508 Y146.671 E13.91083
G1 X87.27 Y146.243 E13.93526
G1 X87.104 Y145.783 E13.95966
G1 X87.015 Y145.302 E13.98406
G1 X87 Y145 E13.99915
G1 X87 Y125 E14.99695
G1 X87.04 Y124.512 E15.02138
G1 X87.159 Y124.037 E15.04581
G1 X87.353 Y123.588 E15.07021
G1 X87.618 Y123.176 E15.09465
G1 X87.946 Y122.813 E15.11906
G1 X88.329 Y122.508 E15.14349
G1 X88.757 Y122.27 E15.16792
G0 F3600 X88.713 Y122.741
G1 F1200 X89.127 Y122.551 E15.19064
G1 X89.568 Y122.436 E15.21338
G1 X90 Y122.4 E15.23501
G1 X110 Y122.4 E16.23281
G1 X110.454 Y122.44 E16.25555
G1 X110.894 Y122.558 E16.27828
G1 X111.306 Y122.752 E16.301
G1 X111.679 Y123.015 E16.32377
G1 X112 Y123.338 E16.34649
G1 X112.259 Y123.713 E16.36922
G1 X112.449 Y124.127 E16.39195
G1 X112.564 Y124.568 E16.41469
G1 X112.6 Y125 E16.43631
G1 X112.6 Y145 E17.43412
G1 X112.56 Y145.454 E17.45686
G1 X112.442 Y145.894 E17.47958
G1 X112.248 Y146.306 E17.5023
G1 X111.985 Y146.679 E17.52507
G1 X111.662 Y147 E17.54779
G1 X111.287 Y147.259 E17.57053
G1 X110.873 Y147.449 E17.59325
G1 X110.432 Y147.564 E17.61599
G1 X110 Y147.6 E17.63762
G1 X90 Y147.6 E18.63542
G1 X89.546 Y147.56 E18.65816
G1 X89.106 Y147.442 E18.68089
G1 X88.694 Y147.248 E18.70361
G1 X88.321 Y146.985 E18.72638
G1 X88 Y146.662 E18.7491
G1 X87.741 Y146.287 E18.77183
G1 X87.551 Y145.873 E18.79456
G1 X87.436 Y145.432 E18.8173
G1 X87.4 Y145 E18.83892
G1 X87.4 Y125 E19.83673
G1 X87.44 Y124.546 E19.85947
G1 X87.558 Y124.106 E19.88219
G1 X87.752 Y123.694 E19.90491
G1 X88.015 Y123.321 E19.92768
G1 X88.338 Y123 E19.9504
G1 X88.713 Y122.741 E19.97314
G0 F3600 X88.727 Y123.206
G1 F1200 X89.09 Y122.997 E19.99404
G1 X89.487 Y122.861 E20.01497
G1 X90 Y122.8 E20.04075
G1 X110 Y122.8 E21.03855
G1 X110.417 Y122.84 E21.05945
G1 X110.819 Y122.958 E21.08035
G1 X111.191 Y123.151 E21.10126
G1 X111.52 Y123.41 E21.12215
G1 X111.794 Y123.727 E21.14305
G1 X112.003 Y124.09 E21.16395
G1 X112.139 Y124.487 E21.18489
G1 X112.2 Y125 E21.21066
G1 X112.2 Y145 E22.20847
G1 X112.16 Y145.417 E22.22937
G1 X112.042 Y145.819 E22.25027
G1 X111.849 Y146.191 E22.27118
G1 X111.59 Y146.52 E22.29207
G1 X111.273 Y146.794 E22.31297
G1 X110.91 Y147.003 E22.33387
G1 X110.513 Y147.139 E22.3548
G1 X110 Y147.2 E22.38058
G1 X90 Y147.2 E23.37838
G1 X89.583 Y147.16 E23.39928
G1 X89.181 Y147.042 E23.42018
G1 X88.809 Y146.849 E23.44109
G1 X88.48 Y146.59 E23.46198
G1 X88.206 Y146.273 E23.48289
G1 X87.997 Y145.91 E23.50378
G1 X87.861 Y145.513 E23.52472
G1 X87.8 Y145 E23.55049
G1 X87.8 Y125 E24.5483
G1 X87.84 Y124.583 E24.5692
G1 X87.958 Y124.181 E24.5901
G1 X88.151 Y123.809 E24.61101
G1 X88.41 Y123.48 E24.6319
G1 X88.727 Y123.206 E24.6528
G0 F3600 X89.112 Y123.435
G1 F1200 X89.459 Y123.283 E24.6717
G1 X90 Y123.2 E24.69901
G1 X110 Y123.2 E25.69681
G1 X110.377 Y123.24 E25.71573
G1 X110.737 Y123.358 E25.73463
G1 X111.064 Y123.548 E25.7535
G1 X111.345 Y123.803 E25.77243
G1 X111.565 Y124.112 E25.79135
G1 X111.717 Y124.459 E25.81025
G1 X111.8 Y125 E25.83756
G1 X111.8 Y145 E26.83536
G1 X111.76 Y145.377 E26.85428
G1 X111.642 Y145.737 E26.87318
G1 X111.452 Y146.064 E26.89204
G1 X111.197 Y146.345 E26.91098
G1 X110.888 Y146.565 E26.9299
G1 X110.541 Y146.717 E26.9488
G1 X110 Y146.8 E26.97611
G1 X90 Y146.8 E27.97391
G1 X89.623 Y146.76 E27.99282
G1 X89.263 Y146.642 E28.01172
G1 X88.936 Y146.452 E28.03059
G1 X88.655 Y146.197 E28.04952
G1 X88.435 Y145.888 E28.06845
G1 X88.283 Y145.541 E28.08735
G1 X88.2 Y145 E28.11465
G1 X88.2 Y125 E29.11246
G1 X88.24 Y124.623 E29.13137
G1 X88.358 Y124.263 E29.15027
G1 X88.548 Y123.936 E29.16914
G1 X88.803 Y123.655 E29.18807
G1 X89.112 Y123.435 E29.207
G0 F3600 X90 Y123.6
G1 F1200 X110 Y123.6 E30.2048
G1 X110.332 Y123.64 E30.22148
G1 X110.644 Y123.757 E30.23811
G1 X110.921 Y123.945 E30.25481
G1 X111.144 Y124.193 E30.27145
G1 X111.303 Y124.487 E30.28812
G1 X111.387 Y124.811 E30.30482
G1 X111.4 Y125 E30.31427
G1 X111.4 Y145 E31.31208
G1 X111.36 Y145.332 E31.32876
G1 X111.243 Y145.644 E31.34539
G1 X111.055 Y145.921 E31.36209
G1 X110.807 Y146.144 E31.37873
G1 X110.513 Y146.303 E31.3954
G1 X110.189 Y146.387 E31.4121
G1 X110 Y146.4 E31.42155
G1 X90 Y146.4 E32.41936
G1 X89.668 Y146.36 E32.43604
G1 X89.356 Y146.243 E32.45266
G1 X89.079 Y146.055 E32.46937
G1 X88.856 Y145.807 E32.48601
G1 X88.697 Y145.513 E32.50268
G1 X88.613 Y145.189 E32.51938
G1 X88.6 Y145 E32.52883
G1 X88.6 Y125 E33.52664
G1 X88.64 Y124.668 E33.54332
G1 X88.757 Y124.356 E33.55994
G1 X88.945 Y124.079 E33.57665
G1 X89.193 Y123.856 E33.59328
G1 X89.487 Y123.697 E33.60996
G1 X89.811 Y123.613 E33.62666
G1 X90 Y123.6 E33.63611
G0 F3600 X90 Y124
G1 F1200 X110 Y124 E34.63391
G1 X110.279 Y124.04 E34.64798
G1 X110.536 Y124.156 E34.66204
G1 X110.751 Y124.339 E34.67613
G1 X110.905 Y124.575 E34.69019
G1 X110.988 Y124.845 E34.70428
G1 X111 Y125 E34.71204
G1 X111 Y145 E35.70984
G1 X110.96 Y145.279 E35.7239
G1 X110.844 Y145.536 E35.73797
G1 X110.661 Y145.751 E35.75206
G1 X110.425 Y145.905 E35.76611
G1 X110.155 Y145.988 E35.78021
G1 X110 Y146 E35.78796
G1 X90 Y146 E36.78577
G1 X89.721 Y145.96 E36.79983
G1 X89.464 Y145.844 E36.8139
G1 X89.249 Y145.661 E36.82798
G1 X89.095 Y145.425 E36.84204
G1 X89.012 Y145.155 E36.85613
G1 X89 Y145 E36.86389
G1 X89 Y125 E37.86169
G1 X89.04 Y124.721 E37.87576
G1 X89.156 Y124.464 E37.88982
G1 X89.339 Y124.249 E37.90391
G1 X89.575 Y124.095 E37.91797
G1 X89.845 Y124.012 E37.93206
G1 X90 Y124 E37.93982
G0 F3600 X90 Y124.4
G1 F1200 X110 Y124.4 E38.93762
G1 X110.215 Y124.44 E38.94853
G1 X110.401 Y124.553 E38.95939
G1 X110.534 Y124.726 E38.97028
G1 X110.6 Y125 E38.98434
G1 X110.6 Y145 E39.98214
G1 X110.56 Y145.215 E39.99305
G1 X110.447 Y145.401 E40.00391
G1 X110.274 Y145.534 E40.0148
G1 X110 Y145.6 E40.02886
G1 X90 Y145.6 E41.02666
G1 X89.785 Y145.56 E41.03757
G1 X89.599 Y145.447 E41.04843
G1 X89.466 Y145.274 E41.05932
G1 X89.4 Y145 E41.07338
G1 X89.4 Y125 E42.07118
G1 X89.44 Y124.785 E42.08209
G1 X89.553 Y124.599 E42.09295
G1 X89.726 Y124.466 E42.10384
G1 X90 Y124.4 E42.1179
G0 F3600 X89.8 Y125
G1 F1200 X89.839 Y124.881 E42.12414
G1 X90 Y124.8 E42.13314
G1 X110 Y124.8 E43.13094
G1 X110.119 Y124.839 E43.13719
G1 X110.2 Y125 E43.14618
G1 X110.2 Y145 E44.14398
G1 X110.161 Y145.119 E44.15023
G1 X110 Y145.2 E44.15922
G1 X90 Y145.2 E45.15703
G1 X89.881 Y145.161 E45.16327
G1 X89.8 Y145 E45.17227
G1 X89.8 Y125 E46.17007
G1 F1500 E39.67007
G0 F3600 X90.614 Y125.614
G0 X90.67 Y125.67
G0 X90.6 Y125.6
;TYPE:WALL-INNER
G1 F1500 E46.17007
G1 F1200 X109.4 Y125.6 E47.10801
G1 X109.4 Y144.4 E48.04594
G1 X90.6 Y144.4 E48.98388
G1 X90.6 Y125.6 E49.92181
G0 F3600 X90.2 Y125.2
;TYPE:WALL-OUTER
G1 F1200 X109.8 Y125.2 E50.89966
G1 X109.8 Y144.8 E51.87751
G1 X90.2 Y144.8 E52.85536
G1 X90.2 Y125.2 E53.83321
G0 F3600 X90.4 Y125.2
G0 X90.78 Y125.852
;TYPE:SKIN
G1 F1200 X109.146 Y144.219 E55.12906
G1 X109.216 Y144.289
G0 F3600 X109.22 Y143.727
G1 F1200 X91.272 Y125.779 E56.39539
G1 X91.202 Y125.709
G0 F3600 X91.838 Y125.779
G1 F1200 X109.22 Y143.161 E57.62178
G1 X109.29 Y143.231
G0 F3600 X109.22 Y142.595
G1 F1200 X92.404 Y125.779 E58.80824
G1 X92.334 Y125.709
G0 F3600 X92.969 Y125.779
G1 F1200 X109.22 Y142.03 E59.95484
G1 X109.29 Y142.1
G0 F3600 X109.22 Y141.464
G1 F1200 X93.535 Y125.779 E61.0615
G1 X93.465 Y125.709
G0 F3600 X94.101 Y125.779
G1 F1200 X109.22 Y140.898 E62.12823
G1 X109.29 Y140.968
G0 F3600 X109.22 Y140.333
G1 F1200 X94.666 Y125.779 E63.15509
G1 X94.596 Y125.709
G0 F3600 X95.232 Y125.779
G1 F1200 X109.22 Y139.767 E64.14202
G1 X109.29 Y139.837
G0 F3600 X109.22 Y139.201
G1 F1200 X95.798 Y125.779 E65.08901
G1 X95.728 Y125.709
G0 F3600 X96.363 Y125.779
G1 F1200 X109.22 Y138.636 E65.99614
G1 X109.29 Y138.706
G0 F3600 X109.22 Y138.07
G1 F1200 X96.929 Y125.779 E66.86334
G1 X96.859 Y125.709
G0 F3600 X97.495 Y125.779
G1 F1200 X109.22 Y137.504 E67.6906
G1 X109.29 Y137.574
G0 F3600 X109.22 Y136.939
G1 F1200 X98.06 Y125.779 E68.478
G1 X97.99 Y125.709
G0 F3600 X98.626 Y125.779
G1 F1200 X109.22 Y136.373 E69.22547
G1 X109.29 Y136.443
G0 F3600 X109.22 Y135.807
G1 F1200 X99.192 Y125.779 E69.933
G1 X99.122 Y125.709
G0 F3600 X99.757 Y125.779
G1 F1200 X109.22 Y135.241 E70.60063
G1 X109.29 Y135.311
G0 F3600 X109.22 Y134.676
G1 F1200 X100.323 Y125.779 E71.22836
G1 X100.253 Y125.709
G0 F3600 X100.889 Y125.779
G1 F1200 X109.22 Y134.11 E71.81615
G1 X109.29 Y134.18
G0 F3600 X109.22 Y133.544
G1 F1200 X101.454 Y125.779 E72.36405
G1 X101.384 Y125.709
G0 F3600 X102.02 Y125.779
G1 F1200 X109.22 Y132.979 E72.87205
G1 X109.29 Y133.049
G0 F3600 X109.22 Y132.413
G1 F1200 X102.586 Y125.779 E73.34012
G1 X102.516 Y125.709
G0 F3600 X103.152 Y125.779
G1 F1200 X109.22 Y131.847 E73.76825
G1 X109.29 Y131.917
G0 F3600 X109.22 Y131.282
G1 F1200 X103.717 Y125.779 E74.15651
G1 X103.647 Y125.709
G0 F3600 X104.283 Y125.779
G1 F1200 X109.22 Y130.716 E74.50484
G1 X109.29 Y130.786
G0 F3600 X109.22 Y130.15
G1 F1200 X104.849 Y125.779 E74.81324
G1 X104.779 Y125.709
G0 F3600 X105.414 Y125.779
G1 F1200 X109.22 Y129.585 E75.08178
G1 X109.29 Y129.655
G0 F3600 X109.22 Y129.019
G1 F1200 X105.98 Y125.779 E75.31038
G1 X105.91 Y125.709
G0 F3600 X106.546 Y125.779
G1 F1200 X109.22 Y128.453 E75.49904
G1 X109.29 Y128.523
G0 F3600 X109.22 Y127.888
G1 F1200 X107.111 Y125.779 E75.64784
G1 X107.041 Y125.709
G0 F3600 X107.677 Y125.779
G1 F1200 X109.22 Y127.322 E75.75671
G1 X109.29 Y127.392
G0 F3600 X109.22 Y126.756
G1 F1200 X108.243 Y125.779 E75.82564
G1 X108.173 Y125.709
G0 F3600 X108.808 Y125.779
G1 F1200 X109.22 Y126.19 E75.85467
G0 F3600 X108.581 Y144.219
G1 F1200 X90.78 Y126.418 E77.11063
G1 X90.71 Y126.348
G0 F3600 X90.78 Y126.984
G1 F1200 X108.015 Y144.219 E78.32665
G1 X108.085 Y144.289
G0 F3600 X107.449 Y144.219
G1 F1200 X90.78 Y127.55 E79.50274
G1 X90.71 Y127.48
G0 F3600 X90.78 Y128.115
G1 F1200 X106.884 Y144.219 E80.63897
G1 X106.954 Y144.289
G0 F3600 X106.318 Y144.219
G1 F1200 X90.78 Y128.681 E81.73526
G1 X90.71 Y128.611
G0 F3600 X90.78 Y129.247
G1 F1200 X105.752 Y144.219 E82.79161
G1 X105.822 Y144.289
G0 F3600 X105.187 Y144.219
G1 F1200 X90.78 Y129.812 E83.8081
G1 X90.71 Y129.742
G0 F3600 X90.78 Y130.378
G1 F1200 X104.621 Y144.219 E84.78466
G1 X104.691 Y144.289
G0 F3600 X104.055 Y144.219
G1 F1200 X90.78 Y130.944 E85.72128
G1 X90.71 Y130.874
G0 F3600 X90.78 Y131.509
G1 F1200 X103.49 Y144.219 E86.61804
G1 X103.56 Y144.289
G0 F3600 X102.924 Y144.219
G1 F1200 X90.78 Y132.075 E87.47487
G1 X90.71 Y132.005
G0 F3600 X90.78 Y132.641
G1 F1200 X102.358 Y144.219 E88.29176
G1 X102.428 Y144.289
G0 F3600 X101.792 Y144.219
G1 F1200 X90.78 Y133.206 E89.06875
G1 X90.71 Y133.136
G0 F3600 X90.78 Y133.772
G1 F1200 X101.227 Y144.219 E89.80584
G1 X101.297 Y144.289
G0 F3600 X100.661 Y144.219
G1 F1200 X90.78 Y134.338 E90.503
G1 X90.71 Y134.268
G0 F3600 X90.78 Y134.903
G1 F1200 X100.095 Y144.219 E91.16026
G1 X100.165 Y144.289
G0 F3600 X99.53 Y144.219
G1 F1200 X90.78 Y135.469 E91.77762
G1 X90.71 Y135.399
G0 F3600 X90.78 Y136.035
G1 F1200 X98.964 Y144.219 E92.35504
G1 X99.034 Y144.289
G0 F3600 X98.398 Y144.219
G1 F1200 X90.78 Y136.601 E92.89253
G1 X90.71 Y136.531
G0 F3600 X90.78 Y137.166
G1 F1200 X97.833 Y144.219 E93.39016
G1 X97.903 Y144.289
G0 F3600 X97.267 Y144.219
G1 F1200 X90.78 Y137.732 E93.84785
G1 X90.71 Y137.662
G0 F3600 X90.78 Y138.298
G1 F1200 X96.701 Y144.219 E94.26561
G1 X96.771 Y144.289
G0 F3600 X96.136 Y144.219
G1 F1200 X90.78 Y138.863 E94.64351
G1 X90.71 Y138.793
G0 F3600 X90.78 Y139.429
G1 F1200 X95.57 Y144.219 E94.98147
G1 X95.64 Y144.289
