;FLAVOR:Marlin
;TIME:665
;Filament used: 0.617036m
;Layer height: 0.2
;Generated with Cura_SteamEngine master
M190 S65
M104 S210
M109 S210
G21 ;metric values
G90 ;absolute positioning
M82 ;set extruder to absolute mode
M107 ;start with the fan off
G28 X0 Y0 ;move X/Y to min endstops
G28 Z0 ;move Z to min endstops
G1 Z15.0 F9000 ;move the platform down 15mm
G92 E0 ;zero the extruded length
G1 F200 E3 ;extrude 3mm of feed stock
G92 E0 ;zero the extruded length again
G1 F9000
;Put printing message on LCD screen
M117 Printing...
;LAYER_COUNT:76
;LAYER:0
M107
G0 F3600 X40.438 Y55.633 Z0.3
;TYPE:SKIRT
G1 F1500 X40.94 Y55.318 E0.02957
G1 X41.481 Y55.074 E0.05918
G1 X42.049 Y54.905 E0.08874
G1 X42.635 Y54.814 E0.11833
G1 X43.019 Y54.797 E0.1375
G1 X57.041 Y54.8 E0.83706
G1 X57.633 Y54.84 E0.86667
G1 X58.305 Y54.986 E0.90098
G1 X58.878 Y55.158 E0.93082
G1 X59.433 Y55.366 E0.96039
G1 X59.955 Y55.647 E0.98997
G1 X60.237 Y55.84 E1.00702
G1 X60.478 Y56.019 E1.02199
G1 X60.929 Y56.404 E1.05158
G1 X61.471 Y57.046 E1.0935
G1 X61.746 Y57.443 E1.11759
G1 X62.05 Y57.952 E1.14717
G1 X62.283 Y58.497 E1.17674
G1 X62.378 Y58.805 E1.19282
G1 X62.48 Y59.184 E1.2124
G1 X62.595 Y59.765 E1.24195
G1 X62.631 Y60.325 E1.26995
G1 X62.638 Y74.416 E1.97295
G1 X62.598 Y75.007 E2.0025
G1 X62.479 Y75.588 E2.03209
G1 X62.284 Y76.148 E2.06167
G1 X62.014 Y76.676 E2.09126
G1 X61.676 Y77.164 E2.12088
G1 X61.276 Y77.601 E2.15043
G1 X60.82 Y77.98 E2.18001
G1 X60.318 Y78.295 E2.20958
G1 X59.778 Y78.54 E2.23916
G1 X59.21 Y78.709 E2.26873
G1 X58.624 Y78.801 E2.29832
G1 X58.238 Y78.818 E2.3176
G1 X43.017 Y78.819 E3.07698
G1 X42.426 Y78.779 E3.10653
G1 X41.845 Y78.66 E3.13612
G1 X41.285 Y78.464 E3.16572
G1 X40.757 Y78.194 E3.19531
G1 X40.27 Y77.856 E3.22488
G1 X39.833 Y77.456 E3.25444
G1 X39.453 Y77 E3.28405
G1 X39.139 Y76.497 E3.31363
G1 X38.895 Y75.957 E3.3432
G1 X38.725 Y75.389 E3.37278
G1 X38.634 Y74.803 E3.40236
G1 X38.617 Y74.419 E3.42154
G1 X38.618 Y59.197 E4.18097
G1 X38.658 Y58.605 E4.21057
G1 X38.777 Y58.024 E4.24016
G1 X38.973 Y57.465 E4.26971
G1 X39.243 Y56.937 E4.2993
G1 X39.581 Y56.45 E4.32887
G1 X39.982 Y56.012 E4.3585
G1 X40.438 Y55.633 E4.38808
G0 F3600 X40.824 Y55.852
G1 F1500 X41.317 Y55.577 E4.41625
G1 X41.845 Y55.373 E4.44448
G1 X42.396 Y55.246 E4.4727
G1 X43.019 Y55.197 E4.50387
G1 X57.041 Y55.2 E5.20343
G1 X57.605 Y55.24 E5.23164
G1 X58.19 Y55.369 E5.26153
G1 X58.763 Y55.541 E5.29138
G1 X59.292 Y55.741 E5.31959
G1 X59.998 Y56.161 E5.36058
G1 X60.239 Y56.34 E5.37555
G1 X60.668 Y56.708 E5.40375
G1 X61.142 Y57.273 E5.44054
G1 X61.417 Y57.67 E5.46464
G1 X61.705 Y58.157 E5.49287
G1 X61.992 Y58.908 E5.53298
G1 X62.094 Y59.287 E5.55256
G1 X62.202 Y59.842 E5.58077
G1 X62.231 Y60.325 E5.60491
G1 X62.238 Y74.416 E6.30791
G1 X62.198 Y74.98 E6.33612
G1 X62.08 Y75.533 E6.36433
G1 X61.884 Y76.063 E6.39252
G1 X61.616 Y76.561 E6.42074
G1 X61.28 Y77.015 E6.44891
G1 X60.883 Y77.418 E6.47714
G1 X60.434 Y77.761 E6.50533
G1 X59.941 Y78.038 E6.53354
G1 X59.413 Y78.241 E6.56176
G1 X58.863 Y78.369 E6.58993
G1 X58.238 Y78.418 E6.62121
G1 X43.017 Y78.419 E7.38059
G1 X42.453 Y78.379 E7.4088
G1 X41.901 Y78.26 E7.43697
G1 X41.37 Y78.064 E7.46521
G1 X40.873 Y77.796 E7.49338
G1 X40.418 Y77.46 E7.5216
G1 X40.015 Y77.063 E7.54982
G1 X39.673 Y76.613 E7.57802
G1 X39.397 Y76.12 E7.60621
G1 X39.193 Y75.593 E7.6344
G1 X39.066 Y75.042 E7.66261
G1 X39.017 Y74.419 E7.69379
G1 X39.018 Y59.197 E8.45322
G1 X39.058 Y58.633 E8.48143
G1 X39.177 Y58.08 E8.50965
G1 X39.373 Y57.55 E8.53784
G1 X39.642 Y57.052 E8.56608
G1 X39.978 Y56.598 E8.59426
G1 X40.374 Y56.195 E8.62244
G1 X40.824 Y55.852 E8.65067
G0 F3600 X41.207 Y56.085
G1 F1500 X41.69 Y55.851 E8.67745
G1 X42.202 Y55.691 E8.70421
G1 X42.731 Y55.608 E8.73092
G1 X43.019 Y55.597 E8.7453
G1 X57.041 Y55.6 E9.44486
G1 X57.576 Y55.64 E9.47163
G1 X58.075 Y55.752 E9.49714
G1 X58.648 Y55.924 E9.52699
G1 X59.149 Y56.116 E9.55376
G1 X59.76 Y56.482 E9.58929
G1 X60.001 Y56.661 E9.60427
G1 X60.406 Y57.012 E9.63101
G1 X60.813 Y57.501 E9.66275
G1 X61.088 Y57.898 E9.68684
G1 X61.36 Y58.36 E9.71359
G1 X61.605 Y59.012 E9.74834
G1 X61.707 Y59.391 E9.76792
G1 X61.808 Y59.918 E9.79469
G1 X61.831 Y60.325 E9.81503
G1 X61.838 Y74.416 E10.51803
G1 X61.798 Y74.951 E10.5448
G1 X61.68 Y75.474 E10.57155
G1 X61.485 Y75.974 E10.59832
G1 X61.217 Y76.439 E10.6251
G1 X60.884 Y76.859 E10.65184
G1 X60.492 Y77.225 E10.67859
G1 X60.05 Y77.529 E10.70536
G1 X59.568 Y77.763 E10.73209
G1 X59.056 Y77.924 E10.75887
G1 X58.527 Y78.006 E10.78557
G1 X58.238 Y78.018 E10.8
G1 X43.017 Y78.019 E11.55938
G1 X42.482 Y77.979 E11.58615
G1 X41.96 Y77.86 E11.61286
G1 X41.46 Y77.665 E11.63963
G1 X40.995 Y77.398 E11.66639
G1 X40.575 Y77.064 E11.69316
G1 X40.209 Y76.672 E11.71991
G1 X39.906 Y76.23 E11.74665
G1 X39.671 Y75.748 E11.7734
G1 X39.511 Y75.236 E11.80016
G1 X39.428 Y74.706 E11.82693
G1 X39.417 Y74.419 E11.84126
G1 X39.418 Y59.197 E12.60069
G1 X39.458 Y58.662 E12.62745
G1 X39.577 Y58.139 E12.65421
G1 X39.772 Y57.64 E12.68094
G1 X40.04 Y57.175 E12.70772
G1 X40.373 Y56.755 E12.73446
G1 X40.765 Y56.389 E12.76121
G1 X41.207 Y56.085 E12.78798
G0 F3600 X41.587 Y56.335
G1 F1500 X42.056 Y56.145 E12.81322
G1 X42.548 Y56.032 E12.83841
G1 X43.019 Y55.997 E12.86197
G1 X57.041 Y56 E13.56153
G1 X57.545 Y56.04 E13.58675
G1 X57.96 Y56.135 E13.60799
G1 X58.533 Y56.307 E13.63784
G1 X59.004 Y56.49 E13.66305
G1 X59.521 Y56.803 E13.6932
G1 X59.762 Y56.982 E13.70818
G1 X60.143 Y57.315 E13.73343
G1 X60.485 Y57.729 E13.76022
G1 X60.76 Y58.126 E13.78431
G1 X61.014 Y58.563 E13.80953
G1 X61.219 Y59.116 E13.83895
G1 X61.321 Y59.495 E13.85853
G1 X61.413 Y59.992 E13.88375
G1 X61.431 Y60.325 E13.90039
G1 X61.438 Y74.416 E14.60339
G1 X61.398 Y74.92 E14.62861
G1 X61.28 Y75.412 E14.65386
G1 X61.085 Y75.879 E14.6791
G1 X60.82 Y76.309 E14.7043
G1 X60.49 Y76.692 E14.72953
G1 X60.103 Y77.018 E14.75477
G1 X59.671 Y77.279 E14.77995
G1 X59.202 Y77.469 E14.8052
G1 X58.71 Y77.583 E14.83039
G1 X58.238 Y77.618 E14.85401
G1 X43.017 Y77.619 E15.61338
G1 X42.513 Y77.579 E15.63861
G1 X42.022 Y77.46 E15.66381
G1 X41.555 Y77.266 E15.68904
G1 X41.125 Y77 E15.71427
G1 X40.742 Y76.67 E15.73949
G1 X40.416 Y76.283 E15.76474
G1 X40.155 Y75.85 E15.78996
G1 X39.965 Y75.382 E15.81516
G1 X39.852 Y74.889 E15.84039
G1 X39.817 Y74.419 E15.86391
G1 X39.818 Y59.197 E16.62333
G1 X39.858 Y58.693 E16.64856
G1 X39.977 Y58.201 E16.67381
G1 X40.172 Y57.735 E16.69901
G1 X40.437 Y57.305 E16.72421
G1 X40.768 Y56.922 E16.74947
G1 X41.154 Y56.596 E16.77468
G1 X41.587 Y56.335 E16.7999
G1 F1500 E10.2999
G0 F3600 X43.622 Y58.523
G0 X43.622 Y59.802
G0 X43.808 Y59.888
G0 X43.808 Y59.788
;TYPE:WALL-INNER
G1 F1500 E16.7999
G1 X56.993 Y59.789 E17.4577
G1 X57.12 Y59.806 E17.46409
G1 X57.282 Y59.862 E17.47265
G1 X57.386 Y59.929 E17.47882
G1 X57.503 Y60.043 E17.48697
G1 X57.57 Y60.149 E17.49322
G1 X57.618 Y60.268 E17.49963
G1 X57.646 Y60.422 E17.50743
G1 X57.648 Y73.628 E18.16628
G1 X57.648 Y73.828 E18.17626
G1 X57.448 Y73.828 E18.18272
G1 X43.608 Y73.828 E18.8732
G1 X43.608 Y59.988 E19.56368
G1 X43.608 Y59.788 E19.57366
G1 X43.808 Y59.788 E19.58012
G0 F3600 X43.808 Y59.888
G0 X52.11 Y62.931
G0 X52.202 Y62.969
G1 F1500 X52.114 Y63.247 E19.59467
G1 X52.087 Y63.407 E19.60277
G1 X52.072 Y63.571 E19.61098
G1 X52.085 Y63.86 E19.62541
G1 X52.151 Y64.154 E19.64045
G1 X52.266 Y64.433 E19.6555
G1 X52.429 Y64.688 E19.6706
G1 X52.621 Y64.897 E19.68476
G1 X52.757 Y65.015 E19.69374
G1 X52.993 Y65.163 E19.70764
G1 X53.14 Y65.232 E19.71574
G1 X53.295 Y65.288 E19.72397
G1 X53.565 Y65.348 E19.73776
G1 X53.741 Y65.363 E19.74658
G1 X54.028 Y65.351 E19.76091
G1 X54.325 Y65.285 E19.77609
G1 X54.601 Y65.169 E19.79102
G1 X54.857 Y65.008 E19.80611
G1 X55.08 Y64.802 E19.82126
G1 X55.264 Y64.564 E19.83627
G1 X55.396 Y64.309 E19.85059
G1 X55.454 Y64.155 E19.8588
G1 X55.496 Y63.995 E19.86705
G1 X55.534 Y63.708 E19.8815
G1 X55.52 Y63.407 E19.89653
G1 X55.456 Y63.112 E19.91159
G1 X55.339 Y62.832 E19.92673
G1 X55.184 Y62.59 E19.94107
G1 X55.071 Y62.454 E19.94989
G1 X54.857 Y62.258 E19.96437
G1 X54.601 Y62.096 E19.97948
G1 X54.336 Y61.985 E19.99382
G1 X54.178 Y61.943 E20.00197
G1 X54.026 Y61.916 E20.00967
G1 X53.863 Y61.903 E20.01783
G1 X53.577 Y61.915 E20.03211
G1 X53.282 Y61.981 E20.04719
G1 X53.004 Y62.095 E20.06218
G1 X52.748 Y62.258 E20.07733
G1 X52.525 Y62.463 E20.09244
G1 X52.341 Y62.702 E20.10749
G1 X52.202 Y62.969 E20.1225
G0 F3600 X52.573 Y63.123
;TYPE:WALL-OUTER
G1 F1500 X52.504 Y63.341 E20.13391
G1 X52.484 Y63.459 E20.13988
G1 X52.473 Y63.58 E20.14594
G1 X52.483 Y63.807 E20.15728
G1 X52.534 Y64.033 E20.16884
G1 X52.622 Y64.248 E20.18043
G1 X52.747 Y64.443 E20.19198
G1 X52.9 Y64.61 E20.20328
G1 X52.995 Y64.692 E20.20955
G1 X53.185 Y64.811 E20.22073
G1 X53.293 Y64.862 E20.22669
G1 X53.407 Y64.903 E20.23273
G1 X53.625 Y64.952 E20.24388
G1 X53.749 Y64.962 E20.25009
G1 X53.976 Y64.953 E20.26142
G1 X54.203 Y64.902 E20.27303
G1 X54.416 Y64.813 E20.28455
G1 X54.613 Y64.689 E20.29616
G1 X54.784 Y64.531 E20.30777
G1 X54.925 Y64.348 E20.3193
G1 X55.03 Y64.146 E20.33066
G1 X55.072 Y64.033 E20.33667
G1 X55.103 Y63.917 E20.34266
G1 X55.133 Y63.691 E20.35404
G1 X55.122 Y63.459 E20.36562
G1 X55.073 Y63.233 E20.37716
G1 X54.983 Y63.018 E20.38879
G1 X54.861 Y62.827 E20.4001
G1 X54.781 Y62.731 E20.40633
G1 X54.613 Y62.577 E20.4177
G1 X54.416 Y62.452 E20.42934
G1 X54.207 Y62.365 E20.44064
G1 X54.091 Y62.334 E20.44663
G1 X53.975 Y62.313 E20.45251
G1 X53.856 Y62.304 E20.45846
G1 X53.629 Y62.313 E20.46979
G1 X53.403 Y62.364 E20.48135
G1 X53.189 Y62.452 E20.4929
G1 X52.992 Y62.577 E20.50454
G1 X52.821 Y62.734 E20.51612
G1 X52.68 Y62.918 E20.52768
G1 X52.573 Y63.123 E20.53922
G0 F3600 X52.513 Y63.314
G0 X52.036 Y63.163
G0 X52.496 Y62.436
G0 X52.986 Y62.06
G0 X56.987 Y59.888
G0 X57.022 Y59.389
G1 F1500 X57.206 Y59.413 E20.54848
G1 X57.39 Y59.472 E20.55812
G1 X57.471 Y59.509 E20.56256
G1 X57.631 Y59.611 E20.57203
G1 X57.766 Y59.734 E20.58114
G1 X57.823 Y59.802 E20.58557
G1 X57.929 Y59.968 E20.59539
G1 X58.001 Y60.145 E20.60493
G1 X58.04 Y60.328 E20.61426
G1 X58.046 Y60.402 E20.61796
G1 X58.048 Y74.028 E21.29777
G1 X58.048 Y74.228 E21.30775
G1 X57.848 Y74.228 E21.31421
G1 X43.208 Y74.228 E22.0446
G1 X43.208 Y59.588 E22.77499
G1 X43.208 Y59.388 E22.78497
G1 X43.408 Y59.388 E22.79143
G1 X57.022 Y59.389 E23.47064
G0 F3600 X57.206 Y59.413
G0 X57.22 Y59.417
G0 X57.097 Y59.903
G0 X57.414 Y60.242
;TYPE:SKIN
G1 F1500 X57.191 Y60.019 E23.48637
G0 F3600 X56.574 Y59.968
G1 F1500 X57.467 Y60.861 E23.54938
G1 X57.537 Y60.931
G0 F3600 X57.467 Y61.427
G1 F1500 X56.008 Y59.968 E23.65232
G1 X55.938 Y59.898
G0 F3600 X55.442 Y59.968
G1 F1500 X57.467 Y61.992 E23.79516
G1 X57.537 Y62.062
G0 F3600 X57.467 Y62.558
G1 F1500 X54.877 Y59.968 E23.97789
G1 X54.807 Y59.898
G0 F3600 X54.311 Y59.968
G1 F1500 X57.467 Y63.124 E24.20057
G1 X57.537 Y63.194
G0 F3600 X57.467 Y63.689
G1 F1500 X53.745 Y59.968 E24.46314
G1 X53.675 Y59.898
G0 F3600 X53.18 Y59.968
G1 F1500 X57.467 Y64.255 E24.76561
G1 X57.537 Y64.325
G0 F3600 X57.467 Y64.821
G1 F1500 X55.575 Y62.928 E24.89914
G1 X55.505 Y62.858
G0 F3600 X55.71 Y63.63
G1 F1500 X57.467 Y65.387 E25.0231
G1 X57.537 Y65.457
G0 F3600 X57.467 Y65.953
G1 F1500 X55.645 Y64.131 E25.15165
G1 X55.575 Y64.061
G0 F3600 X55.481 Y64.532
G1 F1500 X57.467 Y66.518 E25.29178
G1 X57.537 Y66.588
G0 F3600 X57.467 Y67.084
G1 F1500 X55.253 Y64.869 E25.44802
G1 X55.183 Y64.799
G0 F3600 X54.967 Y65.149
G1 F1500 X57.467 Y67.65 E25.62445
G1 X57.537 Y67.72
G0 F3600 X57.467 Y68.216
G1 F1500 X54.611 Y65.36 E25.82595
G1 X54.541 Y65.29
G0 F3600 X54.185 Y65.499
G1 F1500 X57.467 Y68.781 E26.05752
G1 X57.537 Y68.851
G0 F3600 X57.468 Y69.348
G1 F1500 X53.656 Y65.536 E26.32647
G1 X53.586 Y65.466
G0 F3600 X52.822 Y65.267
G1 F1500 X57.468 Y69.913 E26.65427
G1 X57.538 Y69.983
G0 F3600 X57.468 Y70.479
G1 F1500 X46.956 Y59.967 E27.39595
G1 X46.886 Y59.897
G0 F3600 X46.391 Y59.967
G1 F1500 X57.468 Y71.045 E28.17753
G1 X57.538 Y71.115
G0 F3600 X57.468 Y71.61
G1 F1500 X45.825 Y59.967 E28.99901
G1 X45.755 Y59.897
G0 F3600 X45.259 Y59.967
G1 F1500 X57.468 Y72.176 E29.86042
G1 X57.538 Y72.246
G0 F3600 X57.468 Y72.742
G1 F1500 X44.694 Y59.967 E30.76173
G1 X44.624 Y59.897
G0 F3600 X44.128 Y59.967
G1 F1500 X57.468 Y73.307 E31.70294
G1 X57.538 Y73.377
G0 F3600 X57.242 Y73.647
G1 F1500 X43.787 Y60.192 E32.65226
G1 X43.717 Y60.122
G0 F3600 X43.787 Y60.758
G1 F1500 X56.676 Y73.647 E33.56165
G1 X56.746 Y73.717
G0 F3600 X56.111 Y73.647
G1 F1500 X43.787 Y61.323 E34.43117
G1 X43.717 Y61.253
G0 F3600 X43.787 Y61.889
G1 F1500 X55.545 Y73.647 E35.26076
G1 X55.615 Y73.717
G0 F3600 X54.979 Y73.647
G1 F1500 X43.787 Y62.455 E36.05042
G1 X43.717 Y62.385
G0 F3600 X43.787 Y63.02
G1 F1500 X54.413 Y73.647 E36.80017
G1 X54.483 Y73.717
G0 F3600 X53.848 Y73.647
G1 F1500 X43.787 Y63.586 E37.51003
G1 X43.717 Y63.516
G0 F3600 X43.787 Y64.152
G1 F1500 X53.282 Y73.647 E38.17996
G1 X53.352 Y73.717
G0 F3600 X52.716 Y73.647
G1 F1500 X43.787 Y64.717 E38.80998
G1 X43.717 Y64.647
G0 F3600 X43.787 Y65.283
G1 F1500 X52.151 Y73.647 E39.40011
G1 X52.221 Y73.717
G0 F3600 X51.585 Y73.647
G1 F1500 X43.787 Y65.849 E39.9503
G1 X43.717 Y65.779
G0 F3600 X43.787 Y66.415
G1 F1500 X51.019 Y73.647 E40.46055
G1 X51.089 Y73.717
G0 F3600 X50.454 Y73.647
G1 F1500 X43.787 Y66.98 E40.93095
G1 X43.717 Y66.91
G0 F3600 X43.787 Y67.546
G1 F1500 X49.888 Y73.647 E41.36141
G1 X49.958 Y73.717
G0 F3600 X49.322 Y73.647
G1 F1500 X43.787 Y68.112 E41.75193
G1 X43.717 Y68.042
G0 F3600 X43.787 Y68.677
G1 F1500 X48.757 Y73.647 E42.10259
G1 X48.827 Y73.717
G0 F3600 X48.191 Y73.647
G1 F1500 X43.787 Y69.243 E42.41332
G1 X43.717 Y69.173
G0 F3600 X43.787 Y69.809
G1 F1500 X47.625 Y73.647 E42.68411
G1 X47.695 Y73.717
G0 F3600 X47.06 Y73.647
G1 F1500 X43.787 Y70.374 E42.91504
G1 X43.717 Y70.304
G0 F3600 X43.787 Y70.94
G1 F1500 X46.494 Y73.647 E43.10603
G1 X46.564 Y73.717
G0 F3600 X45.928 Y73.647
G1 F1500 X43.787 Y71.506 E43.25709
G1 X43.717 Y71.436
G0 F3600 X43.787 Y72.071
G1 F1500 X45.363 Y73.647 E43.36828
G1 X45.433 Y73.717
G0 F3600 X44.797 Y73.647
G1 F1500 X43.787 Y72.637 E43.43954
G1 X43.717 Y72.567
G0 F3600 X43.787 Y73.203
G1 F1500 X44.231 Y73.647 E43.47087
G0 F3600 X52.17 Y64.615
G1 F1500 X47.522 Y59.967 E43.79881
G1 X47.452 Y59.897
G0 F3600 X48.088 Y59.967
G1 F1500 X51.901 Y63.781 E44.06787
G1 X51.971 Y63.851
G0 F3600 X51.932 Y63.245
G1 F1500 X48.653 Y59.967 E44.29919
G1 X48.583 Y59.897
G0 F3600 X49.219 Y59.967
G1 F1500 X52.075 Y62.823 E44.5007
G1 X52.145 Y62.893
G0 F3600 X52.29 Y62.472
G1 F1500 X49.785 Y59.967 E44.67744
G1 X49.715 Y59.897
G0 F3600 X50.35 Y59.967
G1 F1500 X52.564 Y62.181 E44.83365
G1 X52.634 Y62.251
G0 F3600 X52.897 Y61.948
G1 F1500 X50.917 Y59.968 E44.97335
G1 X50.847 Y59.898
G0 F3600 X51.483 Y59.968
G1 F1500 X53.305 Y61.79 E45.1019
G1 X53.375 Y61.86
G0 F3600 X53.804 Y61.724
G1 F1500 X52.048 Y59.968 E45.22579
G1 X51.978 Y59.898
G0 F3600 X52.614 Y59.968
G1 F1500 X54.505 Y61.859 E45.35922
G1 X54.575 Y61.929
G0 F3600 X54.674 Y61.693
G0 X43.678 Y59.858
G0 X43.608 Y59.788
;TIME_ELAPSED:40.162917
;LAYER:1
M140 S65
M106 S255
G0 F5400 X43.608 Y59.788 Z0.5
;TYPE:WALL-INNER
G1 F2250 X43.808 Y59.788 E45.36587
G1 X56.993 Y59.789 E45.8044
G1 X57.12 Y59.806 E45.80866
G1 X57.282 Y59.862 E45.81436
G1 X57.386 Y59.929 E45.81848
G1 X57.503 Y60.043 E45.82391
G1 X57.57 Y60.149 E45.82808
G1 X57.618 Y60.268 E45.83235
G1 X57.646 Y60.422 E45.83756
G1 X57.648 Y73.628 E46.27679
G1 X57.648 Y73.828 E46.28344
G1 X57.448 Y73.828 E46.28775
G1 X43.608 Y73.828 E46.74807
G1 X43.608 Y59.988 E47.20839
G1 X43.608 Y59.788 E47.2127
G0 F5400 X43.678 Y59.858
G0 X52.11 Y62.931
G0 X52.202 Y62.969
G1 F2250 X52.114 Y63.247 E47.2224
G1 X52.087 Y63.407 E47.22779
G1 X52.072 Y63.571 E47.23327
G1 X52.085 Y63.86 E47.24289
G1 X52.151 Y64.154 E47.25291
G1 X52.266 Y64.433 E47.26295
G1 X52.429 Y64.688 E47.27302
G1 X52.621 Y64.897 E47.28246
G1 X52.757 Y65.015 E47.28845
G1 X52.993 Y65.163 E47.29771
G1 X53.14 Y65.232 E47.30311
G1 X53.295 Y65.288 E47.30859
G1 X53.565 Y65.348 E47.31779
G1 X53.741 Y65.363 E47.32367
G1 X54.028 Y65.351 E47.33322
G1 X54.325 Y65.285 E47.34334
G1 X54.601 Y65.169 E47.3533
G1 X54.857 Y65.008 E47.36336
