;FLAVOR:Marlin
;TIME:4572
;Filament used: 4.36736m
;Layer height: 0.2
;Generated with Cura_SteamEngine 2.7.0
M190 S65
M104 S210
M109 S210
G21 ;metric values
G90 ;absolute positioning
M82 ;set extruder to absolute mode
M107 ;start with the fan off
G28 X0 Y0 ;move X/Y to min endstops
G28 Z0 ;move Z to min endstops
G1 Z15.0 F9000 ;move the platform down 15mm
G92 E0 ;zero the extruded length
G1 F200 E3 ;extrude 3mm of feed stock
G92 E0 ;zero the extruded length again
G1 F9000
;Put printing message on LCD screen
M117 Printing...
;LAYER_COUNT:127
;LAYER:0
M107
G0 F3600 X75.516 Y110.135 Z0.3
;TYPE:SKIRT
G1 F1500 X76.004 Y109.878 E0.02752
G1 X76.523 Y109.695 E0.05497
G1 X77.064 Y109.589 E0.08248
G1 X77.524 Y109.561 E0.10547
G1 X122.475 Y109.561 E2.34808
G1 X123.025 Y109.601 E2.37559
G1 X123.563 Y109.72 E2.40308
G1 X124.078 Y109.916 E2.43058
G1 X124.559 Y110.184 E2.45805
G1 X124.997 Y110.518 E2.48553
G1 X125.381 Y110.913 E2.51301
G1 X125.705 Y111.359 E2.54051
G1 X125.96 Y111.847 E2.56798
G1 X126.143 Y112.367 E2.59549
G1 X126.248 Y112.908 E2.62298
G1 X126.275 Y113.368 E2.64597
G1 X126.236 Y135.559 E3.75308
G1 X126.215 Y135.95 E3.77262
G1 X126.012 Y137.878 E3.86934
G1 X125.964 Y138.203 E3.88573
G1 X125.595 Y140.106 E3.98244
G1 X125.495 Y140.503 E4.00286
G1 X124.639 Y143.278 E4.14775
G1 X124.498 Y143.661 E4.16811
G1 X123.732 Y145.44 E4.26474
G1 X123.589 Y145.737 E4.28119
G1 X122.671 Y147.444 E4.37788
G1 X122.504 Y147.724 E4.39415
G1 X121.444 Y149.345 E4.49078
G1 X121.253 Y149.611 E4.50711
G1 X120.057 Y151.135 E4.60376
G1 X119.788 Y151.443 E4.62417
G1 X117.759 Y153.522 E4.7691
G1 X117.457 Y153.8 E4.78958
G1 X115.962 Y155.033 E4.88626
G1 X115.702 Y155.229 E4.9025
G1 X114.108 Y156.329 E4.99912
G1 X113.829 Y156.504 E5.01555
G1 X112.145 Y157.462 E5.11221
G1 X111.852 Y157.612 E5.12863
G1 X110.091 Y158.421 E5.22532
G1 X109.79 Y158.544 E5.24154
G1 X107.965 Y159.2 E5.33829
G1 X107.65 Y159.298 E5.35475
G1 X105.779 Y159.792 E5.4513
G1 X105.463 Y159.861 E5.46743
G1 X103.552 Y160.195 E5.56422
G1 X103.226 Y160.238 E5.58062
G1 X101.296 Y160.405 E5.67727
G1 X100.968 Y160.419 E5.69365
G1 X99.032 Y160.419 E5.79024
G1 X98.704 Y160.405 E5.80662
G1 X96.774 Y160.238 E5.90326
G1 X96.45 Y160.196 E5.91956
G1 X94.539 Y159.863 E6.01634
G1 X94.22 Y159.793 E6.03263
G1 X92.348 Y159.298 E6.12924
G1 X92.035 Y159.2 E6.1456
G1 X90.211 Y158.545 E6.24229
G1 X89.832 Y158.386 E6.2628
G1 X87.22 Y157.115 E6.40772
G1 X86.863 Y156.917 E6.42808
G1 X85.222 Y155.887 E6.52475
G1 X84.953 Y155.701 E6.54106
G1 X83.407 Y154.534 E6.6377
G1 X83.154 Y154.326 E6.65404
G1 X81.714 Y153.03 E6.75069
G1 X81.48 Y152.8 E6.76706
G1 X80.156 Y151.384 E6.86378
G1 X79.943 Y151.135 E6.88013
G1 X78.747 Y149.611 E6.97678
G1 X78.556 Y149.345 E6.99311
G1 X77.496 Y147.724 E7.08974
G1 X77.329 Y147.444 E7.10601
G1 X76.411 Y145.737 E7.2027
G1 X76.237 Y145.365 E7.22319
G1 X75.145 Y142.672 E7.36817
G1 X75.011 Y142.283 E7.3887
G1 X74.482 Y140.422 E7.48522
G1 X74.407 Y140.108 E7.50133
G1 X74.037 Y138.204 E7.5981
G1 X73.988 Y137.877 E7.61459
G1 X73.785 Y135.95 E7.71126
G1 X73.764 Y135.559 E7.7308
G1 X73.724 Y113.368 E8.83791
G1 X73.763 Y112.818 E8.86542
G1 X73.881 Y112.28 E8.8929
G1 X74.076 Y111.765 E8.92037
G1 X74.343 Y111.283 E8.94786
G1 X74.677 Y110.844 E8.97538
G1 X75.071 Y110.459 E9.00287
G1 X75.516 Y110.135 E9.03033
G0 F3600 X75.898 Y110.375
G1 F1500 X76.374 Y110.162 E9.05635
G1 X76.876 Y110.023 E9.08233
G1 X77.524 Y109.961 E9.11481
G1 X122.475 Y109.961 E11.35743
G1 X122.995 Y110.001 E11.38345
G1 X123.502 Y110.12 E11.40943
G1 X123.985 Y110.315 E11.43541
G1 X124.433 Y110.581 E11.46141
G1 X124.835 Y110.913 E11.48742
G1 X125.181 Y111.303 E11.51343
G1 X125.464 Y111.741 E11.53945
G1 X125.677 Y112.216 E11.56542
G1 X125.814 Y112.719 E11.59143
G1 X125.875 Y113.367 E11.6239
G1 X125.836 Y135.558 E12.73101
G1 X125.817 Y135.908 E12.7485
G1 X125.614 Y137.836 E12.84522
G1 X125.571 Y138.127 E12.8599
G1 X125.202 Y140.03 E12.95661
G1 X125.113 Y140.385 E12.97486
G1 X124.257 Y143.16 E13.11975
G1 X124.131 Y143.503 E13.13798
G1 X123.365 Y145.282 E13.23461
G1 X123.236 Y145.547 E13.24931
G1 X122.318 Y147.254 E13.34601
G1 X122.17 Y147.505 E13.36055
G1 X121.11 Y149.126 E13.45718
G1 X120.939 Y149.364 E13.4718
G1 X119.743 Y150.888 E13.56845
G1 X119.501 Y151.164 E13.58676
G1 X117.472 Y153.243 E13.73169
G1 X117.202 Y153.491 E13.74998
G1 X115.707 Y154.724 E13.84666
G1 X115.475 Y154.899 E13.86116
G1 X113.881 Y155.999 E13.95778
G1 X113.631 Y156.156 E13.97251
G1 X111.947 Y157.114 E14.06917
G1 X111.685 Y157.249 E14.08387
G1 X109.924 Y158.058 E14.18056
G1 X109.655 Y158.168 E14.19506
G1 X107.83 Y158.824 E14.29181
G1 X107.548 Y158.911 E14.30653
G1 X105.677 Y159.405 E14.40308
G1 X105.394 Y159.467 E14.41753
G1 X103.483 Y159.801 E14.51432
G1 X103.191 Y159.839 E14.52901
G1 X101.261 Y160.006 E14.62566
G1 X100.968 Y160.019 E14.64029
G1 X99.032 Y160.019 E14.73688
G1 X98.739 Y160.006 E14.75151
G1 X96.809 Y159.839 E14.84816
G1 X96.518 Y159.802 E14.86279
G1 X94.607 Y159.469 E14.95957
G1 X94.322 Y159.406 E14.97413
G1 X92.45 Y158.911 E15.07073
G1 X92.17 Y158.824 E15.08536
G1 X90.346 Y158.169 E15.18205
G1 X90.007 Y158.026 E15.20041
G1 X87.395 Y156.755 E15.34533
G1 X87.075 Y156.578 E15.36357
G1 X85.434 Y155.548 E15.46023
G1 X85.194 Y155.382 E15.47479
G1 X83.648 Y154.215 E15.57143
G1 X83.422 Y154.028 E15.58606
G1 X81.982 Y152.732 E15.68272
G1 X81.773 Y152.527 E15.69732
G1 X80.449 Y151.111 E15.79404
G1 X80.257 Y150.888 E15.80872
G1 X79.061 Y149.364 E15.90537
G1 X78.89 Y149.126 E15.91999
G1 X77.83 Y147.505 E16.01662
G1 X77.682 Y147.254 E16.03116
G1 X76.764 Y145.547 E16.12785
G1 X76.607 Y145.215 E16.14618
G1 X75.515 Y142.522 E16.29116
G1 X75.396 Y142.174 E16.3095
G1 X74.867 Y140.313 E16.40603
G1 X74.799 Y140.032 E16.42045
G1 X74.429 Y138.128 E16.51722
G1 X74.386 Y137.835 E16.53199
G1 X74.183 Y135.908 E16.62866
G1 X74.164 Y135.558 E16.64615
G1 X74.124 Y113.367 E17.75327
G1 X74.163 Y112.847 E17.77928
G1 X74.281 Y112.34 E17.80525
G1 X74.475 Y111.856 E17.83127
G1 X74.741 Y111.408 E17.85726
G1 X75.072 Y111.006 E17.88324
G1 X75.461 Y110.658 E17.90928
G1 X75.898 Y110.375 E17.93526
G0 F3600 X76.276 Y110.633
G1 F1500 X76.736 Y110.466 E17.95967
G1 X77.217 Y110.377 E17.98407
G1 X77.524 Y110.361 E17.99941
G1 X122.475 Y110.361 E20.24203
G1 X122.963 Y110.401 E20.26645
G1 X123.438 Y110.52 E20.29088
G1 X123.887 Y110.714 E20.31529
G1 X124.299 Y110.979 E20.33973
G1 X124.662 Y111.307 E20.36413
G1 X124.967 Y111.69 E20.38856
G1 X125.205 Y112.118 E20.41299
G1 X125.371 Y112.578 E20.43739
G1 X125.46 Y113.059 E20.4618
G1 X125.475 Y113.366 E20.47713
G1 X125.436 Y135.557 E21.58425
G1 X125.42 Y135.866 E21.59968
G1 X125.217 Y137.794 E21.6964
G1 X125.178 Y138.051 E21.70937
G1 X124.809 Y139.954 E21.80608
G1 X124.731 Y140.267 E21.82217
G1 X123.875 Y143.042 E21.96706
G1 X123.763 Y143.344 E21.98313
G1 X122.997 Y145.123 E22.07976
G1 X122.884 Y145.358 E22.09277
G1 X121.966 Y147.065 E22.18946
G1 X121.835 Y147.286 E22.20228
G1 X120.775 Y148.907 E22.29891
G1 X120.624 Y149.117 E22.31181
G1 X119.428 Y150.641 E22.40846
G1 X119.215 Y150.884 E22.42459
G1 X117.186 Y152.963 E22.56952
G1 X116.948 Y153.182 E22.58565
G1 X115.453 Y154.415 E22.68233
G1 X115.248 Y154.57 E22.69515
G1 X113.654 Y155.67 E22.79178
G1 X113.433 Y155.809 E22.8048
G1 X111.749 Y156.767 E22.90146
G1 X111.518 Y156.885 E22.9144
G1 X109.757 Y157.694 E23.01109
G1 X109.52 Y157.791 E23.02386
G1 X107.695 Y158.447 E23.12062
G1 X107.446 Y158.525 E23.13363
G1 X105.575 Y159.019 E23.23018
G1 X105.326 Y159.073 E23.24289
G1 X103.415 Y159.407 E23.33967
G1 X103.157 Y159.441 E23.35266
G1 X101.227 Y159.608 E23.4493
G1 X100.968 Y159.619 E23.46224
G1 X99.032 Y159.619 E23.55883
G1 X98.773 Y159.608 E23.57176
G1 X96.843 Y159.441 E23.66841
G1 X96.587 Y159.407 E23.68129
G1 X94.676 Y159.074 E23.77807
G1 X94.424 Y159.019 E23.79094
G1 X92.552 Y158.524 E23.88754
G1 X92.305 Y158.447 E23.90045
G1 X90.481 Y157.792 E23.99714
G1 X90.182 Y157.667 E24.01331
G1 X87.57 Y156.396 E24.15823
G1 X87.288 Y156.239 E24.17433
G1 X85.647 Y155.209 E24.27099
G1 X85.435 Y155.062 E24.28386
G1 X83.889 Y153.895 E24.3805
G1 X83.689 Y153.731 E24.3934
G1 X82.249 Y152.435 E24.49006
G1 X82.065 Y152.254 E24.50293
G1 X80.741 Y150.838 E24.59965
G1 X80.572 Y150.641 E24.6126
G1 X79.376 Y149.117 E24.70925
G1 X79.225 Y148.907 E24.72215
G1 X78.165 Y147.286 E24.81878
G1 X78.034 Y147.065 E24.8316
G1 X77.116 Y145.358 E24.92829
G1 X76.978 Y145.064 E24.9445
G1 X75.886 Y142.371 E25.08948
G1 X75.78 Y142.064 E25.10568
G1 X75.251 Y140.203 E25.2022
G1 X75.192 Y139.955 E25.21492
G1 X74.822 Y138.051 E25.31169
G1 X74.784 Y137.793 E25.3247
G1 X74.581 Y135.866 E25.42137
G1 X74.564 Y135.557 E25.43681
G1 X74.524 Y113.366 E26.54393
G1 X74.563 Y112.878 E26.56835
G1 X74.681 Y112.403 E26.59277
G1 X74.875 Y111.954 E26.61717
G1 X75.139 Y111.542 E26.64158
G1 X75.466 Y111.178 E26.66599
G1 X75.849 Y110.872 E26.69045
G1 X76.276 Y110.633 E26.71487
G0 F3600 X76.646 Y110.914
G1 F1500 X77.087 Y110.798 E26.73762
G1 X77.524 Y110.761 E26.7595
G1 X122.475 Y110.761 E29.00211
G1 X122.929 Y110.801 E29.02485
G1 X123.369 Y110.919 E29.04758
G1 X123.781 Y111.113 E29.07029
G1 X124.154 Y111.376 E29.09306
G1 X124.475 Y111.699 E29.11578
G1 X124.734 Y112.074 E29.13852
G1 X124.924 Y112.488 E29.16125
G1 X125.039 Y112.929 E29.18398
G1 X125.075 Y113.366 E29.20586
G1 X125.036 Y135.557 E30.31298
G1 X125.022 Y135.824 E30.32631
G1 X124.819 Y137.752 E30.42303
G1 X124.785 Y137.975 E30.43429
G1 X124.416 Y139.878 E30.531
G1 X124.348 Y140.149 E30.54494
G1 X123.492 Y142.924 E30.68982
G1 X123.396 Y143.186 E30.70374
G1 X122.63 Y144.965 E30.80037
G1 X122.532 Y145.168 E30.81162
G1 X121.614 Y146.875 E30.90832
G1 X121.5 Y147.067 E30.91946
G1 X120.44 Y148.688 E31.01608
G1 X120.309 Y148.87 E31.02727
G1 X119.113 Y150.394 E31.12392
G1 X118.929 Y150.605 E31.13789
G1 X116.9 Y152.684 E31.28282
G1 X116.693 Y152.874 E31.29684
G1 X115.198 Y154.107 E31.39352
G1 X115.021 Y154.241 E31.40459
G1 X113.427 Y155.341 E31.50122
G1 X113.236 Y155.461 E31.51247
G1 X111.552 Y156.419 E31.60913
G1 X111.351 Y156.522 E31.6204
G1 X109.59 Y157.331 E31.71708
G1 X109.384 Y157.415 E31.72818
G1 X107.559 Y158.071 E31.82493
G1 X107.344 Y158.138 E31.83617
G1 X105.473 Y158.632 E31.93271
G1 X105.257 Y158.679 E31.94374
G1 X103.346 Y159.013 E32.04053
G1 X103.122 Y159.042 E32.05179
G1 X101.192 Y159.209 E32.14844
G1 X100.968 Y159.219 E32.15963
G1 X99.032 Y159.219 E32.25622
G1 X98.808 Y159.209 E32.2674
G1 X96.878 Y159.042 E32.36405
G1 X96.656 Y159.013 E32.37522
G1 X94.745 Y158.68 E32.472
G1 X94.526 Y158.633 E32.48317
G1 X92.654 Y158.138 E32.57978
G1 X92.44 Y158.071 E32.59096
G1 X90.616 Y157.416 E32.68765
G1 X90.357 Y157.307 E32.70167
G1 X87.745 Y156.036 E32.84659
G1 X87.501 Y155.9 E32.86053
G1 X85.86 Y154.87 E32.95719
G1 X85.676 Y154.743 E32.96835
G1 X84.13 Y153.576 E33.06498
G1 X83.957 Y153.434 E33.07615
G1 X82.517 Y152.138 E33.1728
G1 X82.357 Y151.981 E33.18399
G1 X81.033 Y150.565 E33.2807
G1 X80.887 Y150.394 E33.29192
G1 X79.691 Y148.87 E33.38857
G1 X79.56 Y148.688 E33.39976
G1 X78.5 Y147.067 E33.49639
G1 X78.386 Y146.875 E33.50753
G1 X77.468 Y145.168 E33.60422
G1 X77.349 Y144.914 E33.61822
G1 X76.257 Y142.221 E33.7632
G1 X76.165 Y141.955 E33.77724
G1 X75.636 Y140.094 E33.87376
G1 X75.585 Y139.879 E33.88479
G1 X75.215 Y137.975 E33.98155
G1 X75.181 Y137.751 E33.99286
G1 X74.978 Y135.824 E34.08953
G1 X74.964 Y135.557 E34.10287
G1 X74.924 Y113.366 E35.20998
G1 X74.963 Y112.912 E35.23272
G1 X75.081 Y112.472 E35.25544
G1 X75.274 Y112.059 E35.27819
G1 X75.536 Y111.686 E35.30093
G1 X75.858 Y111.364 E35.32365
G1 X76.233 Y111.104 E35.34641
G1 X76.646 Y110.914 E35.36909
G0 F3600 X76.611 Y111.359
G1 F1500 X77.007 Y111.223 E35.38998
G1 X77.524 Y111.161 E35.41596
G1 X122.475 Y111.161 E37.65857
G1 X122.892 Y111.201 E37.67947
G1 X123.294 Y111.319 E37.70038
G1 X123.666 Y111.512 E37.72128
G1 X123.995 Y111.771 E37.74217
G1 X124.269 Y112.088 E37.76308
G1 X124.478 Y112.451 E37.78398
G1 X124.614 Y112.848 E37.80491
G1 X124.675 Y113.365 E37.83088
G1 X124.636 Y135.556 E38.938
G1 X124.624 Y135.782 E38.94929
G1 X124.421 Y137.71 E39.04601
G1 X124.393 Y137.899 E39.05554
G1 X124.024 Y139.802 E39.15225
G1 X123.966 Y140.031 E39.16404
G1 X123.11 Y142.806 E39.30892
G1 X123.029 Y143.028 E39.32071
G1 X122.263 Y144.807 E39.41734
G1 X122.18 Y144.979 E39.42687
G1 X121.262 Y146.686 E39.52357
G1 X121.165 Y146.848 E39.53299
G1 X120.105 Y148.469 E39.62962
G1 X119.995 Y148.623 E39.63906
G1 X118.799 Y150.147 E39.73571
G1 X118.642 Y150.326 E39.74759
G1 X116.613 Y152.405 E39.89252
G1 X116.439 Y152.565 E39.90431
G1 X114.944 Y153.798 E40.00099
G1 X114.794 Y153.912 E40.01039
G1 X113.2 Y155.012 E40.10701
G1 X113.038 Y155.113 E40.11654
G1 X111.354 Y156.071 E40.2132
G1 X111.184 Y156.158 E40.22272
G1 X109.423 Y156.967 E40.31941
G1 X109.249 Y157.038 E40.32878
G1 X107.424 Y157.694 E40.42554
G1 X107.242 Y157.751 E40.43505
G1 X105.371 Y158.245 E40.5316
G1 X105.188 Y158.285 E40.54094
G1 X103.277 Y158.619 E40.63773
G1 X103.088 Y158.644 E40.64724
G1 X101.158 Y158.811 E40.74389
G1 X100.968 Y158.819 E40.75337
G1 X99.032 Y158.819 E40.84996
G1 X98.842 Y158.811 E40.85945
G1 X96.912 Y158.644 E40.9561
G1 X96.724 Y158.619 E40.96556
G1 X94.813 Y158.286 E41.06233
G1 X94.629 Y158.246 E41.07173
G1 X92.757 Y157.751 E41.16833
G1 X92.575 Y157.695 E41.17783
G1 X90.751 Y157.04 E41.27452
G1 X90.532 Y156.947 E41.28639
G1 X87.92 Y155.676 E41.43132
G1 X87.713 Y155.561 E41.44313
G1 X86.072 Y154.531 E41.53979
G1 X85.917 Y154.424 E41.54919
G1 X84.371 Y153.257 E41.64582
G1 X84.224 Y153.136 E41.65532
G1 X82.784 Y151.84 E41.75198
G1 X82.649 Y151.708 E41.7614
G1 X81.325 Y150.292 E41.85811
G1 X81.201 Y150.147 E41.86763
G1 X80.005 Y148.623 E41.96428
G1 X79.895 Y148.469 E41.97372
G1 X78.835 Y146.848 E42.07035
G1 X78.738 Y146.686 E42.07977
G1 X77.82 Y144.979 E42.17647
G1 X77.719 Y144.764 E42.18832
G1 X76.627 Y142.071 E42.3333
G1 X76.55 Y141.846 E42.34516
G1 X76.021 Y139.985 E42.44169
G1 X75.977 Y139.803 E42.45103
G1 X75.607 Y137.899 E42.5478
G1 X75.579 Y137.709 E42.55738
G1 X75.376 Y135.782 E42.65405
G1 X75.364 Y135.556 E42.66534
G1 X75.324 Y113.365 E43.77245
G1 X75.363 Y112.948 E43.79335
G1 X75.481 Y112.546 E43.81425
G1 X75.672 Y112.173 E43.83516
G1 X75.931 Y111.843 E43.85609
G1 X76.248 Y111.569 E43.87699
G1 X76.611 Y111.359 E43.89791
G0 F3600 X76.633 Y111.797
G1 F1500 X76.98 Y111.645 E43.91681
G1 X77.524 Y111.561 E43.94428
G1 X122.475 Y111.561 E46.18689
G1 X122.852 Y111.601 E46.2058
G1 X123.212 Y111.719 E46.2247
G1 X123.539 Y111.909 E46.24357
G1 X123.82 Y112.164 E46.2625
G1 X124.04 Y112.473 E46.28143
G1 X124.192 Y112.82 E46.30033
G1 X124.275 Y113.364 E46.32778
G1 X124.236 Y135.555 E47.4349
G1 X124.226 Y135.74 E47.44414
G1 X124.023 Y137.668 E47.54086
G1 X124 Y137.823 E47.54868
G1 X123.631 Y139.726 E47.64539
G1 X123.584 Y139.914 E47.65506
G1 X122.728 Y142.689 E47.79994
G1 X122.661 Y142.87 E47.80957
G1 X121.895 Y144.649 E47.9062
G1 X121.827 Y144.79 E47.91401
G1 X120.909 Y146.497 E48.01071
G1 X120.83 Y146.629 E48.01838
G1 X119.77 Y148.25 E48.11501
G1 X119.68 Y148.376 E48.12273
G1 X118.484 Y149.9 E48.21938
G1 X118.356 Y150.046 E48.22907
G1 X116.327 Y152.125 E48.374
G1 X116.184 Y152.257 E48.38371
G1 X114.689 Y153.49 E48.48039
G1 X114.566 Y153.582 E48.48806
G1 X112.972 Y154.682 E48.58468
G1 X112.84 Y154.766 E48.59248
G1 X111.156 Y155.724 E48.68914
G1 X111.017 Y155.795 E48.69693
G1 X109.256 Y156.604 E48.79361
G1 X109.114 Y156.662 E48.80127
G1 X107.289 Y157.318 E48.89802
G1 X107.14 Y157.364 E48.9058
G1 X105.269 Y157.858 E49.00234
G1 X105.119 Y157.891 E49.01001
G1 X103.208 Y158.225 E49.10679
G1 X103.053 Y158.245 E49.11459
G1 X101.123 Y158.412 E49.21124
