;FLAVOR:Marlin
;TIME:1087
;Filament used: 0.977628m
;Layer height: 0.2
;Generated with Cura_SteamEngine 2.7.0
M190 S65
M104 S210
M109 S210
G21 ;metric values
G90 ;absolute positioning
M82 ;set extruder to absolute mode
M107 ;start with the fan off
G28 X0 Y0 ;move X/Y to min endstops
G28 Z0 ;move Z to min endstops
G1 Z15.0 F9000 ;move the platform down 15mm
G92 E0 ;zero the extruded length
G1 F200 E3 ;extrude 3mm of feed stock
G92 E0 ;zero the extruded length again
G1 F9000
;Put printing message on LCD screen
M117 Printing...
;LAYER_COUNT:12
;LAYER:0
M107
G0 F3600 X75.836 Y118.956 Z0.3
;TYPE:SKIRT
G1 F1500 X76.339 Y118.73 E0.02751
G1 X76.869 Y118.579 E0.05501
G1 X77.642 Y118.5 E0.09377
G1 X122.358 Y118.5 E2.32466
G1 X122.908 Y118.54 E2.35217
G1 X123.446 Y118.659 E2.37966
G1 X123.961 Y118.855 E2.40715
G1 X124.442 Y119.123 E2.43463
G1 X125.045 Y119.613 E2.47339
G1 X125.162 Y119.73 E2.48164
G1 X125.522 Y120.147 E2.50913
G1 X125.819 Y120.611 E2.53661
G1 X126.045 Y121.114 E2.56413
G1 X126.196 Y121.644 E2.59162
G1 X126.275 Y122.417 E2.63039
G1 X126.275 Y147.583 E3.88592
G1 X126.235 Y148.133 E3.91343
G1 X126.116 Y148.671 E3.94092
G1 X125.92 Y149.186 E3.96842
G1 X125.652 Y149.667 E3.99589
G1 X125.162 Y150.27 E4.03465
G1 X125.045 Y150.387 E4.04291
G1 X124.628 Y150.747 E4.07039
G1 X124.164 Y151.044 E4.09787
G1 X123.661 Y151.27 E4.12539
G1 X123.131 Y151.421 E4.15288
G1 X122.358 Y151.5 E4.19165
G1 X77.642 Y151.5 E6.42254
G1 X77.092 Y151.46 E6.45005
G1 X76.554 Y151.341 E6.47754
G1 X76.039 Y151.145 E6.50503
G1 X75.558 Y150.877 E6.5325
G1 X74.955 Y150.387 E6.57126
G1 X74.838 Y150.27 E6.57952
G1 X74.478 Y149.853 E6.607
G1 X74.181 Y149.389 E6.63449
G1 X73.955 Y148.886 E6.662
G1 X73.804 Y148.356 E6.68949
G1 X73.725 Y147.583 E6.72826
G1 X73.725 Y122.417 E7.9838
G1 X73.765 Y121.867 E8.01131
G1 X73.884 Y121.329 E8.0388
G1 X74.08 Y120.814 E8.06629
G1 X74.348 Y120.333 E8.09376
G1 X74.838 Y119.73 E8.13252
G1 X74.955 Y119.613 E8.14078
G1 X75.372 Y119.253 E8.16826
G1 X75.836 Y118.956 E8.19575
G0 F3600 X76.076 Y119.282
G1 F1500 X76.556 Y119.078 E8.22177
G1 X77.061 Y118.95 E8.24776
G1 X77.642 Y118.9 E8.27685
G1 X122.358 Y118.9 E10.50774
G1 X122.878 Y118.94 E10.53376
G1 X123.385 Y119.059 E10.55975
G1 X123.868 Y119.254 E10.58573
G1 X124.316 Y119.52 E10.61173
G1 X124.762 Y119.896 E10.64083
G1 X124.879 Y120.013 E10.64908
G1 X125.218 Y120.409 E10.67509
G1 X125.493 Y120.851 E10.70106
G1 X125.697 Y121.331 E10.72708
G1 X125.825 Y121.836 E10.75307
G1 X125.875 Y122.417 E10.78217
G1 X125.875 Y147.583 E12.0377
G1 X125.835 Y148.103 E12.06372
G1 X125.716 Y148.61 E12.08971
G1 X125.521 Y149.093 E12.11569
G1 X125.255 Y149.541 E12.14169
G1 X124.879 Y149.987 E12.17079
G1 X124.762 Y150.104 E12.17904
G1 X124.366 Y150.443 E12.20505
G1 X123.924 Y150.718 E12.23102
G1 X123.444 Y150.922 E12.25704
G1 X122.939 Y151.05 E12.28303
G1 X122.358 Y151.1 E12.31213
G1 X77.642 Y151.1 E14.54302
G1 X77.122 Y151.06 E14.56904
G1 X76.615 Y150.941 E14.59502
G1 X76.132 Y150.746 E14.62101
G1 X75.684 Y150.48 E14.647
G1 X75.238 Y150.104 E14.6761
G1 X75.121 Y149.987 E14.68436
G1 X74.782 Y149.591 E14.71036
G1 X74.507 Y149.149 E14.73634
G1 X74.303 Y148.669 E14.76236
G1 X74.175 Y148.164 E14.78835
G1 X74.125 Y147.583 E14.81744
G1 X74.125 Y122.417 E16.07298
G1 X74.165 Y121.897 E16.099
G1 X74.284 Y121.39 E16.12498
G1 X74.479 Y120.907 E16.15097
G1 X74.745 Y120.459 E16.17696
G1 X75.121 Y120.013 E16.20606
G1 X75.238 Y119.896 E16.21432
G1 X75.634 Y119.557 E16.24032
G1 X76.076 Y119.282 E16.2663
G0 F3600 X76.314 Y119.61
G1 F1500 X76.769 Y119.43 E16.29071
G1 X77.247 Y119.326 E16.31511
G1 X77.642 Y119.3 E16.33486
G1 X122.358 Y119.3 E18.56575
G1 X122.846 Y119.34 E18.59018
G1 X123.321 Y119.459 E18.61461
G1 X123.77 Y119.653 E18.63901
G1 X124.182 Y119.918 E18.66345
G1 X124.479 Y120.179 E18.68318
G1 X124.596 Y120.296 E18.69143
G1 X124.913 Y120.669 E18.71585
G1 X125.165 Y121.089 E18.74029
G1 X125.345 Y121.544 E18.7647
G1 X125.449 Y122.022 E18.78911
G1 X125.475 Y122.417 E18.80886
G1 X125.475 Y147.583 E20.06439
G1 X125.435 Y148.071 E20.08882
G1 X125.316 Y148.546 E20.11325
G1 X125.122 Y148.995 E20.13765
G1 X124.857 Y149.407 E20.16209
G1 X124.596 Y149.704 E20.18182
G1 X124.479 Y149.821 E20.19008
G1 X124.106 Y150.138 E20.2145
G1 X123.686 Y150.39 E20.23893
G1 X123.231 Y150.57 E20.26334
G1 X122.753 Y150.674 E20.28775
G1 X122.358 Y150.7 E20.3075
G1 X77.642 Y150.7 E22.53839
G1 X77.154 Y150.66 E22.56282
G1 X76.679 Y150.541 E22.58725
G1 X76.23 Y150.347 E22.61165
G1 X75.818 Y150.082 E22.63609
G1 X75.521 Y149.821 E22.65582
G1 X75.404 Y149.704 E22.66407
G1 X75.087 Y149.331 E22.68849
G1 X74.835 Y148.911 E22.71293
G1 X74.655 Y148.456 E22.73734
G1 X74.551 Y147.978 E22.76175
G1 X74.525 Y147.583 E22.7815
G1 X74.525 Y122.417 E24.03703
G1 X74.565 Y121.929 E24.06146
G1 X74.684 Y121.454 E24.08589
G1 X74.878 Y121.005 E24.11029
G1 X75.143 Y120.593 E24.13473
G1 X75.404 Y120.296 E24.15446
G1 X75.521 Y120.179 E24.16271
G1 X75.894 Y119.862 E24.18713
G1 X76.314 Y119.61 E24.21157
G0 F3600 X76.548 Y119.942
G1 F1500 X76.976 Y119.787 E24.23428
G1 X77.642 Y119.7 E24.26779
G1 X122.358 Y119.7 E26.49868
G1 X122.812 Y119.74 E26.52142
G1 X123.252 Y119.858 E26.54415
G1 X123.664 Y120.052 E26.56687
G1 X124.196 Y120.462 E26.60037
G1 X124.313 Y120.579 E26.60863
G1 X124.606 Y120.928 E26.63136
G1 X124.833 Y121.323 E26.65409
G1 X124.988 Y121.751 E26.6768
G1 X125.075 Y122.417 E26.71031
G1 X125.075 Y147.583 E27.96585
G1 X125.035 Y148.037 E27.98859
G1 X124.917 Y148.477 E28.01131
G1 X124.723 Y148.889 E28.03403
G1 X124.313 Y149.421 E28.06754
G1 X124.196 Y149.538 E28.0758
G1 X123.847 Y149.831 E28.09853
G1 X123.452 Y150.058 E28.12126
G1 X123.024 Y150.213 E28.14397
G1 X122.358 Y150.3 E28.17748
G1 X77.642 Y150.3 E30.40837
G1 X77.188 Y150.26 E30.43111
G1 X76.748 Y150.142 E30.45384
G1 X76.336 Y149.948 E30.47656
G1 X75.804 Y149.538 E30.51006
G1 X75.687 Y149.421 E30.51832
G1 X75.394 Y149.072 E30.54105
G1 X75.167 Y148.677 E30.56378
G1 X75.012 Y148.249 E30.58649
G1 X74.925 Y147.583 E30.62
G1 X74.925 Y122.417 E31.87554
G1 X74.965 Y121.963 E31.89828
G1 X75.083 Y121.523 E31.921
G1 X75.277 Y121.111 E31.94372
G1 X75.687 Y120.579 E31.97723
G1 X75.804 Y120.462 E31.98549
G1 X76.153 Y120.169 E32.00822
G1 X76.548 Y119.942 E32.03095
G0 F3600 X76.086 Y120.744
G1 F1500 X76.41 Y120.478 E32.05187
G1 X76.777 Y120.277 E32.07274
G1 X77.177 Y120.15 E32.09368
G1 X77.642 Y120.1 E32.11701
G1 X122.358 Y120.1 E34.3479
G1 X122.775 Y120.14 E34.3688
G1 X123.177 Y120.258 E34.3897
G1 X123.549 Y120.451 E34.41061
G1 X123.914 Y120.744 E34.43396
G1 X124.031 Y120.861 E34.44222
G1 X124.297 Y121.185 E34.46313
G1 X124.498 Y121.552 E34.48401
G1 X124.625 Y121.952 E34.50495
G1 X124.675 Y122.417 E34.52828
G1 X124.675 Y147.583 E35.78382
G1 X124.635 Y148 E35.80472
G1 X124.517 Y148.402 E35.82562
G1 X124.324 Y148.774 E35.84653
G1 X124.031 Y149.139 E35.86988
G1 X123.914 Y149.256 E35.87813
G1 X123.59 Y149.522 E35.89905
G1 X123.223 Y149.723 E35.91992
G1 X122.823 Y149.85 E35.94086
G1 X122.358 Y149.9 E35.96419
G1 X77.642 Y149.9 E38.19508
G1 X77.225 Y149.86 E38.21598
G1 X76.823 Y149.742 E38.23688
G1 X76.451 Y149.549 E38.25779
G1 X76.086 Y149.256 E38.28114
G1 X75.969 Y149.139 E38.2894
G1 X75.703 Y148.815 E38.31031
G1 X75.502 Y148.448 E38.33119
G1 X75.375 Y148.048 E38.35213
G1 X75.325 Y147.583 E38.37546
G1 X75.325 Y122.417 E39.631
G1 X75.365 Y122 E39.6519
G1 X75.483 Y121.598 E39.6728
G1 X75.676 Y121.226 E39.69371
G1 X75.969 Y120.861 E39.71706
G1 X76.086 Y120.744 E39.72531
G0 F3600 X76.252 Y121.144
G1 F1500 X76.369 Y121.027 E39.73357
G1 X76.664 Y120.789 E39.75248
G1 X77.002 Y120.618 E39.77138
G1 X77.368 Y120.521 E39.79027
G1 X77.642 Y120.5 E39.80398
G1 X122.358 Y120.5 E42.03487
G1 X122.735 Y120.54 E42.05378
G1 X123.095 Y120.658 E42.07268
G1 X123.422 Y120.848 E42.09155
G1 X123.631 Y121.027 E42.10528
G1 X123.748 Y121.144 E42.11353
G1 X123.986 Y121.439 E42.13244
G1 X124.157 Y121.777 E42.15134
G1 X124.254 Y122.143 E42.17023
G1 X124.275 Y122.417 E42.18394
G1 X124.275 Y147.583 E43.43948
G1 X124.235 Y147.96 E43.45839
G1 X124.117 Y148.32 E43.47729
G1 X123.927 Y148.647 E43.49616
G1 X123.748 Y148.856 E43.50989
G1 X123.631 Y148.973 E43.51815
G1 X123.336 Y149.211 E43.53706
G1 X122.998 Y149.382 E43.55595
G1 X122.632 Y149.479 E43.57484
G1 X122.358 Y149.5 E43.58855
G1 X77.642 Y149.5 E45.81944
G1 X77.265 Y149.46 E45.83836
G1 X76.905 Y149.342 E45.85726
G1 X76.578 Y149.152 E45.87613
G1 X76.369 Y148.973 E45.88986
G1 X76.252 Y148.856 E45.89811
G1 X76.014 Y148.561 E45.91702
G1 X75.843 Y148.223 E45.93592
G1 X75.746 Y147.857 E45.95481
G1 X75.725 Y147.583 E45.96852
G1 X75.725 Y122.417 E47.22406
G1 X75.765 Y122.04 E47.24297
G1 X75.883 Y121.68 E47.26187
G1 X76.073 Y121.353 E47.28074
G1 X76.252 Y121.144 E47.29447
G0 F3600 X76.652 Y121.31
G1 F1500 X76.915 Y121.104 E47.31113
G1 X77.219 Y120.965 E47.32781
G1 X77.642 Y120.9 E47.34916
G1 X122.358 Y120.9 E49.58005
G1 X122.69 Y120.94 E49.59674
G1 X123.002 Y121.057 E49.61336
G1 X123.348 Y121.31 E49.63474
G1 X123.465 Y121.427 E49.643
G1 X123.671 Y121.69 E49.65967
G1 X123.81 Y121.994 E49.67634
G1 X123.875 Y122.417 E49.69769
G1 X123.875 Y147.583 E50.95323
G1 X123.835 Y147.915 E50.96992
G1 X123.718 Y148.227 E50.98654
G1 X123.465 Y148.573 E51.00792
G1 X123.348 Y148.69 E51.01618
G1 X123.085 Y148.896 E51.03285
G1 X122.781 Y149.035 E51.04952
G1 X122.358 Y149.1 E51.07087
G1 X77.642 Y149.1 E53.30176
G1 X77.31 Y149.06 E53.31845
G1 X76.998 Y148.943 E53.33507
G1 X76.652 Y148.69 E53.35646
G1 X76.535 Y148.573 E53.36471
G1 X76.329 Y148.31 E53.38138
G1 X76.19 Y148.006 E53.39806
G1 X76.125 Y147.583 E53.41941
G1 X76.125 Y122.417 E54.67494
G1 X76.165 Y122.085 E54.69163
G1 X76.282 Y121.773 E54.70825
G1 X76.535 Y121.427 E54.72964
G1 X76.652 Y121.31 E54.73789
G0 F3600 X76.818 Y121.71
G1 F1500 X76.935 Y121.593 E54.74615
G1 X77.161 Y121.424 E54.76022
G1 X77.425 Y121.324 E54.77431
G1 X77.642 Y121.3 E54.7852
G1 X122.358 Y121.3 E57.01609
G1 X122.637 Y121.34 E57.03015
G1 X122.894 Y121.456 E57.04422
G1 X123.065 Y121.593 E57.05515
G1 X123.182 Y121.71 E57.06341
G1 X123.351 Y121.936 E57.07749
G1 X123.451 Y122.2 E57.09157
G1 X123.475 Y122.417 E57.10246
G1 X123.475 Y147.583 E58.358
G1 X123.435 Y147.862 E58.37206
G1 X123.319 Y148.119 E58.38613
G1 X123.182 Y148.29 E58.39706
G1 X123.065 Y148.407 E58.40531
G1 X122.839 Y148.576 E58.41939
G1 X122.575 Y148.676 E58.43348
G1 X122.358 Y148.7 E58.44437
G1 X77.642 Y148.7 E60.67526
G1 X77.363 Y148.66 E60.68932
G1 X77.106 Y148.544 E60.70339
G1 X76.935 Y148.407 E60.71432
G1 X76.818 Y148.29 E60.72258
G1 X76.649 Y148.064 E60.73665
G1 X76.549 Y147.8 E60.75074
G1 X76.525 Y147.583 E60.76163
G1 X76.525 Y122.417 E62.01717
G1 X76.565 Y122.138 E62.03123
G1 X76.681 Y121.881 E62.0453
G1 X76.818 Y121.71 E62.05623
G0 F3600 X77.218 Y121.876
G1 F1500 X77.397 Y121.752 E62.06709
G1 X77.642 Y121.7 E62.07959
G1 X122.358 Y121.7 E64.31048
G1 X122.573 Y121.74 E64.32139
G1 X122.782 Y121.876 E64.33383
G1 X122.899 Y121.993 E64.34208
G1 X123.023 Y122.172 E64.35295
G1 X123.075 Y122.417 E64.36544
G1 X123.075 Y147.583 E65.62098
G1 X123.035 Y147.798 E65.63189
G1 X122.899 Y148.007 E65.64433
G1 X122.782 Y148.124 E65.65259
G1 X122.603 Y148.248 E65.66345
G1 X122.358 Y148.3 E65.67594
G1 X77.642 Y148.3 E67.90683
G1 X77.427 Y148.26 E67.91775
G1 X77.218 Y148.124 E67.93019
G1 X77.101 Y148.007 E67.93844
G1 X76.977 Y147.828 E67.9493
G1 X76.925 Y147.583 E67.9618
G1 X76.925 Y122.417 E69.21734
G1 X76.965 Y122.202 E69.22825
G1 X77.101 Y121.993 E69.24069
G1 X77.218 Y121.876 E69.24894
G0 F3600 X77.501 Y122.159
G1 F1500 X77.642 Y122.1 E69.25657
G1 X122.358 Y122.1 E71.48746
G1 X122.499 Y122.159 E71.49508
G1 X122.616 Y122.276 E71.50334
G1 X122.675 Y122.417 E71.51096
G1 X122.675 Y147.583 E72.7665
G1 X122.616 Y147.724 E72.77413
G1 X122.499 Y147.841 E72.78238
G1 X122.358 Y147.9 E72.79001
G1 X77.642 Y147.9 E75.0209
G1 X77.501 Y147.841 E75.02852
G1 X77.384 Y147.724 E75.03678
G1 X77.325 Y147.583 E75.0444
G1 X77.325 Y122.417 E76.29994
G1 X77.384 Y122.276 E76.30757
G1 X77.501 Y122.159 E76.31582
G0 F3600 X77.725 Y122.5
;TYPE:WALL-OUTER
G1 F1500 X122.275 Y122.5 E78.53843
G1 X122.275 Y147.5 E79.78568
G1 X77.725 Y147.5 E82.00829
G1 X77.725 Y122.5 E83.25555
G0 F3600 X77.925 Y122.5
G0 X78.195 Y122.97
G0 X80.278 Y126.572
G0 X80.488 Y127.025
G1 F1500 X80.35 Y127.105 E83.26351
G1 X80.22 Y127.196 E83.27142
G1 X80.097 Y127.299 E83.27943
G1 X79.984 Y127.412 E83.2874
G1 X79.881 Y127.535 E83.2954
G1 X79.79 Y127.665 E83.30332
G1 X79.71 Y127.803 E83.31128
G1 X79.642 Y127.949 E83.31931
G1 X79.588 Y128.099 E83.32727
G1 X79.547 Y128.253 E83.33522
G1 X79.518 Y128.411 E83.34323
G1 X79.505 Y128.571 E83.35124
G1 X79.505 Y128.729 E83.35912
G1 X79.518 Y128.889 E83.36713
G1 X79.547 Y129.047 E83.37515
G1 X79.588 Y129.201 E83.3831
G1 X79.642 Y129.351 E83.39105
G1 X79.71 Y129.497 E83.39909
G1 X79.79 Y129.635 E83.40704
G1 X79.881 Y129.765 E83.41496
G1 X79.984 Y129.888 E83.42297
G1 X80.097 Y130.001 E83.43094
G1 X80.22 Y130.104 E83.43894
G1 X80.35 Y130.195 E83.44686
G1 X80.488 Y130.275 E83.45482
G1 X80.634 Y130.343 E83.46285
G1 X80.784 Y130.397 E83.47081
G1 X80.938 Y130.438 E83.47876
G1 X81.096 Y130.467 E83.48677
G1 X81.256 Y130.48 E83.49478
G1 X81.414 Y130.48 E83.50266
G1 X81.574 Y130.467 E83.51067
G1 X81.732 Y130.438 E83.51869
G1 X81.886 Y130.397 E83.52664
G1 X82.036 Y130.343 E83.53459
G1 X82.182 Y130.275 E83.54263
G1 X82.32 Y130.195 E83.55058
G1 X82.45 Y130.104 E83.5585
G1 X82.573 Y130.001 E83.5665
G1 X82.686 Y129.888 E83.57448
G1 X82.789 Y129.765 E83.58248
G1 X82.88 Y129.635 E83.5904
G1 X82.96 Y129.497 E83.59836
G1 X83.028 Y129.351 E83.60639
G1 X83.082 Y129.201 E83.61434
G1 X83.123 Y129.047 E83.6223
G1 X83.152 Y128.889 E83.63031
G1 X83.165 Y128.729 E83.63832
G1 X83.165 Y128.571 E83.6462
G1 X83.152 Y128.411 E83.65421
G1 X83.123 Y128.253 E83.66222
G1 X83.082 Y128.099 E83.67017
G1 X83.028 Y127.949 E83.67813
G1 X82.96 Y127.803 E83.68616
G1 X82.88 Y127.665 E83.69412
G1 X82.789 Y127.535 E83.70204
G1 X82.686 Y127.412 E83.71004
G1 X82.573 Y127.299 E83.71802
G1 X82.45 Y127.196 E83.72602
G1 X82.32 Y127.105 E83.73394
G1 X82.182 Y127.025 E83.74189
G1 X82.036 Y126.957 E83.74993
G1 X81.886 Y126.903 E83.75788
G1 X81.732 Y126.862 E83.76583
G1 X81.574 Y126.833 E83.77385
G1 X81.414 Y126.82 E83.78186
G1 X81.256 Y126.82 E83.78974
G1 X81.096 Y126.833 E83.79775
G1 X80.938 Y126.862 E83.80576
G1 X80.784 Y126.903 E83.81371
G1 X80.634 Y126.957 E83.82167
G1 X80.488 Y127.025 E83.8297
G0 F3600 X80.35 Y127.105
G0 X80.317 Y127.128
G0 X80.034 Y126.717
G0 X79.42 Y127.429
G0 X79.117 Y128.157
G0 X79.082 Y128.946
G0 X81.009 Y139.041
G0 X81.096 Y139.533
G1 F1500 X80.938 Y139.562 E83.83772
G1 X80.784 Y139.603 E83.84567
G1 X80.634 Y139.657 E83.85362
G1 X80.488 Y139.725 E83.86166
G1 X80.35 Y139.805 E83.86961
G1 X80.22 Y139.896 E83.87753
G1 X80.097 Y139.999 E83.88554
G1 X79.984 Y140.112 E83.89351
G1 X79.881 Y140.235 E83.90151
G1 X79.79 Y140.365 E83.90943
G1 X79.71 Y140.503 E83.91739
G1 X79.642 Y140.649 E83.92542
G1 X79.588 Y140.799 E83.93338
G1 X79.547 Y140.953 E83.94133
G1 X79.518 Y141.111 E83.94934
G1 X79.505 Y141.271 E83.95735
G1 X79.505 Y141.429 E83.96523
G1 X79.518 Y141.589 E83.97324
G1 X79.547 Y141.747 E83.98126
G1 X79.588 Y141.901 E83.98921
G1 X79.642 Y142.051 E83.99716
G1 X79.71 Y142.197 E84.00519
G1 X79.79 Y142.335 E84.01315
G1 X79.881 Y142.465 E84.02107
G1 X79.984 Y142.588 E84.02907
G1 X80.097 Y142.701 E84.03705
G1 X80.22 Y142.804 E84.04505
G1 X80.35 Y142.895 E84.05297
G1 X80.488 Y142.975 E84.06093
G1 X80.634 Y143.043 E84.06896
G1 X80.784 Y143.097 E84.07691
G1 X80.938 Y143.138 E84.08487
G1 X81.096 Y143.167 E84.09288
G1 X81.256 Y143.18 E84.10089
G1 X81.414 Y143.18 E84.10877
