;FLAVOR:Marlin
;TIME:1748
;Filament used: 1.48875m
;Layer height: 0.2
;Generated with Cura_SteamEngine 2.7.0
M190 S65
M104 S210
M109 S210
G21 ;metric values
G90 ;absolute positioning
M82 ;set extruder to absolute mode
M107 ;start with the fan off
G28 X0 Y0 ;move X/Y to min endstops
G28 Z0 ;move Z to min endstops
G1 Z15.0 F9000 ;move the platform down 15mm
G92 E0 ;zero the extruded length
G1 F200 E3 ;extrude 3mm of feed stock
G92 E0 ;zero the extruded length again
G1 F9000
;Put printing message on LCD screen
M117 Printing...
;LAYER_COUNT:88
;LAYER:0
M107
G0 F3600 X90.23 Y121.717 Z0.3
;TYPE:SKIRT
G1 F1500 X92.099 Y120.528 E0.11051
G1 X92.607 Y120.257 E0.13924
G1 X94.13 Y119.586 E0.22227
G1 X94.681 Y119.392 E0.25141
G1 X96.81 Y118.823 E0.36136
G1 X97.459 Y118.709 E0.39423
G1 X99.67 Y118.515 E0.50496
G1 X100.169 Y118.504 E0.52986
G1 X101.28 Y118.553 E0.58535
G1 X101.773 Y118.607 E0.61009
G1 X103.943 Y118.99 E0.72002
G1 X104.584 Y119.162 E0.75314
G1 X106.673 Y119.923 E0.86406
G1 X107.122 Y120.12 E0.88852
G1 X108.101 Y120.628 E0.94354
G1 X108.462 Y120.841 E0.96446
G1 X109.835 Y121.758 E1.04683
G1 X110.29 Y122.115 E1.07568
G1 X111.925 Y123.612 E1.18628
G1 X112.373 Y124.1 E1.21933
G1 X113.724 Y125.859 E1.32998
G1 X114.081 Y126.419 E1.36311
G1 X115.105 Y128.386 E1.47375
G1 X115.358 Y128.998 E1.50679
G1 X116.021 Y131.1 E1.61675
G1 X116.164 Y131.746 E1.64976
G1 X116.455 Y133.95 E1.76067
G1 X116.484 Y134.612 E1.79373
G1 X116.388 Y136.816 E1.90379
G1 X116.319 Y137.391 E1.93269
G1 X115.995 Y139.023 E2.0157
G1 X115.838 Y139.584 E2.04476
G1 X115.077 Y141.673 E2.15568
G1 X114.881 Y142.121 E2.18008
G1 X114.375 Y143.097 E2.23493
G1 X114.16 Y143.46 E2.25597
G1 X113.239 Y144.838 E2.33866
G1 X112.883 Y145.292 E2.36745
G1 X111.387 Y146.926 E2.47797
G1 X110.897 Y147.375 E2.51113
G1 X109.135 Y148.727 E2.62193
G1 X108.576 Y149.083 E2.655
G1 X106.614 Y150.104 E2.76534
G1 X106.004 Y150.357 E2.79829
G1 X103.894 Y151.023 E2.90868
G1 X103.245 Y151.167 E2.94184
G1 X101.047 Y151.456 E3.05245
G1 X100.387 Y151.484 E3.0854
G1 X98.181 Y151.388 E3.19557
G1 X97.605 Y151.319 E3.22451
G1 X95.975 Y150.995 E3.30742
G1 X95.414 Y150.838 E3.33648
G1 X93.324 Y150.076 E3.44747
G1 X92.725 Y149.797 E3.48043
G1 X90.812 Y148.692 E3.59065
G1 X90.27 Y148.312 E3.62368
G1 X88.572 Y146.887 E3.73427
G1 X88.102 Y146.417 E3.76743
G1 X86.68 Y144.72 E3.87789
G1 X86.301 Y144.177 E3.91092
G1 X85.199 Y142.265 E4.02102
G1 X84.921 Y141.668 E4.05388
G1 X84.162 Y139.585 E4.16449
G1 X83.99 Y138.944 E4.1976
G1 X83.606 Y136.766 E4.30793
G1 X83.548 Y136.106 E4.34099
G1 X83.548 Y133.9 E4.45105
G1 X83.591 Y133.327 E4.47971
G1 X83.842 Y131.682 E4.56273
G1 X83.975 Y131.111 E4.59198
G1 X84.643 Y128.996 E4.70264
G1 X84.897 Y128.385 E4.73565
G1 X85.922 Y126.417 E4.84635
G1 X86.278 Y125.858 E4.87942
G1 X87.626 Y124.102 E4.98986
G1 X88.073 Y123.614 E5.02288
G1 X89.703 Y122.121 E5.13315
G1 X90.23 Y121.717 E5.16628
G0 F3600 X90.445 Y122.054
G1 F1500 X92.314 Y120.865 E5.2768
G1 X92.768 Y120.623 E5.30246
G1 X94.291 Y119.952 E5.3855
G1 X94.784 Y119.778 E5.41158
G1 X96.913 Y119.209 E5.52152
G1 X97.494 Y119.107 E5.55095
G1 X99.705 Y118.913 E5.66168
G1 X100.152 Y118.903 E5.68399
G1 X101.263 Y118.952 E5.73947
G1 X101.704 Y119.001 E5.76161
G1 X103.874 Y119.384 E5.87154
G1 X104.447 Y119.537 E5.90113
G1 X106.536 Y120.298 E6.01205
G1 X106.938 Y120.475 E6.03397
G1 X107.917 Y120.983 E6.08899
G1 X108.239 Y121.174 E6.10767
G1 X109.612 Y122.091 E6.19004
G1 X110.02 Y122.41 E6.21588
G1 X111.655 Y123.907 E6.32648
G1 X112.055 Y124.344 E6.35603
G1 X113.406 Y126.103 E6.46669
G1 X113.726 Y126.604 E6.49635
G1 X114.75 Y128.571 E6.60698
G1 X114.977 Y129.118 E6.63653
G1 X115.64 Y131.22 E6.74649
G1 X115.768 Y131.798 E6.77603
G1 X116.059 Y134.002 E6.88694
G1 X116.085 Y134.595 E6.91655
G1 X115.989 Y136.799 E7.02661
G1 X115.927 Y137.313 E7.05244
G1 X115.603 Y138.945 E7.13545
G1 X115.463 Y139.447 E7.16145
G1 X114.702 Y141.536 E7.27237
G1 X114.525 Y141.937 E7.29424
G1 X114.019 Y142.913 E7.34909
G1 X113.828 Y143.237 E7.36785
G1 X112.907 Y144.615 E7.45054
G1 X112.588 Y145.022 E7.47634
G1 X111.092 Y146.656 E7.58687
G1 X110.654 Y147.057 E7.6165
G1 X108.892 Y148.409 E7.7273
G1 X108.392 Y148.728 E7.75689
G1 X106.43 Y149.749 E7.86723
G1 X105.883 Y149.975 E7.89676
G1 X103.773 Y150.641 E8.00715
G1 X103.193 Y150.77 E8.03679
G1 X100.995 Y151.059 E8.1474
G1 X100.404 Y151.085 E8.17691
G1 X98.198 Y150.989 E8.28707
G1 X97.683 Y150.927 E8.31295
G1 X96.053 Y150.603 E8.39586
G1 X95.551 Y150.462 E8.42188
G1 X93.461 Y149.7 E8.53286
G1 X92.925 Y149.45 E8.56237
G1 X91.012 Y148.345 E8.67259
G1 X90.527 Y148.005 E8.70214
G1 X88.829 Y146.58 E8.81273
G1 X88.409 Y146.16 E8.84236
G1 X86.987 Y144.463 E8.95282
G1 X86.647 Y143.977 E8.98241
G1 X85.545 Y142.065 E9.09251
G1 X85.296 Y141.531 E9.12191
G1 X84.537 Y139.448 E9.23251
G1 X84.384 Y138.874 E9.26215
G1 X84 Y136.696 E9.37248
G1 X83.948 Y136.106 E9.40203
G1 X83.948 Y133.9 E9.51209
G1 X83.987 Y133.387 E9.53776
G1 X84.238 Y131.742 E9.62078
G1 X84.357 Y131.231 E9.64695
G1 X85.025 Y129.116 E9.75761
G1 X85.251 Y128.569 E9.78714
G1 X86.276 Y126.601 E9.89784
G1 X86.595 Y126.102 E9.92739
G1 X87.943 Y124.346 E10.03783
G1 X88.344 Y123.909 E10.06742
G1 X89.974 Y122.416 E10.1777
G1 X90.445 Y122.054 E10.20734
G0 F3600 X90.66 Y122.392
G1 F1500 X92.529 Y121.203 E10.31785
G1 X92.929 Y120.989 E10.34048
G1 X94.452 Y120.318 E10.42351
G1 X94.887 Y120.165 E10.44652
G1 X97.016 Y119.596 E10.55646
G1 X97.529 Y119.505 E10.58246
G1 X99.74 Y119.311 E10.69319
G1 X100.134 Y119.303 E10.71285
G1 X101.245 Y119.352 E10.76833
G1 X101.634 Y119.395 E10.78786
G1 X103.804 Y119.778 E10.89779
G1 X104.31 Y119.913 E10.92392
G1 X106.399 Y120.674 E11.03484
G1 X106.754 Y120.83 E11.05419
G1 X107.733 Y121.338 E11.10921
G1 X108.017 Y121.506 E11.12567
G1 X109.39 Y122.423 E11.20805
G1 X109.75 Y122.705 E11.23086
G1 X111.385 Y124.202 E11.34146
G1 X111.738 Y124.588 E11.36755
G1 X113.089 Y126.347 E11.47821
G1 X113.371 Y126.789 E11.50436
G1 X114.395 Y128.756 E11.615
G1 X114.595 Y129.239 E11.64108
G1 X115.258 Y131.341 E11.75104
G1 X115.371 Y131.85 E11.77706
G1 X115.662 Y134.054 E11.88797
G1 X115.685 Y134.578 E11.91414
G1 X115.589 Y136.782 E12.0242
G1 X115.535 Y137.235 E12.04696
G1 X115.211 Y138.867 E12.12997
G1 X115.087 Y139.31 E12.15292
G1 X114.326 Y141.399 E12.26384
G1 X114.17 Y141.753 E12.28314
G1 X113.664 Y142.729 E12.33799
G1 X113.495 Y143.015 E12.35456
G1 X112.574 Y144.393 E12.43725
G1 X112.293 Y144.752 E12.46
G1 X110.797 Y146.386 E12.57052
G1 X110.41 Y146.74 E12.59669
G1 X108.648 Y148.092 E12.70749
G1 X108.207 Y148.373 E12.73358
G1 X106.245 Y149.394 E12.84393
G1 X105.763 Y149.594 E12.86996
G1 X103.653 Y150.26 E12.98035
G1 X103.141 Y150.373 E13.00651
G1 X100.943 Y150.662 E13.11711
G1 X100.422 Y150.685 E13.14313
G1 X98.216 Y150.589 E13.25329
G1 X97.761 Y150.534 E13.27615
G1 X96.131 Y150.21 E13.35907
G1 X95.688 Y150.087 E13.382
G1 X93.598 Y149.325 E13.49299
G1 X93.125 Y149.104 E13.51904
G1 X91.212 Y147.999 E13.62925
G1 X90.784 Y147.699 E13.65533
G1 X89.086 Y146.274 E13.76592
G1 X88.716 Y145.903 E13.79206
G1 X87.294 Y144.206 E13.90252
G1 X86.994 Y143.777 E13.92864
G1 X85.892 Y141.865 E14.03874
G1 X85.672 Y141.394 E14.06467
G1 X84.913 Y139.311 E14.17528
G1 X84.778 Y138.805 E14.20141
G1 X84.394 Y136.627 E14.31174
G1 X84.348 Y136.106 E14.33784
G1 X84.348 Y133.9 E14.44789
G1 X84.382 Y133.447 E14.47056
G1 X84.633 Y131.802 E14.55358
G1 X84.738 Y131.351 E14.57668
G1 X85.406 Y129.236 E14.68733
G1 X85.606 Y128.754 E14.71337
G1 X86.631 Y126.786 E14.82407
G1 X86.912 Y126.345 E14.85016
G1 X88.26 Y124.589 E14.96061
G1 X88.614 Y124.204 E14.9867
G1 X90.244 Y122.711 E15.09698
G1 X90.66 Y122.392 E15.12313
G0 F3600 X90.874 Y122.729
G1 F1500 X92.743 Y121.54 E15.23364
G1 X93.091 Y121.355 E15.25331
G1 X94.614 Y120.684 E15.33634
G1 X94.991 Y120.551 E15.35628
G1 X97.12 Y119.982 E15.46623
G1 X97.564 Y119.904 E15.48872
G1 X99.775 Y119.71 E15.59945
G1 X100.117 Y119.703 E15.61651
G1 X101.228 Y119.752 E15.672
G1 X101.565 Y119.789 E15.68891
G1 X103.735 Y120.172 E15.79885
G1 X104.173 Y120.289 E15.82146
G1 X106.262 Y121.05 E15.93238
G1 X106.57 Y121.185 E15.94916
G1 X107.549 Y121.693 E16.00419
G1 X107.795 Y121.839 E16.01846
G1 X109.168 Y122.756 E16.10083
G1 X109.48 Y123 E16.12059
G1 X111.115 Y124.497 E16.23119
G1 X111.421 Y124.831 E16.25379
G1 X112.772 Y126.59 E16.36444
G1 X113.016 Y126.973 E16.3871
G1 X114.04 Y128.94 E16.49773
G1 X114.214 Y129.359 E16.52037
G1 X114.877 Y131.461 E16.63033
G1 X114.975 Y131.903 E16.65292
G1 X115.266 Y134.107 E16.76383
G1 X115.286 Y134.56 E16.78645
G1 X115.19 Y136.764 E16.89651
G1 X115.142 Y137.157 E16.91627
G1 X114.818 Y138.789 E16.99928
G1 X114.711 Y139.173 E17.01916
G1 X113.95 Y141.262 E17.13009
G1 X113.815 Y141.569 E17.14682
G1 X113.309 Y142.545 E17.20166
G1 X113.163 Y142.793 E17.21602
G1 X112.242 Y144.171 E17.29871
G1 X111.998 Y144.482 E17.31843
G1 X110.502 Y146.116 E17.42896
G1 X110.167 Y146.423 E17.45163
G1 X108.405 Y147.775 E17.56243
G1 X108.022 Y148.018 E17.58506
G1 X106.06 Y149.039 E17.69541
G1 X105.643 Y149.212 E17.71793
G1 X103.533 Y149.878 E17.82832
G1 X103.089 Y149.977 E17.85101
G1 X100.891 Y150.266 E17.96162
G1 X100.439 Y150.286 E17.98419
G1 X98.233 Y150.19 E18.09435
G1 X97.839 Y150.142 E18.11415
G1 X96.209 Y149.818 E18.19707
G1 X95.825 Y149.711 E18.21695
G1 X93.735 Y148.949 E18.32794
G1 X93.326 Y148.757 E18.35048
G1 X91.413 Y147.652 E18.4607
G1 X91.042 Y147.393 E18.48327
G1 X89.344 Y145.968 E18.59386
G1 X89.022 Y145.646 E18.61658
G1 X87.6 Y143.949 E18.72704
G1 X87.34 Y143.577 E18.74968
G1 X86.238 Y141.665 E18.85978
G1 X86.048 Y141.257 E18.88224
G1 X85.289 Y139.174 E18.99284
G1 X85.171 Y138.735 E19.01552
G1 X84.787 Y136.557 E19.12586
G1 X84.748 Y136.106 E19.14844
G1 X84.748 Y133.9 E19.2585
G1 X84.778 Y133.508 E19.27811
G1 X85.029 Y131.863 E19.36113
G1 X85.12 Y131.472 E19.38116
G1 X85.788 Y129.357 E19.49182
G1 X85.961 Y128.939 E19.51439
G1 X86.986 Y126.971 E19.62509
G1 X87.23 Y126.589 E19.6477
G1 X88.578 Y124.833 E19.75815
G1 X88.884 Y124.499 E19.78075
G1 X90.514 Y123.006 E19.89103
G1 X90.874 Y122.729 E19.91369
G0 F3600 X91.089 Y123.067
G1 F1500 X92.958 Y121.878 E20.0242
G1 X93.252 Y121.721 E20.04083
G1 X94.775 Y121.05 E20.12386
G1 X95.094 Y120.938 E20.14073
G1 X97.223 Y120.369 E20.25067
G1 X97.599 Y120.302 E20.26973
G1 X99.81 Y120.108 E20.38046
G1 X100.099 Y120.102 E20.39488
G1 X101.21 Y120.151 E20.45036
G1 X101.495 Y120.182 E20.46466
G1 X103.665 Y120.565 E20.5746
G1 X104.036 Y120.665 E20.59377
G1 X106.125 Y121.426 E20.70469
G1 X106.385 Y121.54 E20.71885
G1 X107.364 Y122.048 E20.77388
G1 X107.573 Y122.172 E20.786
G1 X108.946 Y123.089 E20.86837
G1 X109.21 Y123.295 E20.88508
G1 X110.845 Y124.792 E20.99568
G1 X111.104 Y125.075 E21.01482
G1 X112.455 Y126.834 E21.12547
G1 X112.661 Y127.158 E21.14463
G1 X113.685 Y129.125 E21.25526
G1 X113.832 Y129.479 E21.27438
G1 X114.495 Y131.581 E21.38435
G1 X114.578 Y131.955 E21.40346
G1 X114.869 Y134.159 E21.51437
G1 X114.886 Y134.543 E21.53355
G1 X114.79 Y136.747 E21.64361
G1 X114.75 Y137.079 E21.66029
G1 X114.426 Y138.711 E21.7433
G1 X114.335 Y139.036 E21.76014
G1 X113.574 Y141.125 E21.87106
G1 X113.46 Y141.385 E21.88523
G1 X112.954 Y142.361 E21.94007
G1 X112.83 Y142.57 E21.9522
G1 X111.909 Y143.948 E22.03489
G1 X111.703 Y144.212 E22.05159
G1 X110.207 Y145.846 E22.16212
G1 X109.923 Y146.105 E22.1813
G1 X108.161 Y147.457 E22.2921
G1 X107.838 Y147.664 E22.31124
G1 X105.876 Y148.685 E22.42158
G1 X105.522 Y148.831 E22.44069
G1 X103.412 Y149.497 E22.55108
G1 X103.037 Y149.58 E22.57024
G1 X100.839 Y149.869 E22.68084
G1 X100.456 Y149.886 E22.69997
G1 X98.25 Y149.79 E22.81013
G1 X97.917 Y149.75 E22.82686
G1 X96.287 Y149.426 E22.90977
G1 X95.962 Y149.335 E22.92661
G1 X93.872 Y148.573 E23.0376
G1 X93.526 Y148.411 E23.05666
G1 X91.613 Y147.306 E23.16687
G1 X91.299 Y147.086 E23.186
G1 X89.601 Y145.661 E23.2966
G1 X89.329 Y145.389 E23.31579
G1 X87.907 Y143.692 E23.42624
G1 X87.687 Y143.378 E23.44537
G1 X86.585 Y141.466 E23.55547
G1 X86.424 Y141.12 E23.57451
G1 X85.665 Y139.037 E23.68512
G1 X85.565 Y138.666 E23.70429
G1 X85.181 Y136.488 E23.81462
G1 X85.148 Y136.106 E23.83375
G1 X85.148 Y133.9 E23.94381
G1 X85.173 Y133.568 E23.96042
G1 X85.424 Y131.923 E24.04344
G1 X85.501 Y131.592 E24.06039
G1 X86.169 Y129.477 E24.17105
G1 X86.316 Y129.124 E24.19013
G1 X87.341 Y127.156 E24.30083
G1 X87.547 Y126.832 E24.31998
G1 X88.895 Y125.076 E24.43043
G1 X89.154 Y124.794 E24.44953
G1 X90.784 Y123.301 E24.55981
G1 X91.089 Y123.067 E24.57899
G0 F3600 X91.304 Y123.404
G1 F1500 X93.173 Y122.215 E24.6895
G1 X93.413 Y122.087 E24.70307
G1 X94.936 Y121.416 E24.7861
G1 X95.197 Y121.324 E24.79991
G1 X97.326 Y120.755 E24.90985
G1 X97.634 Y120.701 E24.92545
G1 X99.845 Y120.507 E25.03619
G1 X100.081 Y120.502 E25.04796
G1 X101.192 Y120.551 E25.10344
G1 X101.426 Y120.576 E25.11519
G1 X103.596 Y120.959 E25.22512
G1 X103.899 Y121.041 E25.24078
G1 X105.988 Y121.802 E25.3517
G1 X106.201 Y121.895 E25.3633
G1 X107.18 Y122.403 E25.41832
G1 X107.351 Y122.504 E25.42823
G1 X108.724 Y123.421 E25.5106
G1 X108.94 Y123.59 E25.52429
G1 X110.575 Y125.087 E25.63488
G1 X110.787 Y125.319 E25.65056
G1 X112.138 Y127.078 E25.76122
G1 X112.307 Y127.343 E25.7769
G1 X113.331 Y129.31 E25.88753
G1 X113.451 Y129.6 E25.90319
G1 X114.114 Y131.702 E26.01315
G1 X114.182 Y132.007 E26.02874
G1 X114.473 Y134.211 E26.13965
G1 X114.486 Y134.525 E26.15533
G1 X114.39 Y136.729 E26.2654
G1 X114.358 Y137.002 E26.27911
G1 X114.034 Y138.634 E26.36212
G1 X113.959 Y138.899 E26.37586
G1 X113.198 Y140.988 E26.48678
G1 X113.105 Y141.2 E26.49833
G1 X112.599 Y142.176 E26.55318
G1 X112.498 Y142.348 E26.56313
G1 X111.577 Y143.726 E26.64582
G1 X111.408 Y143.941 E26.65946
G1 X109.912 Y145.575 E26.76999
G1 X109.68 Y145.788 E26.7857
G1 X107.918 Y147.14 E26.8965
G1 X107.653 Y147.309 E26.91218
G1 X105.691 Y148.33 E27.02253
G1 X105.402 Y148.45 E27.03814
G1 X103.292 Y149.116 E27.14853
G1 X102.985 Y149.184 E27.16422
G1 X100.787 Y149.473 E27.27482
G1 X100.474 Y149.486 E27.29045
G1 X98.268 Y149.39 E27.40061
G1 X97.995 Y149.357 E27.41433
G1 X96.365 Y149.033 E27.49724
G1 X96.099 Y148.959 E27.51102
G1 X94.009 Y148.197 E27.622
G1 X93.726 Y148.065 E27.63758
G1 X91.813 Y146.96 E27.7478
G1 X91.556 Y146.78 E27.76345
G1 X89.858 Y145.355 E27.87404
G1 X89.635 Y145.132 E27.88978
G1 X88.213 Y143.435 E28.00024
G1 X88.033 Y143.178 E28.01589
G1 X86.931 Y141.266 E28.12599
G1 X86.8 Y140.983 E28.14155
G1 X86.041 Y138.9 E28.25215
G1 X85.959 Y138.597 E28.26781
G1 X85.575 Y136.419 E28.37815
G1 X85.548 Y136.106 E28.39382
G1 X85.548 Y133.9 E28.50388
G1 X85.569 Y133.628 E28.51749
G1 X85.82 Y131.983 E28.60051
G1 X85.883 Y131.713 E28.61434
G1 X86.551 Y129.598 E28.725
G1 X86.671 Y129.309 E28.74061
G1 X87.696 Y127.341 E28.85131
G1 X87.864 Y127.076 E28.86697
G1 X89.212 Y125.32 E28.97741
G1 X89.424 Y125.089 E28.99305
G1 X91.054 Y123.596 E29.10333
G1 X91.304 Y123.404 E29.11906
G0 F3600 X91.519 Y123.742
G1 F1500 X93.388 Y122.553 E29.22957
G1 X93.575 Y122.453 E29.24015
G1 X95.098 Y121.782 E29.32318
G1 X95.301 Y121.71 E29.33393
G1 X97.43 Y121.141 E29.44387
G1 X97.669 Y121.099 E29.45598
G1 X99.88 Y120.905 E29.56671
G1 X100.064 Y120.901 E29.57589
G1 X101.175 Y120.95 E29.63137
G1 X101.356 Y120.97 E29.64046
G1 X103.526 Y121.353 E29.7504
G1 X103.762 Y121.417 E29.76259
G1 X105.851 Y122.178 E29.87352
G1 X106.017 Y122.25 E29.88254
G1 X106.996 Y122.758 E29.93757
G1 X107.129 Y122.837 E29.94529
G1 X108.502 Y123.754 E30.02766
G1 X108.669 Y123.885 E30.03825
G1 X110.304 Y125.382 E30.14884
G1 X110.469 Y125.562 E30.16103
G1 X111.82 Y127.321 E30.27168
G1 X111.952 Y127.528 E30.28393
G1 X112.976 Y129.495 E30.39456
