;FLAVOR:Marlin
;TIME:481
;Filament used: 0.422917m
;Layer height: 0.2
;Generated with Cura_SteamEngine 2.7.0
M190 S65
M104 S210
M109 S210
G21 ;metric values
G90 ;absolute positioning
M82 ;set extruder to absolute mode
M107 ;start with the fan off
G28 X0 Y0 ;move X/Y to min endstops
G28 Z0 ;move Z to min endstops
G1 Z15.0 F9000 ;move the platform down 15mm
G92 E0 ;zero the extruded length
G1 F200 E3 ;extrude 3mm of feed stock
G92 E0 ;zero the extruded length again
G1 F9000
;Put printing message on LCD screen
M117 Printing...
;LAYER_COUNT:12
;LAYER:0
M107
G0 F3600 X90.223 Y121.724 Z0.3
;TYPE:SKIRT
G1 F1500 X90.764 Y121.342 E0.03304
G1 X92.679 Y120.227 E0.1436
G1 X93.279 Y119.945 E0.17667
G1 X95.366 Y119.177 E0.28762
G1 X96.009 Y119.002 E0.32086
G1 X98.178 Y118.614 E0.43079
G1 X98.83 Y118.555 E0.46345
G1 X101.051 Y118.545 E0.57426
G1 X101.631 Y118.587 E0.60327
G1 X103.266 Y118.832 E0.68576
G1 X103.837 Y118.963 E0.71498
G1 X105.955 Y119.625 E0.82569
G1 X106.561 Y119.874 E0.85838
G1 X108.52 Y120.883 E0.96831
G1 X109.082 Y121.238 E1.00148
G1 X110.847 Y122.582 E1.11216
G1 X111.337 Y123.027 E1.14518
G1 X112.839 Y124.654 E1.25565
G1 X113.245 Y125.18 E1.2888
G1 X114.44 Y127.042 E1.39918
G1 X114.681 Y127.478 E1.42404
G1 X115.155 Y128.487 E1.47966
G1 X115.335 Y128.945 E1.50421
G1 X116.006 Y131.043 E1.6141
G1 X116.153 Y131.693 E1.64735
G1 X116.45 Y133.894 E1.75815
G1 X116.481 Y134.55 E1.79091
G1 X116.395 Y136.755 E1.90101
G1 X116.343 Y137.249 E1.92579
G1 X116.155 Y138.345 E1.98127
G1 X116.037 Y138.837 E2.00651
G1 X115.373 Y140.96 E2.11748
G1 X115.124 Y141.567 E2.15022
G1 X114.116 Y143.523 E2.26
G1 X113.809 Y144.02 E2.28914
G1 X112.831 Y145.362 E2.37199
G1 X112.457 Y145.801 E2.40076
G1 X110.898 Y147.372 E2.51118
G1 X110.393 Y147.799 E2.54417
G1 X108.585 Y149.076 E2.65461
G1 X108.012 Y149.41 E2.6877
G1 X106.01 Y150.353 E2.7981
G1 X105.389 Y150.582 E2.83112
G1 X103.255 Y151.163 E2.94146
G1 X102.603 Y151.28 E2.97451
G1 X100.392 Y151.482 E3.08528
G1 X99.731 Y151.485 E3.11826
G1 X97.52 Y151.301 E3.22894
G1 X96.864 Y151.188 E3.26215
G1 X94.731 Y150.624 E3.37223
G1 X94.109 Y150.4 E3.40521
G1 X92.09 Y149.468 E3.51615
G1 X91.581 Y149.184 E3.54523
G1 X90.2 Y148.267 E3.62794
G1 X89.743 Y147.91 E3.65687
G1 X88.107 Y146.42 E3.76727
G1 X87.658 Y145.933 E3.80031
G1 X86.305 Y144.18 E3.91079
G1 X85.948 Y143.624 E3.94376
G1 X84.919 Y141.663 E4.05424
G1 X84.664 Y141.053 E4.08723
G1 X83.991 Y138.946 E4.19758
G1 X83.845 Y138.295 E4.23086
G1 X83.55 Y136.097 E4.3415
G1 X83.519 Y135.442 E4.37422
G1 X83.606 Y133.237 E4.48431
G1 X83.673 Y132.66 E4.51329
G1 X83.989 Y131.038 E4.59574
G1 X84.144 Y130.478 E4.62473
G1 X84.896 Y128.389 E4.73549
G1 X85.173 Y127.788 E4.76851
G1 X86.273 Y125.866 E4.87899
G1 X86.652 Y125.321 E4.91211
G1 X88.071 Y123.618 E5.0227
G1 X88.537 Y123.149 E5.05569
G1 X90.223 Y121.724 E5.16582
G0 F3600 X90.481 Y122.029
G1 F1500 X90.965 Y121.688 E5.19536
G1 X92.88 Y120.573 E5.30591
G1 X93.417 Y120.32 E5.33553
G1 X95.504 Y119.552 E5.44648
G1 X96.079 Y119.396 E5.4762
G1 X98.248 Y119.008 E5.58613
G1 X98.832 Y118.955 E5.61538
G1 X101.053 Y118.945 E5.72619
G1 X101.572 Y118.983 E5.75215
G1 X103.207 Y119.228 E5.83464
G1 X103.717 Y119.345 E5.86074
G1 X105.835 Y120.007 E5.97145
G1 X106.378 Y120.229 E6.00072
G1 X108.337 Y121.238 E6.11065
G1 X108.84 Y121.556 E6.14034
G1 X110.605 Y122.9 E6.25102
G1 X111.043 Y123.299 E6.28058
G1 X112.545 Y124.926 E6.39105
G1 X112.908 Y125.396 E6.42068
G1 X114.103 Y127.258 E6.53106
G1 X114.319 Y127.648 E6.5533
G1 X114.793 Y128.657 E6.60892
G1 X114.954 Y129.067 E6.6309
G1 X115.625 Y131.165 E6.74079
G1 X115.756 Y131.746 E6.7705
G1 X116.053 Y133.947 E6.88131
G1 X116.081 Y134.535 E6.91068
G1 X115.995 Y136.74 E7.02077
G1 X115.949 Y137.182 E7.04294
G1 X115.761 Y138.278 E7.09842
G1 X115.655 Y138.718 E7.121
G1 X114.991 Y140.841 E7.23197
G1 X114.768 Y141.383 E7.26121
G1 X113.76 Y143.339 E7.37099
G1 X113.486 Y143.784 E7.39707
G1 X112.508 Y145.126 E7.47991
G1 X112.173 Y145.519 E7.50567
G1 X110.614 Y147.09 E7.61609
G1 X110.163 Y147.472 E7.64558
G1 X108.355 Y148.749 E7.75601
G1 X107.842 Y149.048 E7.78564
G1 X105.84 Y149.991 E7.89604
G1 X105.284 Y150.196 E7.92561
G1 X103.15 Y150.777 E8.03595
G1 X102.566 Y150.882 E8.06555
G1 X100.355 Y151.084 E8.17632
G1 X99.764 Y151.086 E8.2058
G1 X97.553 Y150.902 E8.31649
G1 X96.966 Y150.801 E8.34621
G1 X94.833 Y150.237 E8.45628
G1 X94.277 Y150.037 E8.48576
G1 X92.258 Y149.105 E8.5967
G1 X91.802 Y148.85 E8.62277
G1 X90.421 Y147.933 E8.70547
G1 X90.013 Y147.615 E8.73128
G1 X88.377 Y146.125 E8.84168
G1 X87.974 Y145.688 E8.87133
G1 X86.621 Y143.935 E8.98181
G1 X86.302 Y143.438 E9.01128
G1 X85.273 Y141.477 E9.12176
G1 X85.045 Y140.932 E9.15124
G1 X84.372 Y138.825 E9.26159
G1 X84.241 Y138.242 E9.2914
G1 X83.946 Y136.044 E9.40204
G1 X83.919 Y135.458 E9.43131
G1 X84.006 Y133.253 E9.5414
G1 X84.066 Y132.737 E9.56732
G1 X84.382 Y131.115 E9.64976
G1 X84.52 Y130.613 E9.67573
G1 X85.272 Y128.524 E9.7865
G1 X85.52 Y127.987 E9.81601
G1 X86.62 Y126.065 E9.92649
G1 X86.959 Y125.578 E9.9561
G1 X88.378 Y123.875 E10.06669
G1 X88.795 Y123.454 E10.09625
G1 X90.481 Y122.029 E10.20639
G0 F3600 X90.739 Y122.335
G1 F1500 X91.166 Y122.033 E10.23248
G1 X93.081 Y120.918 E10.34303
G1 X93.555 Y120.696 E10.36915
G1 X95.642 Y119.928 E10.48009
G1 X96.15 Y119.79 E10.50636
G1 X98.319 Y119.402 E10.61629
G1 X98.833 Y119.355 E10.64204
G1 X101.054 Y119.345 E10.75284
G1 X101.513 Y119.378 E10.7758
G1 X103.148 Y119.623 E10.85828
G1 X103.598 Y119.727 E10.88133
G1 X105.716 Y120.389 E10.99204
G1 X106.195 Y120.585 E11.01786
G1 X108.154 Y121.594 E11.12779
G1 X108.597 Y121.874 E11.15394
G1 X110.362 Y123.218 E11.26462
G1 X110.749 Y123.57 E11.29072
G1 X112.251 Y125.197 E11.40119
G1 X112.572 Y125.612 E11.42736
G1 X113.767 Y127.474 E11.53775
G1 X113.957 Y127.818 E11.55735
G1 X114.431 Y128.827 E11.61297
G1 X114.573 Y129.189 E11.63237
G1 X115.244 Y131.287 E11.74226
G1 X115.36 Y131.8 E11.7685
G1 X115.657 Y134.001 E11.87931
G1 X115.682 Y134.519 E11.90518
G1 X115.596 Y136.724 E12.01527
G1 X115.555 Y137.114 E12.03483
G1 X115.367 Y138.21 E12.09031
G1 X115.273 Y138.599 E12.11028
G1 X114.609 Y140.722 E12.22125
G1 X114.413 Y141.2 E12.24703
G1 X113.405 Y143.156 E12.35681
G1 X113.162 Y143.549 E12.37986
G1 X112.184 Y144.891 E12.46271
G1 X111.889 Y145.237 E12.48539
G1 X110.33 Y146.808 E12.59581
G1 X109.932 Y147.145 E12.62183
G1 X108.124 Y148.422 E12.73226
G1 X107.671 Y148.686 E12.75842
G1 X105.669 Y149.629 E12.86883
G1 X105.179 Y149.81 E12.89489
G1 X103.045 Y150.391 E13.00523
G1 X102.53 Y150.484 E13.03134
G1 X100.319 Y150.686 E13.1421
G1 X99.797 Y150.688 E13.16815
G1 X97.586 Y150.504 E13.27884
G1 X97.068 Y150.414 E13.30507
G1 X94.935 Y149.85 E13.41514
G1 X94.445 Y149.674 E13.44111
G1 X92.426 Y148.742 E13.55206
G1 X92.023 Y148.517 E13.57508
G1 X90.642 Y147.6 E13.65779
G1 X90.282 Y147.319 E13.68057
G1 X88.646 Y145.829 E13.79097
G1 X88.291 Y145.444 E13.8171
G1 X86.938 Y143.691 E13.92757
G1 X86.657 Y143.252 E13.95358
G1 X85.628 Y141.291 E14.06407
G1 X85.426 Y140.81 E14.09009
G1 X84.753 Y138.703 E14.20044
G1 X84.638 Y138.189 E14.22672
G1 X84.343 Y135.991 E14.33736
G1 X84.318 Y135.474 E14.36319
G1 X84.405 Y133.269 E14.47328
G1 X84.458 Y132.813 E14.49618
G1 X84.774 Y131.191 E14.57863
G1 X84.896 Y130.749 E14.6015
G1 X85.648 Y128.66 E14.71227
G1 X85.867 Y128.186 E14.73832
G1 X86.967 Y126.264 E14.8488
G1 X87.266 Y125.834 E14.87493
G1 X88.685 Y124.131 E14.98552
G1 X89.053 Y123.76 E15.01159
G1 X90.739 Y122.335 E15.12173
G0 F3600 X90.998 Y122.64
G1 F1500 X91.368 Y122.379 E15.14432
G1 X93.283 Y121.264 E15.25487
G1 X93.693 Y121.071 E15.27748
G1 X95.78 Y120.303 E15.38843
G1 X96.22 Y120.184 E15.41117
G1 X98.389 Y119.796 E15.5211
G1 X98.835 Y119.755 E15.54344
G1 X101.056 Y119.745 E15.65425
G1 X101.453 Y119.774 E15.67411
G1 X103.088 Y120.019 E15.75659
G1 X103.479 Y120.108 E15.7766
G1 X105.597 Y120.77 E15.8873
G1 X106.012 Y120.941 E15.9097
G1 X107.971 Y121.95 E16.01964
G1 X108.355 Y122.192 E16.04228
G1 X110.12 Y123.536 E16.15296
G1 X110.455 Y123.841 E16.17556
G1 X111.957 Y125.468 E16.28603
G1 X112.235 Y125.828 E16.30873
G1 X113.43 Y127.69 E16.41911
G1 X113.595 Y127.989 E16.43615
G1 X114.069 Y128.998 E16.49176
G1 X114.192 Y129.311 E16.50854
G1 X114.863 Y131.409 E16.61843
G1 X114.964 Y131.853 E16.64115
G1 X115.261 Y134.054 E16.75195
G1 X115.282 Y134.503 E16.77438
G1 X115.196 Y136.708 E16.88447
G1 X115.161 Y137.047 E16.90147
G1 X114.973 Y138.143 E16.95695
G1 X114.891 Y138.479 E16.97421
G1 X114.227 Y140.602 E17.08518
G1 X114.057 Y141.017 E17.10756
G1 X113.049 Y142.973 E17.21734
G1 X112.839 Y143.313 E17.23728
G1 X111.861 Y144.655 E17.32012
G1 X111.606 Y144.955 E17.33976
G1 X110.047 Y146.526 E17.45018
G1 X109.701 Y146.819 E17.4728
G1 X107.893 Y148.096 E17.58324
G1 X107.501 Y148.324 E17.60586
G1 X105.499 Y149.267 E17.71627
G1 X105.074 Y149.424 E17.73887
G1 X102.94 Y150.005 E17.84921
G1 X102.494 Y150.085 E17.87182
G1 X100.283 Y150.287 E17.98258
G1 X99.83 Y150.289 E18.00518
G1 X97.619 Y150.105 E18.11587
G1 X97.17 Y150.028 E18.1386
G1 X95.037 Y149.464 E18.24867
G1 X94.612 Y149.311 E18.27121
G1 X92.593 Y148.379 E18.38215
G1 X92.245 Y148.184 E18.40205
G1 X90.864 Y147.267 E18.48476
G1 X90.551 Y147.023 E18.50456
G1 X88.915 Y145.533 E18.61496
G1 X88.608 Y145.2 E18.63755
G1 X87.255 Y143.447 E18.74803
G1 X87.011 Y143.066 E18.7706
G1 X85.982 Y141.105 E18.88109
G1 X85.807 Y140.688 E18.90365
G1 X85.134 Y138.581 E19.014
G1 X85.034 Y138.136 E19.03676
G1 X84.739 Y135.938 E19.1474
G1 X84.718 Y135.489 E19.16982
G1 X84.805 Y133.284 E19.27992
G1 X84.851 Y132.89 E19.29971
G1 X85.167 Y131.268 E19.38215
G1 X85.273 Y130.884 E19.40202
G1 X86.025 Y128.795 E19.51279
G1 X86.214 Y128.385 E19.53532
G1 X87.314 Y126.463 E19.6458
G1 X87.574 Y126.09 E19.66848
G1 X88.993 Y124.387 E19.77907
G1 X89.312 Y124.065 E19.80169
G1 X90.998 Y122.64 E19.91182
G0 F3600 X91.256 Y122.946
G1 F1500 X91.569 Y122.725 E19.93094
G1 X93.484 Y121.61 E20.04149
G1 X93.831 Y121.446 E20.06064
G1 X95.918 Y120.678 E20.17159
G1 X96.291 Y120.577 E20.19087
G1 X98.46 Y120.189 E20.3008
G1 X98.837 Y120.155 E20.31968
G1 X101.058 Y120.145 E20.43049
G1 X101.394 Y120.169 E20.44729
G1 X103.029 Y120.414 E20.52977
G1 X103.359 Y120.49 E20.54667
G1 X105.477 Y121.152 E20.65738
G1 X105.828 Y121.296 E20.67631
G1 X107.787 Y122.305 E20.78624
G1 X108.113 Y122.511 E20.80548
G1 X109.878 Y123.855 E20.91616
G1 X110.161 Y124.113 E20.93527
G1 X111.663 Y125.74 E21.04574
G1 X111.898 Y126.044 E21.06491
G1 X113.093 Y127.906 E21.17529
G1 X113.233 Y128.159 E21.18972
G1 X113.707 Y129.168 E21.24533
G1 X113.811 Y129.433 E21.25954
G1 X114.482 Y131.531 E21.36943
G1 X114.567 Y131.907 E21.38866
G1 X114.864 Y134.108 E21.49946
G1 X114.882 Y134.488 E21.51844
G1 X114.796 Y136.693 E21.62853
G1 X114.766 Y136.979 E21.64288
G1 X114.578 Y138.075 E21.69836
G1 X114.51 Y138.36 E21.71298
G1 X113.846 Y140.483 E21.82395
G1 X113.702 Y140.834 E21.84288
G1 X112.694 Y142.79 E21.95266
G1 X112.516 Y143.078 E21.96955
G1 X111.538 Y144.42 E22.0524
G1 X111.322 Y144.674 E22.06903
G1 X109.763 Y146.245 E22.17945
G1 X109.47 Y146.492 E22.19857
G1 X107.662 Y147.769 E22.30901
G1 X107.33 Y147.962 E22.32816
G1 X105.328 Y148.905 E22.43857
G1 X104.969 Y149.038 E22.45767
G1 X102.835 Y149.619 E22.56801
G1 X102.457 Y149.687 E22.58717
G1 X100.246 Y149.889 E22.69794
G1 X99.864 Y149.89 E22.717
G1 X97.653 Y149.706 E22.82769
G1 X97.273 Y149.641 E22.84692
G1 X95.14 Y149.077 E22.95699
G1 X94.78 Y148.947 E22.97609
G1 X92.761 Y148.015 E23.08703
G1 X92.466 Y147.851 E23.10387
G1 X91.085 Y146.934 E23.18657
G1 X90.821 Y146.728 E23.20328
G1 X89.185 Y145.238 E23.31368
G1 X88.924 Y144.955 E23.33289
G1 X87.571 Y143.202 E23.44336
G1 X87.365 Y142.88 E23.46243
G1 X86.336 Y140.919 E23.57292
G1 X86.188 Y140.566 E23.59202
G1 X85.515 Y138.459 E23.70237
G1 X85.431 Y138.083 E23.72159
G1 X85.136 Y135.885 E23.83223
G1 X85.118 Y135.505 E23.85121
G1 X85.205 Y133.3 E23.9613
G1 X85.244 Y132.966 E23.97808
G1 X85.56 Y131.344 E24.06052
G1 X85.649 Y131.02 E24.07729
G1 X86.401 Y128.931 E24.18805
G1 X86.562 Y128.583 E24.20718
G1 X87.662 Y126.661 E24.31767
G1 X87.881 Y126.346 E24.33681
G1 X89.3 Y124.643 E24.4474
G1 X89.57 Y124.371 E24.46652
G1 X91.256 Y122.946 E24.57665
G0 F3600 X91.514 Y123.251
G1 F1500 X91.77 Y123.07 E24.59229
G1 X93.685 Y121.955 E24.70285
G1 X93.969 Y121.822 E24.71849
G1 X96.056 Y121.054 E24.82944
G1 X96.361 Y120.971 E24.84521
G1 X98.53 Y120.583 E24.95514
G1 X98.839 Y120.555 E24.97062
G1 X101.06 Y120.545 E25.08143
G1 X101.335 Y120.565 E25.09518
G1 X102.97 Y120.81 E25.17767
G1 X103.24 Y120.872 E25.19149
G1 X105.358 Y121.534 E25.30219
G1 X105.645 Y121.652 E25.31768
G1 X107.604 Y122.661 E25.42761
G1 X107.87 Y122.829 E25.44331
G1 X109.635 Y124.173 E25.55399
G1 X109.868 Y124.384 E25.56967
G1 X111.37 Y126.011 E25.68014
G1 X111.562 Y126.26 E25.69583
G1 X112.757 Y128.122 E25.80621
G1 X112.871 Y128.329 E25.818
G1 X113.345 Y129.338 E25.87362
G1 X113.43 Y129.555 E25.88525
G1 X114.101 Y131.653 E25.99514
G1 X114.171 Y131.96 E26.01085
G1 X114.468 Y134.161 E26.12165
G1 X114.483 Y134.472 E26.13718
G1 X114.397 Y136.677 E26.24728
G1 X114.372 Y136.911 E26.25902
G1 X114.184 Y138.007 E26.3145
G1 X114.128 Y138.24 E26.32645
G1 X113.464 Y140.363 E26.43743
G1 X113.346 Y140.651 E26.45295
G1 X112.338 Y142.607 E26.56274
G1 X112.193 Y142.842 E26.57651
G1 X111.215 Y144.184 E26.65936
G1 X111.038 Y144.392 E26.67298
G1 X109.479 Y145.963 E26.7834
G1 X109.239 Y146.165 E26.79905
G1 X107.431 Y147.442 E26.90949
G1 X107.16 Y147.6 E26.92514
G1 X105.158 Y148.543 E27.03554
G1 X104.864 Y148.652 E27.05119
G1 X102.73 Y149.233 E27.16153
G1 X102.421 Y149.289 E27.17719
G1 X100.21 Y149.491 E27.28796
G1 X99.897 Y149.492 E27.30358
G1 X97.686 Y149.308 E27.41426
G1 X97.375 Y149.254 E27.43001
G1 X95.242 Y148.69 E27.54009
G1 X94.948 Y148.584 E27.55568
G1 X92.929 Y147.652 E27.66662
G1 X92.687 Y147.518 E27.68042
G1 X91.306 Y146.601 E27.76312
G1 X91.09 Y146.432 E27.77681
G1 X89.454 Y144.942 E27.88721
G1 X89.241 Y144.711 E27.90288
G1 X87.888 Y142.958 E28.01336
G1 X87.719 Y142.694 E28.029
G1 X86.69 Y140.733 E28.13948
G1 X86.569 Y140.445 E28.15507
G1 X85.896 Y138.338 E28.26542
G1 X85.827 Y138.029 E28.28122
G1 X85.532 Y135.831 E28.39186
G1 X85.517 Y135.521 E28.40734
G1 X85.604 Y133.316 E28.51743
G1 X85.636 Y133.043 E28.53115
G1 X85.952 Y131.421 E28.61359
G1 X86.025 Y131.155 E28.62735
G1 X86.777 Y129.066 E28.73812
G1 X86.909 Y128.782 E28.75375
G1 X88.009 Y126.86 E28.86423
G1 X88.188 Y126.602 E28.87989
G1 X89.607 Y124.899 E28.99049
G1 X89.828 Y124.676 E29.00615
G1 X91.514 Y123.251 E29.11628
G0 F3600 X91.772 Y123.557
G1 F1500 X91.972 Y123.416 E29.12849
G1 X93.887 Y122.301 E29.23905
G1 X94.108 Y122.197 E29.25123
G1 X96.195 Y121.429 E29.36218
G1 X96.431 Y121.365 E29.37438
G1 X98.6 Y120.977 E29.48431
G1 X98.841 Y120.955 E29.49638
G1 X101.062 Y120.945 E29.60719
G1 X101.275 Y120.96 E29.61784
G1 X102.91 Y121.205 E29.70032
G1 X103.121 Y121.254 E29.71113
G1 X105.239 Y121.916 E29.82184
G1 X105.462 Y122.007 E29.83385
G1 X107.421 Y123.016 E29.94379
G1 X107.628 Y123.147 E29.95601
G1 X109.393 Y124.491 E30.06669
G1 X109.574 Y124.655 E30.07888
G1 X111.076 Y126.282 E30.18935
G1 X111.225 Y126.476 E30.20155
G1 X112.42 Y128.338 E30.31194
G1 X112.509 Y128.499 E30.32111
G1 X112.983 Y129.508 E30.37673
G1 X113.049 Y129.677 E30.38578
G1 X113.72 Y131.775 E30.49567
G1 X113.774 Y132.014 E30.5079
G1 X114.071 Y134.215 E30.6187
G1 X114.083 Y134.457 E30.63079
G1 X113.997 Y136.662 E30.74088
G1 X113.978 Y136.844 E30.75001
G1 X113.79 Y137.94 E30.80549
G1 X113.746 Y138.121 E30.81478
G1 X113.082 Y140.244 E30.92576
G1 X112.99 Y140.467 E30.93779
G1 X111.982 Y142.423 E31.04758
G1 X111.869 Y142.607 E31.05835
