; generated by Slic3r 1.3.0-dev on 2017-11-16 at 01:33:35

; external perimeters extrusion width = 0.40mm (1.61mm^3/s)
; perimeters extrusion width = 0.67mm (5.65mm^3/s)
; infill extrusion width = 0.67mm (5.65mm^3/s)
; solid infill extrusion width = 0.67mm (5.65mm^3/s)
; top infill extrusion width = 0.67mm (1.88mm^3/s)

M190 S60 ; set bed temperature and wait for it to be reached
M104 S208 ; set temperature
G28 ; home all axes


; Filament gcode

M109 S208 ; set temperature and wait for it to be reached
G21 ; set units to millimeters
G90 ; use absolute coordinates
M82 ; use absolute distances for extrusion
G92 E0
M106 S255
G1 E-4.50000 F4200.00000
G92 E0
G1 Z0.300 F6000.000
G1 X48.364 Y56.810 F6000.000
G1 E4.50000 F4200.00000
G1 F1200
G1 X49.180 Y56.214 E4.53725
G1 X50.113 Y55.639 E4.57764
G1 X51.012 Y55.180 E4.61489
G1 X52.025 Y54.761 E4.65528
G1 X52.986 Y54.450 E4.69253
G1 X54.052 Y54.197 E4.73292
G1 X55.369 Y54.000 E4.78203
G1 X83.807 Y50.948 E5.83659
G1 X84.958 Y50.855 E5.87920
G1 X85.772 Y50.839 E5.90921
G1 X86.988 Y50.927 E5.95416
G1 X87.512 Y50.987 E5.97360
G1 X88.125 Y51.105 E5.99662
G1 X89.010 Y51.317 E6.03018
G1 X89.790 Y51.548 E6.06015
G1 X91.194 Y52.122 E6.11610
G1 X91.713 Y52.381 E6.13747
G1 X92.807 Y53.041 E6.18457
G1 X93.282 Y53.358 E6.20564
G1 X149.813 Y94.386 E8.78110
G1 X150.191 Y94.680 E8.79877
G1 X150.999 Y95.370 E8.83795
G1 X151.606 Y95.956 E8.86903
G1 X152.648 Y97.186 E8.92849
G1 X153.085 Y97.827 E8.95709
G1 X153.571 Y98.623 E8.99147
G1 X153.904 Y99.235 E9.01715
G1 X154.539 Y100.754 E9.07787
G1 X154.789 Y101.586 E9.10992
G1 X154.999 Y102.456 E9.14292
G1 X155.112 Y103.033 E9.16460
G1 X155.180 Y103.597 E9.18551
G1 X155.254 Y104.550 E9.22077
G1 X155.272 Y105.303 E9.24855
G1 X155.182 Y106.580 E9.29573
G1 X155.122 Y107.104 E9.31519
G1 X155.004 Y107.716 E9.33818
G1 X154.792 Y108.601 E9.37175
G1 X154.576 Y109.340 E9.40013
G1 X153.972 Y110.818 E9.45897
G1 X153.728 Y111.304 E9.47905
G1 X153.558 Y111.598 E9.49157
G1 X153.068 Y112.398 E9.52614
G1 X152.751 Y112.873 E9.54721
G1 X130.372 Y143.708 E10.95201
G1 X130.077 Y144.087 E10.96969
G1 X129.388 Y144.895 E11.00886
G1 X128.802 Y145.501 E11.03996
G1 X127.571 Y146.544 E11.09943
G1 X126.931 Y146.980 E11.12799
G1 X126.135 Y147.466 E11.16238
G1 X125.523 Y147.799 E11.18807
G1 X124.003 Y148.435 E11.24881
G1 X123.172 Y148.685 E11.28083
G1 X122.301 Y148.894 E11.31383
G1 X121.724 Y149.008 E11.33551
G1 X121.161 Y149.075 E11.35641
G1 X120.208 Y149.149 E11.39167
G1 X119.452 Y149.167 E11.41958
G1 X118.178 Y149.077 E11.46664
G1 X117.601 Y149.009 E11.48807
G1 X117.042 Y148.899 E11.50910
G1 X116.072 Y148.666 E11.54587
G1 X115.418 Y148.471 E11.57104
G1 X114.182 Y147.973 E11.62016
G1 X113.458 Y147.626 E11.64975
G1 X112.360 Y146.964 E11.69704
G1 X111.885 Y146.646 E11.71811
G1 X55.354 Y105.619 E14.29357
G1 X54.976 Y105.324 E14.31123
G1 X54.167 Y104.634 E14.35042
G1 X53.561 Y104.049 E14.38151
G1 X52.519 Y102.820 E14.44091
G1 X52.157 Y102.298 E14.46434
G1 X51.595 Y101.382 E14.50395
G1 X51.263 Y100.771 E14.52960
G1 X51.087 Y100.378 E14.54545
G1 X50.629 Y99.255 E14.59020
G1 X50.432 Y98.631 E14.61430
G1 X50.125 Y97.361 E14.66250
G1 X44.211 Y69.374 E15.71718
G1 X43.990 Y68.061 E15.76629
G1 X43.900 Y66.969 E15.80668
G1 X43.898 Y66.018 E15.84173
G1 X43.982 Y64.866 E15.88432
G1 X44.140 Y63.869 E15.92157
G1 X44.397 Y62.804 E15.96196
G1 X44.711 Y61.844 E15.99921
G1 X45.134 Y60.833 E16.03960
G1 X45.596 Y59.935 E16.07685
G1 X46.824 Y58.243 E16.15391
G1 X47.534 Y57.525 E16.19116
G1 X48.319 Y56.849 E16.22934
G1 X48.539 Y57.049 F6000.000
G1 F1200
G1 X49.354 Y56.452 E16.26659
G1 X50.247 Y55.903 E16.30525
G1 X51.147 Y55.443 E16.34250
G1 X52.116 Y55.042 E16.38115
G1 X53.077 Y54.731 E16.41840
G1 X54.097 Y54.489 E16.45706
G1 X55.400 Y54.294 E16.50566
G1 X83.838 Y51.242 E17.56022
G1 X84.981 Y51.150 E17.60251
G1 X85.763 Y51.135 E17.63132
G1 X86.965 Y51.222 E17.67577
G1 X87.467 Y51.280 E17.69441
G1 X88.056 Y51.393 E17.71652
G1 X88.941 Y51.605 E17.75009
G1 X89.691 Y51.826 E17.77891
G1 X90.872 Y52.305 E17.82587
G1 X91.570 Y52.640 E17.85444
G1 X92.652 Y53.293 E17.90105
G1 X93.108 Y53.597 E17.92126
G1 X149.639 Y94.625 E20.49672
G1 X150.001 Y94.907 E20.51363
G1 X150.807 Y95.595 E20.55270
G1 X151.389 Y96.157 E20.58251
G1 X152.413 Y97.366 E20.64095
G1 X152.833 Y97.981 E20.66840
G1 X153.319 Y98.777 E20.70279
G1 X153.637 Y99.362 E20.72737
G1 X154.262 Y100.856 E20.78706
G1 X154.502 Y101.655 E20.81784
G1 X154.711 Y102.526 E20.85084
G1 X154.820 Y103.081 E20.87169
G1 X154.885 Y103.620 E20.89171
G1 X154.959 Y104.573 E20.92696
G1 X154.976 Y105.294 E20.95355
G1 X154.887 Y106.557 E21.00022
G1 X154.829 Y107.059 E21.01888
G1 X154.716 Y107.647 E21.04096
G1 X154.504 Y108.533 E21.07453
G1 X154.297 Y109.242 E21.10177
G1 X153.703 Y110.696 E21.15968
G1 X153.306 Y111.444 E21.19092
G1 X152.816 Y112.244 E21.22549
G1 X152.512 Y112.700 E21.24570
G1 X130.133 Y143.535 E22.65050
G1 X129.851 Y143.897 E22.66742
G1 X129.163 Y144.703 E22.70648
G1 X128.601 Y145.284 E22.73632
G1 X127.392 Y146.309 E22.79476
G1 X126.777 Y146.728 E22.82218
G1 X125.981 Y147.214 E22.85657
G1 X125.395 Y147.533 E22.88116
G1 X123.901 Y148.157 E22.94088
G1 X123.102 Y148.397 E22.97162
G1 X122.232 Y148.607 E23.00462
G1 X121.677 Y148.716 E23.02547
G1 X121.138 Y148.780 E23.04548
G1 X120.185 Y148.855 E23.08073
G1 X119.461 Y148.871 E23.10744
G1 X118.201 Y148.782 E23.15400
G1 X117.646 Y148.717 E23.17463
G1 X117.110 Y148.612 E23.19475
G1 X116.225 Y148.399 E23.22831
G1 X115.516 Y148.192 E23.25555
G1 X114.295 Y147.700 E23.30410
G1 X113.568 Y147.349 E23.33385
G1 X112.514 Y146.711 E23.37927
G1 X112.058 Y146.407 E23.39948
G1 X55.527 Y105.379 E25.97494
G1 X55.166 Y105.097 E25.99185
G1 X54.359 Y104.410 E26.03093
G1 X53.778 Y103.848 E26.06074
G1 X52.754 Y102.640 E26.11912
G1 X52.407 Y102.141 E26.14155
G1 X51.848 Y101.228 E26.18102
G1 X51.530 Y100.643 E26.20557
G1 X51.361 Y100.266 E26.22080
G1 X50.906 Y99.152 E26.26514
G1 X50.702 Y98.496 E26.29049
G1 X50.415 Y97.299 E26.33586
G1 X44.500 Y69.313 E27.39054
G1 X44.281 Y68.013 E27.43914
G1 X44.196 Y66.968 E27.47780
G1 X44.193 Y66.018 E27.51285
G1 X44.274 Y64.913 E27.55370
G1 X44.432 Y63.915 E27.59095
G1 X44.678 Y62.896 E27.62961
G1 X44.992 Y61.935 E27.66686
G1 X45.396 Y60.968 E27.70552
G1 X45.859 Y60.070 E27.74277
G1 X47.034 Y58.451 E27.81652
G1 X47.744 Y57.733 E27.85377
G1 X48.493 Y57.088 E27.89022
G1 X48.713 Y57.287 F6000.000
G1 F1200
G1 X49.529 Y56.691 E27.92746
G1 X50.382 Y56.166 E27.96439
G1 X51.281 Y55.707 E28.00164
G1 X52.207 Y55.323 E28.03856
G1 X53.168 Y55.012 E28.07581
G1 X54.142 Y54.781 E28.11273
G1 X55.432 Y54.588 E28.16083
G1 X83.870 Y51.536 E29.21538
G1 X85.004 Y51.444 E29.25736
G1 X85.753 Y51.430 E29.28497
G1 X86.942 Y51.517 E29.32892
G1 X87.422 Y51.572 E29.34675
G1 X87.987 Y51.680 E29.36796
G1 X88.873 Y51.892 E29.40152
G1 X89.593 Y52.105 E29.42922
G1 X90.759 Y52.578 E29.47560
G1 X91.427 Y52.899 E29.50294
G1 X92.498 Y53.545 E29.54906
G1 X92.935 Y53.836 E29.56842
G1 X149.466 Y94.864 E32.14388
G1 X149.811 Y95.133 E32.16003
G1 X150.615 Y95.819 E32.19900
G1 X151.172 Y96.357 E32.22754
G1 X152.179 Y97.545 E32.28495
G1 X152.580 Y98.135 E32.31126
G1 X153.067 Y98.931 E32.34565
G1 X153.371 Y99.490 E32.36913
G1 X153.984 Y100.958 E32.42780
G1 X154.215 Y101.725 E32.45729
G1 X154.424 Y102.595 E32.49030
G1 X154.529 Y103.128 E32.51032
G1 X154.590 Y103.643 E32.52944
G1 X154.665 Y104.596 E32.56469
G1 X154.681 Y105.284 E32.59009
G1 X154.592 Y106.533 E32.63626
G1 X154.537 Y107.014 E32.65410
G1 X154.429 Y107.578 E32.67529
G1 X154.217 Y108.464 E32.70885
G1 X154.018 Y109.143 E32.73496
G1 X153.433 Y110.574 E32.79193
G1 X153.053 Y111.290 E32.82182
G1 X152.564 Y112.089 E32.85639
G1 X152.273 Y112.526 E32.87574
G1 X129.894 Y143.361 E34.28054
G1 X129.624 Y143.707 E34.29671
G1 X128.938 Y144.511 E34.33566
G1 X128.400 Y145.068 E34.36422
G1 X127.212 Y146.075 E34.42165
G1 X126.623 Y146.476 E34.44793
G1 X125.827 Y146.962 E34.48231
G1 X125.267 Y147.266 E34.50580
G1 X123.799 Y147.880 E34.56450
G1 X123.033 Y148.110 E34.59396
G1 X122.163 Y148.319 E34.62696
G1 X121.630 Y148.424 E34.64699
G1 X121.115 Y148.485 E34.66610
G1 X120.162 Y148.560 E34.70135
G1 X119.470 Y148.576 E34.72687
G1 X118.224 Y148.488 E34.77292
G1 X117.691 Y148.424 E34.79274
G1 X117.179 Y148.324 E34.81196
G1 X116.294 Y148.112 E34.84552
G1 X115.614 Y147.913 E34.87162
G1 X114.408 Y147.426 E34.91960
G1 X113.711 Y147.090 E34.94812
G1 X112.669 Y146.459 E34.99306
G1 X112.232 Y146.168 E35.01241
G1 X55.701 Y105.140 E37.58787
G1 X55.356 Y104.871 E37.60402
G1 X54.551 Y104.185 E37.64300
G1 X53.995 Y103.647 E37.67153
G1 X52.989 Y102.460 E37.72890
G1 X52.657 Y101.983 E37.75032
G1 X52.100 Y101.073 E37.78965
G1 X51.796 Y100.515 E37.81310
G1 X51.634 Y100.153 E37.82772
G1 X51.184 Y99.050 E37.87165
G1 X50.987 Y98.420 E37.89597
G1 X50.704 Y97.238 E37.94078
G1 X44.790 Y69.252 E38.99547
G1 X44.573 Y67.966 E39.04356
G1 X44.491 Y66.968 E39.08048
G1 X44.489 Y66.017 E39.11553
G1 X44.566 Y64.959 E39.15465
G1 X44.724 Y63.961 E39.19190
G1 X44.959 Y62.988 E39.22882
G1 X45.273 Y62.027 E39.26607
G1 X45.659 Y61.103 E39.30300
G1 X46.122 Y60.205 E39.34024
G1 X47.244 Y58.659 E39.41069
G1 X47.954 Y57.941 E39.44794
G1 X48.668 Y57.326 E39.48265
G1 F4800
G1 X49.529 Y56.691 E38.59323
G1 F4800
G1 X50.382 Y56.166 E37.76072
G1 F4800
G1 X51.228 Y55.734 E36.97061
G1 F4800
G1 X51.228 Y55.734 E36.97055
G1 F4800
G1 X51.281 Y55.707 E36.92097
G1 F4800
G1 X52.207 Y55.323 E36.08852
G1 F4800
G1 X53.111 Y55.031 E35.29841
G1 F4800
G1 X53.111 Y55.031 E35.29836
G1 F4800
G1 X53.168 Y55.012 E35.24878
G1 F4800
G1 X53.216 Y55.001 E35.20765
G1 E34.98265 F4200.00000
G92 E0
G1 X74.398 Y66.922 F6000.000
G1 E4.50000 F4200.00000
G1 F1200
G1 X74.516 Y66.890 E4.50509
G1 X79.676 Y59.782 E4.87027
G1 X80.391 Y58.948 E4.91593
G1 X81.290 Y58.187 E4.96488
G1 X82.216 Y57.623 E5.00998
G1 X83.258 Y57.189 E5.05690
G1 X84.318 Y56.931 E5.10224
G1 X85.449 Y56.832 E5.14946
G1 X86.710 Y56.933 E5.20205
G1 X87.733 Y57.182 E5.24584
G1 X88.767 Y57.607 E5.29232
G1 X89.752 Y58.206 E5.34023
G1 X146.303 Y99.249 E8.24528
G1 X147.161 Y99.983 E8.29222
G1 X147.922 Y100.881 E8.34118
G1 X148.486 Y101.808 E8.38628
G1 X148.920 Y102.850 E8.43320
G1 X149.178 Y103.909 E8.47854
G1 X149.277 Y105.040 E8.52575
G1 X149.195 Y106.181 E8.57330
G1 X148.958 Y107.207 E8.61708
G1 X148.893 Y107.418 E8.62625
G1 X148.448 Y108.459 E8.67333
G1 X147.902 Y109.343 E8.71652
G1 X125.509 Y140.198 E10.30155
G1 X124.775 Y141.056 E10.34850
G1 X123.877 Y141.817 E10.39745
G1 X122.950 Y142.381 E10.44255
G1 X121.908 Y142.815 E10.48948
G1 X120.745 Y143.090 E10.53916
G1 X119.668 Y143.173 E10.58409
G1 X118.493 Y143.078 E10.63310
G1 X117.433 Y142.822 E10.67843
G1 X116.368 Y142.382 E10.72633
G1 X115.470 Y141.835 E10.77007
G1 X58.864 Y100.756 E13.67787
G1 X58.006 Y100.022 E13.72481
G1 X57.245 Y99.123 E13.77376
G1 X56.680 Y98.197 E13.81886
G1 X56.266 Y97.204 E13.86361
G1 X55.971 Y95.992 E13.91546
G1 X55.889 Y94.915 E13.96037
G1 X55.964 Y93.889 E14.00314
G1 X55.991 Y93.703 E14.01094
G1 X56.240 Y92.680 E14.05472
G1 X56.681 Y91.614 E14.10267
G1 X57.254 Y90.676 E14.14837
G1 X62.401 Y83.583 E14.51275
G1 X62.396 Y83.460 E14.51785
G1 X51.656 Y71.188 E15.19585
G1 X50.962 Y70.247 E15.24447
G1 X50.463 Y69.288 E15.28941
G1 X50.094 Y68.197 E15.33729
G1 X49.903 Y67.061 E15.38517
G1 X49.895 Y65.910 E15.43305
G1 X50.086 Y64.702 E15.48387
G1 X50.450 Y63.610 E15.53175
G1 X50.959 Y62.620 E15.57804
G1 X51.039 Y62.510 E15.58369
G1 X51.876 Y61.672 E15.63292
G1 X52.809 Y60.997 E15.68080
G1 X53.837 Y60.478 E15.72868
G1 X54.935 Y60.129 E15.77656
G1 X56.003 Y59.963 E15.82150
G1 X57.154 Y59.964 E15.86938
G1 X58.291 Y60.148 E15.91726
G1 X59.401 Y60.516 E15.96588
G1 X74.343 Y66.899 E16.64139
G1 X74.512 Y67.333 F6000.000
G1 F1200
G1 X74.630 Y67.301 E16.64648
G1 X79.936 Y59.991 E17.02199
G1 X80.625 Y59.186 E17.06607
G1 X81.474 Y58.465 E17.11236
G1 X82.368 Y57.920 E17.15592
G1 X83.366 Y57.505 E17.20086
G1 X84.422 Y57.251 E17.24599
G1 X85.466 Y57.165 E17.28956
G1 X86.639 Y57.259 E17.33848
G1 X87.630 Y57.499 E17.38085
G1 X88.624 Y57.908 E17.42554
G1 X89.559 Y58.478 E17.47108
G1 X146.102 Y99.515 E20.37574
G1 X146.923 Y100.216 E20.42062
G1 X147.644 Y101.065 E20.46691
G1 X148.189 Y101.959 E20.51047
G1 X148.604 Y102.958 E20.55541
G1 X148.865 Y104.058 E20.60241
G1 X148.944 Y105.057 E20.64410
G1 X148.865 Y106.135 E20.68904
G1 X148.635 Y107.129 E20.73143
G1 X148.584 Y107.294 E20.73865
G1 X148.161 Y108.288 E20.78353
G1 X147.631 Y109.150 E20.82562
G1 X125.243 Y139.998 E22.41027
G1 X124.542 Y140.818 E22.45515
G1 X123.693 Y141.539 E22.50144
G1 X122.798 Y142.085 E22.54500
G1 X121.800 Y142.499 E22.58994
G1 X120.700 Y142.760 E22.63694
G1 X119.669 Y142.840 E22.67993
G1 X118.550 Y142.749 E22.72661
G1 X117.537 Y142.505 E22.76994
G1 X116.523 Y142.087 E22.81553
G1 X115.652 Y141.556 E22.85797
G1 X59.064 Y100.489 E25.76483
G1 X58.244 Y99.788 E25.80971
G1 X57.523 Y98.939 E25.85601
G1 X56.977 Y98.045 E25.89956
G1 X56.575 Y97.079 E25.94306
G1 X56.302 Y95.947 E25.99149
G1 X56.222 Y94.916 E26.03447
G1 X56.296 Y93.916 E26.07615
G1 X56.557 Y92.783 E26.12447
G1 X56.976 Y91.769 E26.17008
G1 X57.529 Y90.863 E26.21423
G1 X62.827 Y83.563 E26.58924
G1 X62.822 Y83.441 E26.59434
G1 X51.911 Y70.973 E27.28312
G1 X51.251 Y70.081 E27.32926
G1 X50.764 Y69.146 E27.37310
G1 X50.415 Y68.105 E27.41877
G1 X50.234 Y67.021 E27.46445
G1 X50.228 Y65.922 E27.51013
G1 X50.407 Y64.793 E27.55764
G1 X50.752 Y63.750 E27.60331
G1 X51.244 Y62.795 E27.64799
G1 X52.083 Y61.933 E27.69800
G1 X52.972 Y61.288 E27.74368
G1 X53.952 Y60.791 E27.78935
G1 X54.956 Y60.467 E27.83319
G1 X56.041 Y60.295 E27.87887
G1 X57.139 Y60.298 E27.92455
G1 X58.224 Y60.474 E27.97022
G1 X59.276 Y60.825 E28.01636
G1 X74.457 Y67.310 E28.70265
G1 X74.625 Y67.744 F6000.000
G1 F1200
G1 X74.743 Y67.712 E28.70774
G1 X80.195 Y60.201 E29.09358
G1 X80.859 Y59.424 E29.13607
G1 X81.658 Y58.743 E29.17971
G1 X82.520 Y58.216 E29.22172
G1 X83.459 Y57.826 E29.26398
G1 X84.522 Y57.573 E29.30944
G1 X85.496 Y57.498 E29.35003
G1 X86.559 Y57.583 E29.39438
G1 X87.526 Y57.816 E29.43572
G1 X88.480 Y58.209 E29.47864
G1 X89.366 Y58.750 E29.52178
G1 X145.902 Y99.781 E32.42606
G1 X146.685 Y100.450 E32.46887
G1 X147.365 Y101.249 E32.51251
G1 X147.892 Y102.111 E32.55453
G1 X148.289 Y103.066 E32.59749
G1 X148.534 Y104.103 E32.64179
G1 X148.611 Y105.075 E32.68232
G1 X148.535 Y106.090 E32.72464
G1 X148.311 Y107.050 E32.76564
G1 X147.875 Y108.117 E32.81357
G1 X147.359 Y108.957 E32.85455
G1 X124.977 Y139.797 E34.43882
G1 X124.308 Y140.580 E34.48163
G1 X123.509 Y141.261 E34.52527
G1 X122.646 Y141.788 E34.56729
G1 X121.692 Y142.184 E34.61025
G1 X120.655 Y142.430 E34.65455
G1 X119.671 Y142.506 E34.69560
G1 X118.607 Y142.421 E34.73995
G1 X117.641 Y142.188 E34.78130
G1 X116.679 Y141.791 E34.82457
G1 X115.834 Y141.276 E34.86571
G1 X59.265 Y100.223 E37.77164
G1 X58.482 Y99.554 E37.81444
G1 X57.801 Y98.755 E37.85809
G1 X57.274 Y97.893 E37.90010
G1 X56.884 Y96.954 E37.94236
G1 X56.632 Y95.902 E37.98736
G1 X56.556 Y94.917 E38.02840
G1 X56.629 Y93.943 E38.06901
G1 X56.891 Y92.839 E38.11621
G1 X57.271 Y91.925 E38.15736
G1 X57.805 Y91.051 E38.19995
G1 X63.253 Y83.544 E38.58560
G1 X63.248 Y83.421 E38.59069
G1 X52.166 Y70.759 E39.29025
G1 X51.541 Y69.916 E39.33391
G1 X51.059 Y68.988 E39.37738
G1 X50.735 Y68.012 E39.42011
G1 X50.566 Y66.980 E39.46359
G1 X50.562 Y65.935 E39.50706
G1 X50.728 Y64.885 E39.55126
G1 X51.054 Y63.891 E39.59473
G1 X51.529 Y62.970 E39.63781
G1 X52.291 Y62.195 E39.68301
G1 X53.136 Y61.578 E39.72648
G1 X54.068 Y61.104 E39.76995
G1 X55.063 Y60.784 E39.81343
G1 X56.096 Y60.625 E39.85690
G1 X57.142 Y60.632 E39.90037
