;FLAVOR:Marlin
;TIME:5698
;Filament used: 4.16404m
;Layer height: 0.2
;Generated with Cura_SteamEngine master
M190 S65
M104 S210
M109 S210
G21 ;metric values
G90 ;absolute positioning
M82 ;set extruder to absolute mode
M107 ;start with the fan off
G28 X0 Y0 ;move X/Y to min endstops
G28 Z0 ;move Z to min endstops
G1 Z15.0 F9000 ;move the platform down 15mm
G92 E0 ;zero the extruded length
G1 F200 E3 ;extrude 3mm of feed stock
G92 E0 ;zero the extruded length again
G1 F9000
;Put printing message on LCD screen
M117 Printing...
;LAYER_COUNT:241
;LAYER:0
M107
G0 F3600 X83.369 Y109.192 Z0.3
;TYPE:SKIRT
G1 F1500 X84.115 Y108.715 E0.04418
G1 X84.901 Y108.308 E0.08833
G1 X85.72 Y107.973 E0.13248
G1 X86.566 Y107.713 E0.17664
G1 X87.093 Y107.592 E0.20361
G1 X88.093 Y107.392 E0.25449
G1 X88.968 Y107.258 E0.29865
G1 X90.016 Y107.202 E0.35101
G1 X105.269 Y107.204 E1.11199
G1 X106.154 Y107.244 E1.15619
G1 X107.203 Y107.397 E1.20908
G1 X108.181 Y107.594 E1.25885
G1 X109.04 Y107.808 E1.30301
G1 X109.876 Y108.098 E1.34716
G1 X110.683 Y108.463 E1.39135
G1 X111.453 Y108.899 E1.43549
G1 X112.181 Y109.403 E1.47967
G1 X112.861 Y109.97 E1.52384
G1 X113.486 Y110.596 E1.56797
G1 X113.852 Y111.021 E1.59595
G1 X113.943 Y111.133 E1.60315
G1 X114.47 Y111.845 E1.64735
G1 X114.93 Y112.601 E1.6915
G1 X115.32 Y113.395 E1.73563
G1 X115.637 Y114.222 E1.77982
G1 X115.878 Y115.074 E1.82399
G1 X116.041 Y115.944 E1.86815
G1 X116.125 Y116.825 E1.9123
G1 X116.137 Y117.312 E1.93661
G1 X116.138 Y126.837 E2.41181
G1 X116.098 Y127.721 E2.45596
G1 X115.979 Y128.598 E2.50012
G1 X115.78 Y129.461 E2.5443
G1 X115.505 Y130.302 E2.58844
G1 X115.155 Y131.116 E2.63265
G1 X114.733 Y131.894 E2.67681
G1 X114.243 Y132.631 E2.72096
G1 X113.944 Y133.018 E2.74536
G1 X113.853 Y133.13 E2.75256
G1 X113.264 Y133.791 E2.79673
G1 X112.618 Y134.396 E2.84089
G1 X111.92 Y134.941 E2.88507
G1 X111.176 Y135.42 E2.92921
G1 X110.392 Y135.83 E2.97335
G1 X109.574 Y136.168 E3.01751
G1 X108.728 Y136.431 E3.06171
G1 X108.169 Y136.56 E3.09033
G1 X107.234 Y136.747 E3.1379
G1 X106.359 Y136.881 E3.18206
G1 X105.311 Y136.937 E3.23442
G1 X89.931 Y136.936 E4.00174
G1 X89.047 Y136.896 E4.04588
G1 X87.982 Y136.74 E4.09958
G1 X87.066 Y136.554 E4.14622
G1 X86.207 Y136.339 E4.19039
G1 X85.371 Y136.047 E4.23457
G1 X84.565 Y135.681 E4.27874
G1 X83.796 Y135.244 E4.32286
G1 X83.069 Y134.739 E4.36703
G1 X82.39 Y134.171 E4.41119
G1 X81.766 Y133.543 E4.45536
G1 X81.41 Y133.13 E4.48256
G1 X81.319 Y133.018 E4.48976
G1 X80.792 Y132.306 E4.53395
G1 X80.332 Y131.55 E4.5781
G1 X79.942 Y130.756 E4.62224
G1 X79.625 Y129.929 E4.66642
G1 X79.384 Y129.077 E4.7106
G1 X79.221 Y128.207 E4.75476
G1 X79.137 Y127.326 E4.79891
G1 X79.125 Y126.838 E4.82326
G1 X79.125 Y117.312 E5.29852
G1 X79.165 Y116.428 E5.34267
G1 X79.285 Y115.551 E5.38683
G1 X79.483 Y114.688 E5.431
G1 X79.758 Y113.847 E5.47515
G1 X80.108 Y113.034 E5.51931
G1 X80.53 Y112.255 E5.56351
G1 X81.021 Y111.519 E5.60765
G1 X81.34 Y111.106 E5.63368
G1 X81.43 Y110.996 E5.64077
G1 X82.021 Y110.337 E5.68494
G1 X82.669 Y109.734 E5.7291
G1 X83.369 Y109.192 E5.77326
G0 F3600 X83.643 Y109.488
G1 F1500 X84.377 Y109.026 E5.81653
G1 X85.15 Y108.633 E5.8598
G1 X85.956 Y108.314 E5.90304
G1 X87.172 Y107.985 E5.96589
G1 X88.172 Y107.785 E6.01677
G1 X89.029 Y107.654 E6.06002
G1 X90.016 Y107.602 E6.10933
G1 X105.269 Y107.604 E6.87031
G1 X106.135 Y107.644 E6.91356
G1 X107.124 Y107.789 E6.96343
G1 X108.102 Y107.986 E7.0132
G1 X108.943 Y108.196 E7.05645
G1 X109.761 Y108.483 E7.09969
G1 X110.55 Y108.844 E7.14298
G1 X111.301 Y109.276 E7.18621
G1 X112.01 Y109.776 E7.22949
G1 X112.669 Y110.338 E7.2727
G1 X113.541 Y111.273 E7.33649
G1 X113.632 Y111.385 E7.34368
G1 X114.148 Y112.083 E7.38699
G1 X114.596 Y112.825 E7.43023
G1 X114.975 Y113.605 E7.4735
G1 X115.28 Y114.416 E7.51673
G1 X115.508 Y115.252 E7.55996
G1 X115.659 Y116.106 E7.60322
G1 X115.737 Y117.312 E7.66352
G1 X115.738 Y126.837 E8.13872
G1 X115.698 Y127.703 E8.18197
G1 X115.579 Y128.562 E8.22524
G1 X115.38 Y129.406 E8.2685
G1 X115.105 Y130.228 E8.31174
G1 X114.756 Y131.021 E8.35497
G1 X114.335 Y131.779 E8.39823
G1 X113.633 Y132.766 E8.45865
G1 X113.542 Y132.878 E8.46585
G1 X112.965 Y133.524 E8.50907
G1 X112.331 Y134.115 E8.55231
G1 X111.645 Y134.646 E8.59559
G1 X110.913 Y135.11 E8.63883
G1 X110.141 Y135.505 E8.68209
G1 X109.337 Y135.828 E8.72532
G1 X108.09 Y136.167 E8.78979
G1 X107.155 Y136.354 E8.83736
G1 X106.298 Y136.485 E8.88061
G1 X105.311 Y136.537 E8.92992
G1 X89.931 Y136.536 E9.69723
G1 X89.065 Y136.496 E9.74048
G1 X88.061 Y136.348 E9.79112
G1 X87.145 Y136.162 E9.83775
G1 X86.305 Y135.95 E9.88097
G1 X85.487 Y135.662 E9.92424
G1 X84.699 Y135.3 E9.9675
G1 X83.948 Y134.867 E10.01075
G1 X83.241 Y134.366 E10.05398
G1 X82.582 Y133.803 E10.09722
G1 X81.721 Y132.878 E10.16027
G1 X81.63 Y132.766 E10.16747
G1 X81.114 Y132.068 E10.21077
G1 X80.666 Y131.326 E10.25401
G1 X80.287 Y130.546 E10.29728
G1 X79.982 Y129.735 E10.34051
G1 X79.754 Y128.899 E10.38374
G1 X79.603 Y128.045 E10.42701
G1 X79.525 Y126.838 E10.48735
G1 X79.525 Y117.312 E10.9626
G1 X79.565 Y116.446 E11.00585
G1 X79.685 Y115.587 E11.04913
G1 X79.883 Y114.743 E11.09238
G1 X80.158 Y113.921 E11.13562
G1 X80.508 Y113.128 E11.17887
G1 X80.929 Y112.37 E11.22212
G1 X81.65 Y111.36 E11.28403
G1 X81.74 Y111.25 E11.29113
G1 X82.319 Y110.605 E11.33437
G1 X82.955 Y110.016 E11.37761
G1 X83.643 Y109.488 E11.42088
G0 F3600 X83.917 Y109.785
G1 F1500 X84.638 Y109.338 E11.46321
G1 X85.398 Y108.961 E11.50553
G1 X86.19 Y108.657 E11.54785
G1 X87.25 Y108.377 E11.60255
G1 X88.25 Y108.177 E11.65343
G1 X89.089 Y108.05 E11.69576
G1 X90.016 Y108.002 E11.74208
G1 X105.269 Y108.004 E12.50305
G1 X106.117 Y108.044 E12.5454
G1 X107.045 Y108.181 E12.5922
G1 X108.023 Y108.378 E12.64198
G1 X108.846 Y108.585 E12.68432
G1 X109.646 Y108.868 E12.72665
G1 X110.415 Y109.225 E12.76895
G1 X111.148 Y109.653 E12.8113
G1 X111.836 Y110.148 E12.85358
G1 X112.476 Y110.706 E12.89594
G1 X113.231 Y111.526 E12.95155
G1 X113.322 Y111.638 E12.95875
G1 X113.825 Y112.321 E13.00107
G1 X114.262 Y113.048 E13.04339
G1 X114.628 Y113.813 E13.0857
G1 X114.921 Y114.609 E13.12802
G1 X115.138 Y115.429 E13.17033
G1 X115.276 Y116.266 E13.21266
G1 X115.337 Y117.312 E13.26493
G1 X115.338 Y126.837 E13.74013
G1 X115.298 Y127.684 E13.78244
G1 X115.179 Y128.524 E13.82476
G1 X114.981 Y129.349 E13.86709
G1 X114.706 Y130.152 E13.90944
G1 X114.357 Y130.925 E13.95175
G1 X113.936 Y131.662 E13.9941
G1 X113.323 Y132.513 E14.04642
G1 X113.232 Y132.625 E14.05362
G1 X112.667 Y133.258 E14.09595
G1 X112.044 Y133.834 E14.13828
G1 X111.37 Y134.349 E14.1806
G1 X110.651 Y134.799 E14.22292
G1 X109.892 Y135.179 E14.26527
G1 X109.102 Y135.485 E14.30753
G1 X108.012 Y135.775 E14.36381
G1 X107.077 Y135.962 E14.41138
G1 X106.238 Y136.089 E14.45371
G1 X105.311 Y136.137 E14.50002
G1 X89.931 Y136.136 E15.26733
G1 X89.084 Y136.096 E15.30964
G1 X88.141 Y135.956 E15.3572
G1 X87.225 Y135.77 E15.40383
G1 X86.403 Y135.562 E15.44613
G1 X85.603 Y135.278 E15.48849
G1 X84.834 Y134.92 E15.5308
G1 X84.103 Y134.491 E15.57309
G1 X83.415 Y133.994 E15.61543
G1 X82.776 Y133.436 E15.65776
G1 X82.031 Y132.625 E15.7127
G1 X81.94 Y132.513 E15.7199
G1 X81.437 Y131.83 E15.76222
G1 X81 Y131.103 E15.80454
G1 X80.634 Y130.338 E15.84685
G1 X80.341 Y129.542 E15.88916
G1 X80.124 Y128.722 E15.93148
G1 X79.986 Y127.885 E15.9738
G1 X79.925 Y126.838 E16.02613
G1 X79.925 Y117.312 E16.50138
G1 X79.965 Y116.465 E16.54369
G1 X80.085 Y115.625 E16.58602
G1 X80.283 Y114.8 E16.62835
G1 X80.558 Y113.997 E16.67069
G1 X80.907 Y113.224 E16.71301
G1 X81.327 Y112.488 E16.75528
G1 X81.959 Y111.613 E16.80913
G1 X82.049 Y111.503 E16.81622
G1 X82.617 Y110.872 E16.85858
G1 X83.241 Y110.298 E16.90088
G1 X83.917 Y109.785 E16.94322
G0 F3600 X84.19 Y110.083
G1 F1500 X84.898 Y109.652 E16.98457
G1 X85.644 Y109.29 E17.02594
G1 X86.422 Y109.002 E17.06733
G1 X87.328 Y108.769 E17.114
G1 X88.328 Y108.569 E17.16488
G1 X89.148 Y108.446 E17.20624
G1 X90.016 Y108.402 E17.2496
G1 X105.269 Y108.404 E18.01058
G1 X106.097 Y108.444 E18.05194
G1 X106.966 Y108.573 E18.09577
G1 X107.944 Y108.77 E18.14554
G1 X108.748 Y108.973 E18.18691
G1 X109.529 Y109.252 E18.22829
G1 X110.279 Y109.605 E18.26964
G1 X110.992 Y110.029 E18.31103
G1 X111.661 Y110.52 E18.35243
G1 X112.279 Y111.072 E18.39377
G1 X112.921 Y111.778 E18.44138
G1 X113.012 Y111.89 E18.44858
G1 X113.503 Y112.558 E18.48994
G1 X113.927 Y113.27 E18.53128
G1 X114.282 Y114.02 E18.57268
G1 X114.562 Y114.8 E18.61402
G1 X114.766 Y115.604 E18.65541
G1 X114.891 Y116.424 E18.69679
G1 X114.937 Y117.312 E18.74115
G1 X114.938 Y126.837 E19.21636
G1 X114.898 Y127.665 E19.25771
G1 X114.779 Y128.486 E19.2991
G1 X114.581 Y129.291 E19.34046
G1 X114.306 Y130.074 E19.38186
G1 X113.957 Y130.826 E19.42322
G1 X113.538 Y131.541 E19.46457
G1 X113.013 Y132.261 E19.50902
G1 X112.922 Y132.373 E19.51622
G1 X112.368 Y132.991 E19.55763
G1 X111.758 Y133.552 E19.59898
G1 X111.097 Y134.052 E19.64033
G1 X110.39 Y134.486 E19.68171
G1 X109.645 Y134.85 E19.72308
G1 X108.868 Y135.141 E19.76448
G1 X107.934 Y135.383 E19.81261
G1 X106.999 Y135.57 E19.86018
G1 X106.179 Y135.693 E19.90155
G1 X105.311 Y135.737 E19.94491
G1 X89.931 Y135.736 E20.71222
G1 X89.103 Y135.696 E20.75358
G1 X88.221 Y135.564 E20.79807
G1 X87.305 Y135.378 E20.84471
G1 X86.501 Y135.174 E20.88609
G1 X85.721 Y134.894 E20.92743
G1 X84.971 Y134.539 E20.96883
G1 X84.259 Y134.114 E21.0102
G1 X83.591 Y133.623 E21.05156
G1 X82.973 Y133.069 E21.09297
G1 X82.341 Y132.373 E21.13987
G1 X82.25 Y132.261 E21.14707
G1 X81.759 Y131.593 E21.18843
G1 X81.335 Y130.881 E21.22978
G1 X80.98 Y130.131 E21.27117
G1 X80.7 Y129.351 E21.31252
G1 X80.496 Y128.547 E21.3539
G1 X80.371 Y127.727 E21.39528
G1 X80.325 Y126.838 E21.4397
G1 X80.325 Y117.312 E21.91495
G1 X80.365 Y116.484 E21.95631
G1 X80.485 Y115.663 E21.9977
G1 X80.683 Y114.858 E22.03906
G1 X80.957 Y114.076 E22.0804
G1 X81.306 Y113.323 E22.12181
G1 X81.726 Y112.608 E22.16318
G1 X82.269 Y111.866 E22.20905
G1 X82.359 Y111.756 E22.21614
G1 X82.914 Y111.14 E22.25751
G1 X83.527 Y110.581 E22.2989
G1 X84.19 Y110.083 E22.34026
G0 F3600 X84.462 Y110.382
G1 F1500 X85.156 Y109.967 E22.38061
G1 X85.889 Y109.621 E22.42105
G1 X86.652 Y109.35 E22.46144
G1 X87.407 Y109.161 E22.50027
G1 X88.407 Y108.961 E22.55115
G1 X89.208 Y108.842 E22.59155
G1 X90.016 Y108.802 E22.63191
G1 X105.269 Y108.804 E23.39289
G1 X106.078 Y108.844 E23.4333
G1 X106.887 Y108.965 E23.47411
G1 X107.865 Y109.162 E23.52388
G1 X108.65 Y109.361 E23.56428
G1 X109.412 Y109.637 E23.60471
G1 X110.142 Y109.986 E23.64508
G1 X110.835 Y110.405 E23.68548
G1 X111.483 Y110.891 E23.7259
G1 X112.079 Y111.438 E23.76626
G1 X112.61 Y112.03 E23.80593
G1 X112.701 Y112.142 E23.81313
G1 X113.18 Y112.795 E23.85353
G1 X113.592 Y113.492 E23.89393
G1 X113.934 Y114.226 E23.93433
G1 X114.201 Y114.99 E23.9747
G1 X114.392 Y115.777 E24.01511
G1 X114.504 Y116.579 E24.05551
G1 X114.537 Y117.312 E24.09211
G1 X114.538 Y126.837 E24.56732
G1 X114.498 Y127.646 E24.60773
G1 X114.379 Y128.447 E24.64813
G1 X114.181 Y129.232 E24.68852
G1 X113.906 Y129.994 E24.72894
G1 X113.558 Y130.725 E24.76933
G1 X113.14 Y131.418 E24.8097
G1 X112.702 Y132.009 E24.8464
G1 X112.611 Y132.121 E24.8536
G1 X112.07 Y132.723 E24.89398
G1 X111.472 Y133.269 E24.93438
G1 X110.824 Y133.754 E24.97476
G1 X110.13 Y134.172 E25.01518
G1 X109.399 Y134.52 E25.05557
G1 X108.637 Y134.794 E25.09597
G1 X107.855 Y134.991 E25.13621
G1 X106.92 Y135.178 E25.18378
G1 X106.119 Y135.297 E25.22418
G1 X105.311 Y135.337 E25.26454
G1 X89.931 Y135.336 E26.03185
G1 X89.123 Y135.296 E26.07221
G1 X88.3 Y135.172 E26.11373
G1 X87.384 Y134.986 E26.16037
G1 X86.6 Y134.786 E26.20073
G1 X85.839 Y134.509 E26.24114
G1 X85.109 Y134.159 E26.28153
G1 X84.417 Y133.739 E26.32191
G1 X83.77 Y133.252 E26.36231
G1 X83.174 Y132.704 E26.40271
G1 X82.652 Y132.121 E26.44175
G1 X82.561 Y132.009 E26.44895
G1 X82.082 Y131.356 E26.48935
G1 X81.67 Y130.659 E26.52974
G1 X81.328 Y129.925 E26.57014
G1 X81.061 Y129.161 E26.61052
G1 X80.87 Y128.374 E26.65092
G1 X80.758 Y127.572 E26.69132
G1 X80.725 Y126.838 E26.72798
G1 X80.725 Y117.312 E27.20323
G1 X80.765 Y116.503 E27.24364
G1 X80.885 Y115.702 E27.28405
G1 X81.082 Y114.917 E27.32443
G1 X81.357 Y114.156 E27.3648
G1 X81.705 Y113.425 E27.40519
G1 X82.124 Y112.731 E27.44564
G1 X82.579 Y112.119 E27.48368
G1 X82.669 Y112.009 E27.49077
G1 X83.212 Y111.409 E27.53115
G1 X83.811 Y110.865 E27.57152
G1 X84.462 Y110.382 E27.61196
G0 F3600 X84.733 Y110.683
G1 F1500 X85.414 Y110.283 E27.65136
G1 X86.132 Y109.954 E27.69076
G1 X86.879 Y109.7 E27.73013
G1 X87.485 Y109.553 E27.76124
G1 X88.485 Y109.353 E27.81211
G1 X89.266 Y109.238 E27.8515
G1 X90.016 Y109.202 E27.88896
G1 X105.269 Y109.204 E28.64993
G1 X106.058 Y109.244 E28.68935
G1 X106.808 Y109.358 E28.7272
G1 X107.786 Y109.555 E28.77697
G1 X108.551 Y109.75 E28.81635
G1 X109.293 Y110.021 E28.85576
G1 X110.003 Y110.366 E28.89515
G1 X110.675 Y110.781 E28.93455
G1 X111.302 Y111.261 E28.97395
G1 X111.876 Y111.803 E29.01333
G1 X112.3 Y112.282 E29.04525
G1 X112.391 Y112.394 E29.05245
G1 X112.857 Y113.032 E29.09186
G1 X113.256 Y113.713 E29.13124
G1 X113.585 Y114.431 E29.17064
G1 X113.839 Y115.179 E29.21005
G1 X114.017 Y115.948 E29.24943
G1 X114.115 Y116.732 E29.28885
G1 X114.137 Y117.312 E29.31781
G1 X114.138 Y126.837 E29.79301
G1 X114.098 Y127.626 E29.83243
G1 X113.979 Y128.406 E29.87179
G1 X113.781 Y129.171 E29.91122
G1 X113.507 Y129.912 E29.95063
G1 X113.159 Y130.621 E29.99003
G1 X112.742 Y131.291 E30.02941
G1 X112.392 Y131.757 E30.05848
G1 X112.301 Y131.869 E30.06568
G1 X111.772 Y132.456 E30.1051
G1 X111.187 Y132.986 E30.14449
G1 X110.552 Y133.455 E30.18387
G1 X109.872 Y133.856 E30.22326
G1 X109.155 Y134.188 E30.26268
G1 X108.408 Y134.445 E30.30209
G1 X107.777 Y134.599 E30.33449
G1 X106.842 Y134.786 E30.38206
G1 X106.061 Y134.901 E30.42145
G1 X105.311 Y134.937 E30.45891
G1 X89.931 Y134.936 E31.22622
G1 X89.143 Y134.896 E31.26558
G1 X88.38 Y134.78 E31.30409
G1 X87.464 Y134.594 E31.35072
G1 X86.699 Y134.398 E31.39012
G1 X85.958 Y134.125 E31.42952
G1 X85.248 Y133.779 E31.46892
G1 X84.577 Y133.363 E31.50831
G1 X83.951 Y132.882 E31.5477
G1 X83.377 Y132.339 E31.58712
G1 X82.962 Y131.869 E31.6184
G1 X82.871 Y131.757 E31.6256
G1 X82.405 Y131.119 E31.66501
G1 X82.006 Y130.438 E31.70439
G1 X81.677 Y129.72 E31.74379
G1 X81.423 Y128.972 E31.7832
G1 X81.245 Y128.203 E31.82258
G1 X81.147 Y127.419 E31.862
G1 X81.125 Y126.838 E31.89101
G1 X81.125 Y117.312 E32.36626
G1 X81.165 Y116.523 E32.40568
G1 X81.284 Y115.743 E32.44504
G1 X81.482 Y114.978 E32.48446
G1 X81.756 Y114.238 E32.52383
G1 X82.104 Y113.529 E32.56324
G1 X82.522 Y112.858 E32.60268
G1 X82.888 Y112.373 E32.63299
G1 X82.978 Y112.263 E32.64008
G1 X83.508 Y111.678 E32.67946
G1 X84.095 Y111.149 E32.71889
G1 X84.733 Y110.683 E32.7583
G0 F3600 X85.002 Y110.984
G1 F1500 X85.669 Y110.601 E32.79668
G1 X86.373 Y110.29 E32.83507
G1 X87.104 Y110.053 E32.87341
G1 X87.564 Y109.946 E32.89697
G1 X88.564 Y109.746 E32.94785
G1 X89.325 Y109.634 E32.98623
G1 X90.016 Y109.602 E33.02074
G1 X105.269 Y109.604 E33.78171
G1 X106.037 Y109.644 E33.82008
G1 X106.729 Y109.75 E33.85501
G1 X107.707 Y109.947 E33.90478
G1 X108.452 Y110.138 E33.94315
G1 X109.174 Y110.405 E33.98156
G1 X109.863 Y110.745 E34.01989
G1 X110.514 Y111.156 E34.0583
G1 X111.118 Y111.631 E34.09663
G1 X111.67 Y112.167 E34.13502
G1 X111.989 Y112.535 E34.15932
G1 X112.08 Y112.647 E34.16652
G1 X112.534 Y113.268 E34.20489
G1 X112.92 Y113.933 E34.24326
G1 X113.235 Y114.635 E34.28164
G1 X113.476 Y115.365 E34.32
G1 X113.64 Y116.117 E34.3584
G1 X113.724 Y116.881 E34.39674
G1 X113.737 Y117.312 E34.41825
G1 X113.738 Y126.837 E34.89346
G1 X113.698 Y127.605 E34.93183
G1 X113.579 Y128.365 E34.9702
G1 X113.381 Y129.109 E35.00861
G1 X113.107 Y129.827 E35.04696
G1 X112.76 Y130.514 E35.08535
G1 X112.344 Y131.161 E35.12373
G1 X112.081 Y131.504 E35.14529
G1 X111.99 Y131.616 E35.15249
G1 X111.475 Y132.187 E35.19086
G1 X110.903 Y132.702 E35.22925
G1 X110.281 Y133.154 E35.26761
G1 X109.615 Y133.539 E35.30599
G1 X108.913 Y133.853 E35.34436
G1 X108.182 Y134.093 E35.38275
G1 X107.698 Y134.206 E35.40754
G1 X106.763 Y134.393 E35.45511
