;FLAVOR:Marlin
;TIME:6568
;Filament used: 5.17739m
;Layer height: 0.2
;Generated with Cura_SteamEngine master
M190 S65
M104 S210
M109 S210
G21 ;metric values
G90 ;absolute positioning
M82 ;set extruder to absolute mode
M107 ;start with the fan off
G28 X0 Y0 ;move X/Y to min endstops
G28 Z0 ;move Z to min endstops
G1 Z15.0 F9000 ;move the platform down 15mm
G92 E0 ;zero the extruded length
G1 F200 E3 ;extrude 3mm of feed stock
G92 E0 ;zero the extruded length again
G1 F9000
;Put printing message on LCD screen
M117 Printing...
;LAYER_COUNT:241
;LAYER:-6
M107
G0 F3600 X77.221 Y105.19 Z0.36
G1 F1125 X77.447 Y105.028 E0.03329
G1 X78.495 Y104.338 E0.18353
G1 X78.555 Y104.302 E0.19191
G1 X79.528 Y103.766 E0.32492
G1 X80.474 Y103.33 E0.44965
G1 X81.488 Y102.952 E0.57922
G1 X82.507 Y102.653 E0.70638
G1 X83.366 Y102.48 E0.81129
G1 X83.371 Y102.479 E0.81191
G1 X83.388 Y102.476 E0.81397
G1 X83.919 Y102.369 E0.87883
G1 X84.332 Y102.306 E0.92885
G1 X84.429 Y102.289 E0.94064
G1 X84.488 Y102.282 E0.94776
G1 X84.502 Y102.28 E0.94945
G1 X85.487 Y102.178 E1.06802
G1 X86.165 Y102.156 E1.14925
G1 X86.256 Y102.147 E1.1602
G1 X86.884 Y102.133 E1.23541
G1 X87.556 Y102.121 E1.31589
G1 X87.736 Y102.118 E1.33744
G1 X87.999 Y102.114 E1.36894
G1 X88.154 Y102.122 E1.38752
G1 X88.402 Y102.113 E1.41723
G1 X89.458 Y102.151 E1.54376
G1 X90.517 Y102.267 E1.67132
G1 X91.261 Y102.402 E1.76186
G1 X104.022 Y102.402 E3.28981
G1 X104.591 Y102.289 E3.35927
G1 X104.743 Y102.272 E3.37759
G1 X105.23 Y102.172 E3.43711
G1 X106.302 Y102.029 E3.56661
G1 X107.344 Y101.968 E3.69159
G1 X108.41 Y101.983 E3.81924
G1 X109.994 Y102.148 E4.00993
G1 X111.469 Y102.384 E4.18879
G1 X112.489 Y102.585 E4.31327
G1 X113.547 Y102.875 E4.44462
G1 X114.535 Y103.225 E4.57012
G1 X115.512 Y103.653 E4.69784
G1 X116.655 Y104.27 E4.85336
G1 X116.772 Y104.339 E4.86963
G1 X117.642 Y104.904 E4.99384
G1 X117.642 Y104.905 E4.99396
G1 X117.674 Y104.927 E4.99861
G1 X117.674 Y104.926 E4.99873
G1 X117.819 Y105.028 E5.01995
G1 X118.037 Y105.184 E5.05205
G1 X118.896 Y105.85 E5.1822
G1 X119.68 Y106.555 E5.30844
G1 X120.414 Y107.319 E5.4353
G1 X121.102 Y108.146 E5.56411
G1 X121.723 Y109.02 E5.69248
G1 X122.276 Y109.928 E5.81978
G1 X122.524 Y110.391 E5.88267
G1 X122.624 Y110.588 E5.90912
G1 X123.068 Y111.536 E6.03447
G1 X123.452 Y112.547 E6.16396
G1 X123.75 Y113.548 E6.28901
G1 X123.982 Y114.595 E6.41742
G1 X124.137 Y115.667 E6.54711
G1 X124.221 Y117.173 E6.72771
G1 X124.225 Y118.543 E6.89175
G1 X124.225 Y118.643 E6.90373
G1 X124.222 Y119.394 E6.99365
G1 X124.178 Y120.479 E7.12367
G1 X124.059 Y121.515 E7.24853
G1 X123.979 Y121.941 E7.30043
G1 X123.979 Y122.191 E7.33037
G1 X124.096 Y122.917 E7.41842
G1 X124.185 Y123.937 E7.54101
G1 X124.205 Y124.707 E7.63324
G1 X124.205 Y125.106 E7.68102
G1 X124.223 Y126.212 E7.81346
G1 X124.221 Y126.803 E7.88423
G1 X124.202 Y127.573 E7.97645
G1 X124.138 Y128.626 E8.10277
G1 X123.998 Y129.665 E8.2283
G1 X123.774 Y130.737 E8.35943
G1 X123.483 Y131.747 E8.48528
G1 X123.112 Y132.757 E8.61412
G1 X122.677 Y133.718 E8.74042
G1 X122.17 Y134.648 E8.86725
G1 X121.588 Y135.552 E8.99598
G1 X120.214 Y137.382 E9.26999
G1 X121.79 Y138.767 E9.52121
G1 X122.539 Y139.529 E9.64914
G1 X123.226 Y140.335 E9.77595
G1 X123.846 Y141.185 E9.90192
G1 X124.514 Y142.269 E10.05438
G1 X124.582 Y142.391 E10.07111
G1 X125.092 Y143.385 E10.20488
G1 X125.493 Y144.327 E10.32746
G1 X125.849 Y145.372 E10.45965
G1 X126.112 Y146.381 E10.5845
G1 X126.307 Y147.437 E10.71308
G1 X126.423 Y148.503 E10.84147
G1 X126.462 Y149.546 E10.96645
G1 X126.464 Y153.712 E11.46527
G1 X126.427 Y154.766 E11.59155
G1 X126.308 Y155.839 E11.72081
G1 X126.118 Y156.876 E11.84705
G1 X125.847 Y157.911 E11.97515
G1 X125.498 Y158.938 E12.10503
G1 X125.09 Y159.897 E12.22981
G1 X124.603 Y160.849 E12.35785
G1 X124.044 Y161.765 E12.48634
G1 X123.431 Y162.623 E12.6126
G1 X122.713 Y163.488 E12.7472
G1 X122.231 Y164.623 E12.89485
G1 X121.74 Y165.578 E13.02343
G1 X121.185 Y166.488 E13.15105
G1 X120.563 Y167.358 E13.27911
G1 X119.886 Y168.169 E13.4056
G1 X119.321 Y168.768 E13.5042
G1 X119.227 Y168.862 E13.52012
G1 X118.423 Y169.61 E13.6516
G1 X117.608 Y170.262 E13.77657
G1 X116.726 Y170.869 E13.90477
G1 X115.798 Y171.412 E14.03351
G1 X114.847 Y171.881 E14.16048
G1 X113.861 Y172.278 E14.28775
G1 X112.85 Y172.603 E14.4149
G1 X111.807 Y172.857 E14.54344
G1 X110.743 Y173.033 E14.67257
G1 X109.704 Y173.128 E14.79749
G1 X108.865 Y173.151 E14.89799
G1 X91.129 Y173.151 E17.02164
G1 X90.067 Y173.113 E17.14888
G1 X88.979 Y172.992 E17.27995
G1 X87.957 Y172.804 E17.40438
G1 X86.933 Y172.536 E17.53112
G1 X85.894 Y172.182 E17.66255
G1 X84.935 Y171.775 E17.78729
G1 X83.977 Y171.283 E17.91624
G1 X83.07 Y170.729 E18.04349
G1 X82.2 Y170.107 E18.17155
G1 X81.389 Y169.43 E18.29804
G1 X80.79 Y168.865 E18.39664
G1 X80.693 Y168.768 E18.41306
G1 X79.948 Y167.967 E18.54404
G1 X79.296 Y167.152 E18.66901
G1 X78.689 Y166.27 E18.79721
G1 X78.149 Y165.348 E18.92515
G1 X77.677 Y164.389 E19.05313
G1 X77.321 Y163.508 E19.16691
G1 X77.084 Y163.252 E19.20868
G1 X76.428 Y162.435 E19.33414
G1 X75.811 Y161.538 E19.46449
G1 X75.276 Y160.623 E19.59141
G1 X74.807 Y159.672 E19.71837
G1 X74.41 Y158.686 E19.84564
G1 X74.085 Y157.675 E19.9728
G1 X73.831 Y156.632 E20.10133
G1 X73.654 Y155.563 E20.23107
G1 X73.56 Y154.529 E20.35539
G1 X73.537 Y153.701 E20.45457
G1 X73.537 Y149.553 E20.95124
G1 X73.575 Y148.498 E21.07764
G1 X73.696 Y147.409 E21.20884
G1 X73.884 Y146.389 E21.33302
G1 X74.152 Y145.365 E21.45976
G1 X74.508 Y144.32 E21.59195
G1 X74.908 Y143.379 E21.71438
G1 X75.407 Y142.407 E21.8452
G1 X75.511 Y142.22 E21.87082
G1 X76.048 Y141.343 E21.99396
G1 X76.681 Y140.452 E22.12482
G1 X77.581 Y139.373 E22.29306
G1 X76.15 Y138.141 E22.51916
G1 X75.405 Y137.399 E22.64506
G1 X74.705 Y136.592 E22.77297
G1 X74.064 Y135.733 E22.9013
G1 X73.331 Y134.555 E23.06743
G1 X73.233 Y134.38 E23.09145
G1 X72.755 Y133.45 E23.21665
G1 X72.343 Y132.473 E23.34361
G1 X71.992 Y131.442 E23.47401
G1 X71.967 Y131.34 E23.48659
G1 X71.898 Y131.137 E23.51226
G1 X71.626 Y130.099 E23.64074
G1 X71.437 Y129.063 E23.76684
G1 X71.294 Y127.559 E23.94773
G1 X71.286 Y127.367 E23.97074
G1 X71.272 Y126.694 E24.05134
G1 X71.278 Y125.093 E24.24304
G1 X71.321 Y124.029 E24.37055
G1 X71.334 Y123.915 E24.38429
G1 X71.297 Y123.51 E24.43298
G1 X71.274 Y122.66 E24.53479
G1 X71.275 Y121.682 E24.6519
G1 X71.148 Y120.862 E24.75125
G1 X71.058 Y119.768 E24.88268
G1 X71.044 Y119.143 E24.95754
G1 X71.044 Y117.221 E25.18767
G1 X71.082 Y116.166 E25.31408
G1 X71.203 Y115.077 E25.44527
G1 X71.391 Y114.057 E25.56946
G1 X71.659 Y113.033 E25.6962
G1 X72.015 Y111.988 E25.82839
G1 X72.417 Y111.042 E25.95146
G1 X72.663 Y110.542 E26.01818
G1 X72.741 Y110.389 E26.03874
G1 X73.28 Y109.431 E26.17036
G1 X73.854 Y108.564 E26.29486
G1 X74.51 Y107.715 E26.42333
G1 X75.235 Y106.907 E26.55331
G1 X75.984 Y106.186 E26.67779
G1 X77.221 Y105.19 E26.86795
G0 F3600 X76.8 Y105.528
G1 F1125 X76.8 Y138.7 E30.83985
G0 F3600 X76.921 Y139.428
G0 X76.8 Y140.309
G1 F1125 X76.8 Y162.898 E33.54458
G0 F3600 X75.2 Y160.468
G1 F1125 X75.2 Y142.81 E35.65889
G0 F3600 X76.921 Y139.428
G0 X75.2 Y137.162
G1 F1125 X75.2 Y106.946 E39.27684
G0 F3600 X73.6 Y108.947
G1 F1125 X73.6 Y134.987 E42.39478
G0 F3600 X72 Y131.465
G1 F1125 X72 Y112.032 E44.72162
G0 F3600 X78.4 Y104.4
G1 F1125 X78.4 Y165.776 E52.07057
G0 F3600 X80 Y168.022
G1 F1125 X80 Y103.548 E59.79046
G0 F3600 X81.6 Y102.919
G1 F1125 X81.6 Y169.606 E67.77532
G0 F3600 X83.2 Y170.808
G1 F1125 X83.2 Y102.513 E75.95273
G0 F3600 X84.8 Y102.249
G1 F1125 X84.8 Y171.705 E84.26915
G0 F3600 X86.4 Y172.354
G1 F1125 X86.4 Y102.143 E92.67596
G0 F3600 X88 Y102.115
G1 F1125 X88 Y172.811 E101.14085
G0 F3600 X89.6 Y173.061
G1 F1125 X89.6 Y102.167 E109.62945
G0 F3600 X91.2 Y102.391
G1 F1125 X91.2 Y173.151 E118.10201
G0 F3600 X92.8 Y173.151
G1 F1125 X92.8 Y102.402 E126.57324
G0 F3600 X94.4 Y102.402
G1 F1125 X94.4 Y173.151 E135.04448
G0 F3600 X96 Y173.151
G1 F1125 X96 Y102.402 E143.51572
G0 F3600 X97.6 Y102.402
G1 F1125 X97.6 Y173.151 E151.98695
G0 F3600 X99.2 Y173.151
G1 F1125 X99.2 Y102.402 E160.45819
G0 F3600 X100.8 Y102.402
G1 F1125 X100.8 Y173.151 E168.92943
G0 F3600 X102.4 Y173.151
G1 F1125 X102.4 Y102.402 E177.40066
G0 F3600 X104 Y102.402
G1 F1125 X104 Y173.151 E185.8719
G0 F3600 X105.6 Y173.151
G1 F1125 X105.6 Y102.122 E194.37666
G0 F3600 X107.2 Y101.976
G1 F1125 X107.2 Y173.151 E202.89891
G0 F3600 X108.8 Y173.151
G1 F1125 X108.8 Y102.024 E211.4154
G0 F3600 X110.4 Y102.213
G1 F1125 X110.4 Y173.065 E219.89897
G0 F3600 X112 Y172.81
G1 F1125 X112 Y102.489 E228.31896
G0 F3600 X113.6 Y102.894
G1 F1125 X113.6 Y172.362 E236.63682
G0 F3600 X115.2 Y171.707
G1 F1125 X115.2 Y103.517 E244.80165
G0 F3600 X116.8 Y104.358
G1 F1125 X116.8 Y170.819 E252.75946
G0 F3600 X118.4 Y169.629
G1 F1125 X118.4 Y105.466 E260.44211
G0 F3600 X120 Y106.889
G1 F1125 X120 Y168.033 E267.76328
G0 F3600 X121.6 Y165.808
G1 F1125 X121.6 Y138.601 E271.02095
G0 F3600 X123.2 Y140.305
G1 F1125 X123.2 Y162.902 E273.72663
G0 F3600 X124.8 Y160.464
G1 F1125 X124.8 Y142.816 E275.83974
G0 F3600 X126.4 Y148.292
G1 F1125 X126.4 Y155.01 E276.64413
G0 F3600 X120.853 Y137.316
G0 X121.6 Y135.534
G1 F1125 X121.6 Y108.847 E279.83954
G0 F3600 X123.2 Y111.884
G1 F1125 X123.2 Y132.518 E282.31018
G0 F3600 X73.6 Y148.273
G1 F1125 X73.6 Y154.969 E283.11194
G0 F3600 X76.921 Y139.428
G0 X77.221 Y105.189
;TIME_ELAPSED:132.285950
;LAYER:-5
M140 S65
G0 X77.221 Y105.189 Z0.66
;TYPE:SUPPORT
G1 F1125 X77.046 Y105.33 E283.13436
G1 X126.429 Y154.713 E290.10283
G1 X126.427 Y154.765 E290.10803
G1 X126.308 Y155.838 E290.21575
G1 X126.282 Y155.98 E290.23015
G1 X76.262 Y105.961 E297.28844
G1 X75.983 Y106.185 E297.32415
G1 X75.519 Y106.632 E297.38843
G1 X126.044 Y157.157 E304.51806
G1 X125.847 Y157.91 E304.59572
G1 X125.729 Y158.256 E304.6322
G1 X74.829 Y107.356 E311.81474
G1 X74.509 Y107.714 E311.86265
G1 X74.188 Y108.13 E311.91508
G1 X125.348 Y159.289 E319.13423
G1 X125.09 Y159.896 E319.20005
G1 X124.904 Y160.26 E319.24083
G1 X73.596 Y108.951 E326.48102
G1 X73.28 Y109.43 E326.53827
G1 X73.056 Y109.826 E326.58367
G1 X124.404 Y161.174 E333.82943
G1 X124.044 Y161.764 E333.89839
G1 X123.851 Y162.034 E333.93151
G1 X72.561 Y110.745 E341.16901
G1 X72.417 Y111.041 E341.20186
G1 X72.126 Y111.724 E341.27593
G1 X123.246 Y162.844 E348.48952
G1 X122.712 Y163.487 E348.57292
G1 X122.642 Y163.654 E348.59098
G1 X71.75 Y112.762 E355.7724
G1 X71.658 Y113.031 E355.80076
G1 X71.44 Y113.866 E355.88687
G1 X122.219 Y164.646 E363.05241
G1 X121.739 Y165.577 E363.15692
G0 F3600 X121.739 Y165.579
G1 F1125 X71.207 Y115.048 E370.28746
G1 X71.202 Y115.075 E370.2902
G1 X71.081 Y116.165 E370.39963
G1 X71.075 Y116.33 E370.41611
G1 X121.203 Y166.457 E377.48964
G1 X121.184 Y166.487 E377.49318
G1 X120.615 Y167.284 E377.59089
G1 X71.043 Y117.712 E384.58604
G1 X71.043 Y119.126 E384.72713
G1 X119.976 Y168.06 E391.63217
G1 X119.885 Y168.168 E391.64627
G1 X119.32 Y168.767 E391.72843
G1 X119.295 Y168.792 E391.73195
G1 X71.127 Y120.625 E398.52891
G1 X71.147 Y120.861 E398.55254
G1 X71.274 Y121.681 E398.63534
G1 X71.274 Y122.185 E398.68563
G1 X118.564 Y169.476 E405.35883
G1 X118.423 Y169.609 E405.37817
G1 X117.789 Y170.115 E405.45911
G1 X71.308 Y123.634 E412.01808
G1 X71.333 Y123.914 E412.04613
G1 X71.32 Y124.028 E412.05758
G1 X71.28 Y125.02 E412.15664
G1 X116.963 Y170.704 E418.60307
G1 X116.726 Y170.868 E418.63183
G1 X116.087 Y171.241 E418.70566
G1 X71.272 Y126.427 E425.02947
G1 X71.272 Y126.693 E425.05601
G1 X71.285 Y127.366 E425.12317
G1 X71.294 Y127.558 E425.14235
G1 X71.325 Y127.894 E425.17602
G1 X115.157 Y171.726 E431.36119
G1 X114.846 Y171.88 E431.39582
G1 X114.169 Y172.152 E431.46862
G1 X71.516 Y129.499 E437.48742
G1 X71.626 Y130.098 E437.54819
G1 X71.897 Y131.136 E437.65523
G1 X71.966 Y131.339 E437.67662
G1 X71.974 Y131.371 E437.67991
G1 X113.117 Y172.514 E443.48564
G1 X112.849 Y172.601 E443.51375
G1 X111.997 Y172.809 E443.60126
G1 X72.878 Y133.689 E449.12144
G1 X73.232 Y134.379 E449.19882
G1 X73.331 Y134.553 E449.2188
G1 X74.063 Y135.731 E449.35719
G1 X74.705 Y136.591 E449.46427
G1 X75.405 Y137.398 E449.57087
G1 X76.149 Y138.14 E449.67571
G1 X77.58 Y139.372 E449.86412
G1 X77.382 Y139.608 E449.89486
G1 X110.797 Y173.022 E454.61001
G1 X110.742 Y173.031 E454.61557
G1 X109.704 Y173.127 E454.71958
G1 X109.493 Y173.132 E454.74064
G1 X76.74 Y140.379 E459.36245
G1 X76.681 Y140.451 E459.37173
G1 X76.147 Y141.201 E459.4636
G1 X108.096 Y173.15 E463.97195
G1 X106.682 Y173.15 E464.11304
G1 X75.602 Y142.07 E468.49876
G1 X75.511 Y142.219 E468.51618
G1 X75.406 Y142.406 E468.53758
G1 X75.107 Y142.989 E468.60296
G1 X105.268 Y173.15 E472.859
G1 X103.854 Y173.15 E473.00009
G1 X74.661 Y143.957 E477.11954
G1 X74.507 Y144.319 E477.15879
G1 X74.278 Y144.989 E477.22944
G1 X102.439 Y173.15 E481.20326
G1 X101.025 Y173.15 E481.34435
G1 X73.961 Y146.086 E485.16337
G1 X73.884 Y146.388 E485.19447
G1 X73.722 Y147.262 E485.28317
G1 X99.611 Y173.15 E488.93631
G1 X98.197 Y173.15 E489.0774
G1 X73.573 Y148.527 E492.55204
G1 X73.536 Y149.552 E492.65439
G1 X73.536 Y149.904 E492.68951
G1 X96.783 Y173.15 E495.96984
G1 X95.368 Y173.15 E496.11103
G1 X73.536 Y151.318 E499.19176
G1 X73.536 Y152.732 E499.33285
G1 X93.954 Y173.15 E502.21405
G1 X92.54 Y173.15 E502.35514
G1 X73.549 Y154.159 E505.03498
G1 X73.56 Y154.528 E505.07181
G1 X73.653 Y155.562 E505.1754
G1 X73.676 Y155.7 E505.18936
G1 X91.125 Y173.149 E507.6516
G1 X90.067 Y173.112 E507.75723
G1 X89.624 Y173.062 E507.80172
G1 X74.035 Y157.474 E510.00142
G1 X74.084 Y157.674 E510.02197
G1 X74.409 Y158.685 E510.12793
G1 X74.799 Y159.651 E510.23188
G1 X87.947 Y172.799 E512.0872
G1 X86.933 Y172.535 E512.19175
G1 X85.924 Y172.191 E512.29812
G1 X77.375 Y163.642 E513.50448
G1 X77.677 Y164.388 E513.58478
G1 X78.148 Y165.347 E513.69139
G1 X78.688 Y166.269 E513.79801
G1 X78.91 Y166.592 E513.83711
G1 X82.989 Y170.67 E514.41263
G0 F3600 X121.739 Y165.579
G1 F1125 X121.739 Y165.577 E514.41283
G0 F3600 X126.463 Y153.333
G1 F1125 X126.463 Y151.919 E514.55392
G1 X78.742 Y104.198 E521.28787
G1 X79.528 Y103.765 E521.37741
G1 X79.661 Y103.703 E521.39205
G1 X126.463 Y150.504 E527.99625
G1 X126.462 Y149.545 E528.09194
G1 X126.445 Y149.072 E528.13917
G1 X80.64 Y103.267 E534.60275
G1 X81.487 Y102.951 E534.69295
G1 X81.681 Y102.894 E534.71313
G1 X126.317 Y147.53 E541.01175
G1 X126.306 Y147.436 E541.02119
G1 X126.111 Y146.38 E541.12834
G1 X125.947 Y145.746 E541.19369
G1 X82.795 Y102.594 E547.2829
G1 X83.365 Y102.478 E547.34094
G1 X83.37 Y102.478 E547.34144
G1 X83.387 Y102.475 E547.34316
G1 X83.918 Y102.368 E547.39721
G1 X83.975 Y102.36 E547.40295
G1 X125.16 Y143.544 E553.21453
G1 X125.091 Y143.384 E553.23192
G1 X124.582 Y142.39 E553.34335
G1 X124.514 Y142.268 E553.35728
G1 X123.846 Y141.184 E553.48433
G1 X123.226 Y140.333 E553.58939
G1 X122.539 Y139.528 E553.69499
G1 X121.789 Y138.766 E553.80167
G1 X120.213 Y137.38 E554.01109
G1 X120.298 Y137.269 E554.02504
G1 X85.233 Y102.203 E558.97316
G1 X85.487 Y102.177 E558.99863
G1 X86.165 Y102.155 E559.06632
G1 X86.256 Y102.146 E559.07544
G1 X86.583 Y102.139 E559.10808
G1 X120.905 Y136.461 E563.95128
G1 X121.511 Y135.653 E564.05206
G1 X87.971 Y102.113 E568.78492
G1 X87.999 Y102.113 E568.78771
G1 X88.154 Y102.121 E568.8032
G1 X88.401 Y102.112 E568.82786
G1 X89.422 Y102.15 E568.92981
G1 X122.072 Y134.8 E573.53708
G1 X122.169 Y134.647 E573.55515
G1 X122.58 Y133.894 E573.64075
G1 X91.049 Y102.362 E578.09018
G1 X91.261 Y102.401 E578.11169
G1 X92.502 Y102.401 E578.23552
G1 X123.032 Y132.931 E582.54363
G1 X123.111 Y132.756 E582.56279
G1 X123.423 Y131.908 E582.65295
G1 X93.916 Y102.401 E586.81671
G1 X95.33 Y102.401 E586.9578
G1 X123.75 Y130.821 E590.96817
G1 X123.774 Y130.736 E590.97698
G1 X123.997 Y129.664 E591.08623
G1 X123.998 Y129.655 E591.08714
G1 X96.744 Y102.401 E594.93297
G1 X98.159 Y102.401 E595.07416
G1 X124.152 Y128.395 E598.74212
G1 X124.201 Y127.571 E598.82449
G1 X124.215 Y127.043 E598.87719
G1 X99.573 Y102.401 E602.35444
G1 X100.987 Y102.401 E602.49553
G1 X124.213 Y125.628 E605.77304
G1 X124.204 Y125.105 E605.82524
G1 X124.205 Y124.706 E605.86505
G1 X124.191 Y124.191 E605.91645
