;FLAVOR:Marlin
;TIME:4099
;Filament used: 4.15507m
;Layer height: 0.2
;Generated with Cura_SteamEngine 2.7.0
M190 S65
M104 S210
M109 S210
G21 ;metric values
G90 ;absolute positioning
M82 ;set extruder to absolute mode
M107 ;start with the fan off
G28 X0 Y0 ;move X/Y to min endstops
G28 Z0 ;move Z to min endstops
G1 Z15.0 F9000 ;move the platform down 15mm
G92 E0 ;zero the extruded length
G1 F200 E3 ;extrude 3mm of feed stock
G92 E0 ;zero the extruded length again
G1 F9000
;Put printing message on LCD screen
M117 Printing...
;LAYER_COUNT:83
;LAYER:0
M107
G0 F3600 X72.88 Y131.138 Z0.3
;TYPE:SKIRT
G1 F1500 X121.248 Y103.242 E2.78567
G1 X121.745 Y103.002 E2.8132
G1 X122.27 Y102.837 E2.84066
G1 X122.814 Y102.749 E2.86815
G1 X123.365 Y102.74 E2.89564
G1 X123.911 Y102.812 E2.92312
G1 X124.442 Y102.961 E2.95063
G1 X124.945 Y103.186 E2.97812
G1 X125.41 Y103.481 E3.0056
G1 X125.828 Y103.841 E3.03312
G1 X126.189 Y104.257 E3.0606
G1 X126.486 Y104.72 E3.08804
G1 X126.713 Y105.222 E3.11553
G1 X126.866 Y105.752 E3.14305
G1 X126.94 Y106.298 E3.17054
G1 X126.934 Y106.849 E3.19803
G1 X126.933 Y106.853 E3.19824
G1 X127.043 Y106.916 E3.20456
G1 X127.5 Y107.224 E3.23206
G1 X127.907 Y107.596 E3.25956
G1 X128.256 Y108.022 E3.28704
G1 X128.54 Y108.494 E3.31452
G1 X128.752 Y109.003 E3.34203
G1 X128.889 Y109.536 E3.36949
G1 X128.949 Y110.21 E3.40324
G1 X128.949 Y163.138 E6.04383
G1 X128.909 Y163.688 E6.07135
G1 X128.79 Y164.226 E6.09884
G1 X128.594 Y164.741 E6.12633
G1 X128.326 Y165.222 E6.1538
G1 X127.992 Y165.66 E6.18128
G1 X127.597 Y166.044 E6.20876
G1 X127.34 Y166.242 E6.22495
G1 X127.17 Y166.362 E6.23533
G1 X126.698 Y166.647 E6.26284
G1 X126.19 Y166.86 E6.29032
G1 X125.657 Y166.997 E6.31777
G1 X125.109 Y167.056 E6.34527
G1 X124.558 Y167.035 E6.37278
G1 X124.016 Y166.934 E6.40029
G1 X123.679 Y166.829 E6.4179
G1 X79.926 Y150.904 E8.74084
G1 X79.424 Y150.678 E8.7683
G1 X78.959 Y150.382 E8.7958
G1 X78.542 Y150.023 E8.82326
G1 X78.107 Y149.504 E8.85704
G1 X78.036 Y149.402 E8.86324
G1 X77.755 Y148.928 E8.89073
G1 X77.545 Y148.419 E8.9182
G1 X77.412 Y147.884 E8.94571
G1 X77.355 Y147.231 E8.97841
G1 X77.355 Y142.797 E9.19962
G1 X77.021 Y142.81 E9.2163
G1 X76.473 Y142.75 E9.2438
G1 X75.94 Y142.612 E9.27127
G1 X75.432 Y142.399 E9.29875
G1 X74.96 Y142.114 E9.32626
G1 X74.535 Y141.764 E9.35373
G1 X74.164 Y141.356 E9.38124
G1 X73.864 Y140.912 E9.40797
G1 X71.402 Y136.649 E9.65358
G1 X71.162 Y136.154 E9.68102
G1 X70.996 Y135.628 E9.70854
G1 X70.908 Y135.084 E9.73603
G1 X70.899 Y134.533 E9.76353
G1 X71.024 Y133.76 E9.80259
G1 X71.11 Y133.441 E9.81907
G1 X71.292 Y132.921 E9.84656
G1 X71.547 Y132.432 E9.87407
G1 X71.869 Y131.986 E9.90152
G1 X72.254 Y131.591 E9.92904
G1 X72.88 Y131.138 E9.96759
G0 F3600 X73.08 Y131.485
G1 F1500 X121.448 Y103.589 E12.75325
G1 X121.918 Y103.364 E12.77925
G1 X122.417 Y103.213 E12.80526
G1 X122.933 Y103.141 E12.83125
G1 X123.455 Y103.148 E12.8573
G1 X123.968 Y103.235 E12.88326
G1 X124.463 Y103.399 E12.90927
G1 X124.927 Y103.637 E12.93529
G1 X125.349 Y103.943 E12.9613
G1 X125.719 Y104.31 E12.9873
G1 X126.028 Y104.729 E13.01327
G1 X126.27 Y105.191 E13.03929
G1 X126.439 Y105.684 E13.06529
G1 X126.53 Y106.197 E13.09128
G1 X126.542 Y106.718 E13.11728
G1 X126.495 Y107.074 E13.1352
G1 X126.644 Y107.148 E13.1435
G1 X126.844 Y107.263 E13.15501
G1 X127.274 Y107.556 E13.18097
G1 X127.655 Y107.912 E13.20698
G1 X127.977 Y108.322 E13.23299
G1 X128.232 Y108.776 E13.25897
G1 X128.415 Y109.264 E13.28497
G1 X128.521 Y109.775 E13.31101
G1 X128.549 Y110.21 E13.33276
G1 X128.549 Y163.138 E15.97335
G1 X128.509 Y163.658 E15.99936
G1 X128.39 Y164.165 E16.02535
G1 X128.195 Y164.648 E16.05133
G1 X127.929 Y165.096 E16.07733
G1 X127.597 Y165.498 E16.10334
G1 X127.11 Y165.916 E16.13536
G1 X126.94 Y166.036 E16.14574
G1 X126.492 Y166.303 E16.17176
G1 X126.009 Y166.498 E16.19774
G1 X125.502 Y166.618 E16.22374
G1 X124.982 Y166.658 E16.24976
G1 X124.463 Y166.619 E16.27572
G1 X123.816 Y166.453 E16.30905
G1 X80.063 Y150.528 E18.63199
G1 X79.588 Y150.313 E18.658
G1 X79.152 Y150.027 E18.68401
G1 X78.765 Y149.679 E18.70998
G1 X78.435 Y149.275 E18.73601
G1 X78.364 Y149.173 E18.74221
G1 X78.1 Y148.724 E18.76819
G1 X77.908 Y148.24 E18.79417
G1 X77.792 Y147.732 E18.82017
G1 X77.755 Y147.231 E18.84523
G1 X77.755 Y142.358 E19.08834
G1 X77.246 Y142.411 E19.11387
G1 X76.726 Y142.385 E19.13985
G1 X76.215 Y142.28 E19.16588
G1 X75.727 Y142.098 E19.19186
G1 X75.272 Y141.843 E19.21788
G1 X74.862 Y141.522 E19.24386
G1 X74.505 Y141.142 E19.26987
G1 X74.211 Y140.712 E19.29586
G1 X71.749 Y136.449 E19.54146
G1 X71.523 Y135.979 E19.56748
G1 X71.373 Y135.481 E19.59343
G1 X71.3 Y134.965 E19.61943
G1 X71.307 Y134.443 E19.64548
G1 X71.41 Y133.864 E19.67482
G1 X71.496 Y133.545 E19.6913
G1 X71.67 Y133.054 E19.71729
G1 X71.917 Y132.595 E19.74329
G1 X72.231 Y132.179 E19.76929
G1 X72.605 Y131.816 E19.7953
G1 X73.08 Y131.485 E19.82418
G0 F3600 X73.28 Y131.831
G1 F1500 X121.648 Y103.935 E22.60985
G1 X122.091 Y103.726 E22.63428
G1 X122.561 Y103.592 E22.65867
G1 X123.048 Y103.536 E22.68312
G1 X123.537 Y103.559 E22.70755
G1 X124.015 Y103.662 E22.73194
G1 X124.471 Y103.842 E22.7564
G1 X124.891 Y104.093 E22.78081
G1 X125.265 Y104.409 E22.80524
G1 X125.582 Y104.782 E22.82966
G1 X125.834 Y105.201 E22.85405
G1 X126.016 Y105.656 E22.8785
G1 X126.12 Y106.134 E22.90291
G1 X126.146 Y106.623 E22.92734
G1 X126.091 Y107.109 E22.95174
G1 X126.033 Y107.317 E22.96251
G1 X126.444 Y107.494 E22.98484
G1 X126.644 Y107.609 E22.99635
G1 X127.047 Y107.887 E23.02077
G1 X127.4 Y108.227 E23.04523
G1 X127.692 Y108.619 E23.06961
G1 X127.917 Y109.054 E23.09405
G1 X128.068 Y109.52 E23.11848
G1 X128.149 Y110.21 E23.15314
G1 X128.149 Y163.138 E25.79373
G1 X128.109 Y163.626 E25.81816
G1 X127.99 Y164.101 E25.84259
G1 X127.796 Y164.55 E25.86699
G1 X127.531 Y164.962 E25.89143
G1 X127.203 Y165.325 E25.91584
G1 X126.879 Y165.589 E25.93669
G1 X126.709 Y165.709 E25.94707
G1 X126.287 Y165.958 E25.97152
G1 X125.831 Y166.134 E25.99591
G1 X125.352 Y166.235 E26.02033
G1 X124.863 Y166.256 E26.04475
G1 X124.377 Y166.197 E26.06917
G1 X123.953 Y166.077 E26.09116
G1 X80.2 Y150.152 E28.4141
G1 X79.755 Y149.948 E28.43852
G1 X79.35 Y149.674 E28.46291
G1 X78.994 Y149.337 E28.48737
G1 X78.764 Y149.047 E28.50584
G1 X78.693 Y148.945 E28.51204
G1 X78.447 Y148.522 E28.53645
G1 X78.273 Y148.064 E28.56089
G1 X78.176 Y147.584 E28.58532
G1 X78.155 Y147.231 E28.60297
G1 X78.155 Y141.83 E28.87242
G1 X77.91 Y141.915 E28.88536
G1 X77.428 Y142 E28.90978
G1 X76.938 Y142.004 E28.93423
G1 X76.455 Y141.929 E28.95861
G1 X75.989 Y141.776 E28.98308
G1 X75.555 Y141.55 E29.00749
G1 X75.164 Y141.256 E29.0319
G1 X74.826 Y140.902 E29.05632
G1 X74.557 Y140.512 E29.07996
G1 X72.095 Y136.249 E29.32556
G1 X71.886 Y135.807 E29.34995
G1 X71.751 Y135.336 E29.3744
G1 X71.695 Y134.85 E29.3988
G1 X71.718 Y134.361 E29.42323
G1 X71.796 Y133.968 E29.44322
G1 X71.882 Y133.649 E29.4597
G1 X72.048 Y133.188 E29.48414
G1 X72.286 Y132.761 E29.50853
G1 X72.591 Y132.378 E29.53296
G1 X72.954 Y132.049 E29.5574
G1 X73.28 Y131.831 E29.57697
G0 F3600 X73.48 Y132.178
G1 F1500 X121.848 Y104.282 E32.36263
G1 X122.261 Y104.09 E32.38535
G1 X122.701 Y103.972 E32.40808
G1 X123.155 Y103.934 E32.43081
G1 X123.609 Y103.975 E32.45355
G1 X124.049 Y104.095 E32.47631
G1 X124.461 Y104.29 E32.49905
G1 X124.832 Y104.554 E32.52176
G1 X125.152 Y104.879 E32.54452
G1 X125.41 Y105.254 E32.56723
G1 X125.599 Y105.669 E32.58998
G1 X125.712 Y106.11 E32.61269
G1 X125.747 Y106.564 E32.63541
G1 X125.702 Y107.018 E32.65817
G1 X125.578 Y107.456 E32.68088
G1 X125.524 Y107.567 E32.68704
G1 X125.85 Y107.656 E32.7039
G1 X126.245 Y107.841 E32.72566
G1 X126.445 Y107.956 E32.73717
G1 X126.819 Y108.217 E32.75992
G1 X127.141 Y108.539 E32.78264
G1 X127.402 Y108.912 E32.80535
G1 X127.594 Y109.326 E32.82812
G1 X127.711 Y109.766 E32.85084
G1 X127.749 Y110.21 E32.87307
G1 X127.749 Y163.138 E35.51366
G1 X127.709 Y163.592 E35.53639
G1 X127.591 Y164.032 E35.55912
G1 X127.397 Y164.444 E35.58184
G1 X127.134 Y164.817 E35.60461
G1 X126.648 Y165.262 E35.63749
G1 X126.478 Y165.382 E35.64787
G1 X126.085 Y165.611 E35.67056
G1 X125.657 Y165.768 E35.6933
G1 X125.208 Y165.848 E35.71606
G1 X124.753 Y165.848 E35.73876
G1 X124.09 Y165.701 E35.77264
G1 X80.337 Y149.776 E38.09558
G1 X79.924 Y149.583 E38.11832
G1 X79.551 Y149.322 E38.14103
G1 X79.092 Y148.818 E38.17504
G1 X79.021 Y148.716 E38.18124
G1 X78.795 Y148.321 E38.20395
G1 X78.64 Y147.892 E38.22671
G1 X78.555 Y147.231 E38.25995
G1 X78.555 Y141.191 E38.56129
G1 X78.42 Y141.283 E38.56944
G1 X78.005 Y141.469 E38.59213
G1 X77.562 Y141.58 E38.61491
G1 X77.108 Y141.612 E38.63762
G1 X76.655 Y141.563 E38.66035
G1 X76.217 Y141.437 E38.68309
G1 X75.808 Y141.236 E38.70583
G1 X75.441 Y140.967 E38.72853
G1 X75.126 Y140.637 E38.75129
G1 X74.904 Y140.312 E38.77093
G1 X72.442 Y136.049 E39.01653
G1 X72.249 Y135.636 E39.03927
G1 X72.132 Y135.196 E39.06199
G1 X72.093 Y134.742 E39.08472
G1 X72.183 Y134.072 E39.11845
G1 X72.269 Y133.753 E39.13493
G1 X72.425 Y133.325 E39.15766
G1 X72.654 Y132.931 E39.18039
G1 X72.949 Y132.584 E39.20311
G1 X73.48 Y132.178 E39.23646
G0 F3600 X73.68 Y132.524
G1 F1500 X122.048 Y104.628 E42.02213
G1 X122.429 Y104.454 E42.04302
G1 X122.836 Y104.356 E42.06391
G1 X123.255 Y104.337 E42.08484
G1 X123.67 Y104.397 E42.10576
G1 X124.065 Y104.535 E42.12663
G1 X124.428 Y104.745 E42.14755
G1 X124.744 Y105.021 E42.16848
G1 X125.002 Y105.351 E42.18938
G1 X125.192 Y105.724 E42.21027
G1 X125.309 Y106.127 E42.2312
G1 X125.347 Y106.544 E42.25209
G1 X125.305 Y106.961 E42.273
G1 X125.185 Y107.362 E42.29389
G1 X124.991 Y107.734 E42.31482
G1 X124.853 Y107.907 E42.32586
G1 X125.056 Y107.898 E42.336
G1 X125.471 Y107.958 E42.35691
G1 X126.046 Y108.188 E42.38781
G1 X126.246 Y108.303 E42.39932
G1 X126.587 Y108.545 E42.42018
G1 X126.877 Y108.848 E42.44111
G1 X127.104 Y109.201 E42.46205
G1 X127.26 Y109.59 E42.48296
G1 X127.349 Y110.21 E42.5142
G1 X127.349 Y163.138 E45.15479
G1 X127.309 Y163.555 E45.17569
G1 X127.191 Y163.957 E45.1966
G1 X126.998 Y164.329 E45.2175
G1 X126.739 Y164.658 E45.23839
G1 X126.418 Y164.935 E45.25955
G1 X126.248 Y165.055 E45.26993
G1 X125.884 Y165.263 E45.29084
G1 X125.487 Y165.398 E45.31176
G1 X125.072 Y165.456 E45.33267
G1 X124.654 Y165.434 E45.35355
G1 X124.227 Y165.325 E45.37554
G1 X80.474 Y149.4 E47.69848
G1 X80.095 Y149.22 E47.71941
G1 X79.758 Y148.972 E47.74029
G1 X79.42 Y148.59 E47.76573
G1 X79.349 Y148.488 E47.77193
G1 X79.144 Y148.123 E47.79282
G1 X79.011 Y147.725 E47.81375
G1 X78.955 Y147.231 E47.83856
G1 X78.955 Y140.268 E48.18594
G1 X78.73 Y140.548 E48.20386
G1 X78.41 Y140.819 E48.22478
G1 X78.045 Y141.024 E48.24567
G1 X77.647 Y141.156 E48.26659
G1 X77.232 Y141.211 E48.28748
G1 X76.814 Y141.185 E48.30837
G1 X76.408 Y141.081 E48.32928
G1 X76.029 Y140.902 E48.35019
G1 X75.691 Y140.654 E48.37111
G1 X75.406 Y140.347 E48.392
G1 X75.25 Y140.112 E48.40608
G1 X72.788 Y135.849 E48.65168
G1 X72.614 Y135.468 E48.67258
G1 X72.515 Y135.061 E48.69347
G1 X72.496 Y134.642 E48.7144
G1 X72.569 Y134.176 E48.73793
G1 X72.655 Y133.857 E48.75441
G1 X72.802 Y133.465 E48.7753
G1 X73.021 Y133.108 E48.7962
G1 X73.303 Y132.798 E48.8171
G1 X73.68 Y132.524 E48.84036
G0 F3600 X73.88 Y132.871
G1 F1500 X122.248 Y104.975 E51.62602
G1 X122.594 Y104.821 E51.64492
G1 X122.965 Y104.743 E51.66383
G1 X123.344 Y104.745 E51.68274
G1 X123.714 Y104.826 E51.70164
G1 X124.059 Y104.982 E51.72053
G1 X124.364 Y105.208 E51.73946
G1 X124.615 Y105.492 E51.75837
G1 X124.8 Y105.822 E51.77725
G1 X124.913 Y106.184 E51.79617
G1 X124.947 Y106.561 E51.81505
G1 X124.901 Y106.938 E51.834
G1 X124.778 Y107.296 E51.85289
G1 X124.582 Y107.62 E51.87178
G1 X124.323 Y107.897 E51.8907
G1 X124.047 Y108.093 E51.90759
G1 X79.981 Y133.537 E54.44621
G1 X79.503 Y133.987 E54.47897
G1 X79.171 Y134.53 E54.51072
G1 X78.993 Y135.142 E54.54252
G1 X78.955 Y139.029 E54.73645
G1 X78.911 Y139.406 E54.75538
G1 X78.79 Y139.765 E54.77429
G1 X78.596 Y140.09 E54.79317
G1 X78.338 Y140.368 E54.81209
G1 X78.028 Y140.586 E54.831
G1 X77.679 Y140.734 E54.84991
G1 X77.307 Y140.806 E54.86881
G1 X76.928 Y140.798 E54.88773
G1 X76.56 Y140.711 E54.90659
G1 X76.217 Y140.548 E54.92554
G1 X75.916 Y140.318 E54.94444
G1 X75.596 Y139.912 E54.97023
G1 X73.134 Y135.649 E55.21583
G1 X72.98 Y135.303 E55.23473
G1 X72.902 Y134.932 E55.25364
G1 X72.904 Y134.553 E55.27255
G1 X72.955 Y134.28 E55.2864
G1 X73.041 Y133.961 E55.30289
G1 X73.178 Y133.608 E55.32178
G1 X73.385 Y133.291 E55.34067
G1 X73.655 Y133.024 E55.35961
G1 X73.88 Y132.871 E55.37319
G0 F3600 X74.08 Y133.217
G1 F1500 X122.448 Y105.321 E58.15885
G1 X122.755 Y105.19 E58.1755
G1 X123.084 Y105.135 E58.19215
G1 X123.417 Y105.16 E58.20881
G1 X123.735 Y105.264 E58.2255
G1 X124.019 Y105.439 E58.24214
G1 X124.254 Y105.677 E58.25883
G1 X124.426 Y105.964 E58.27552
G1 X124.524 Y106.283 E58.29217
G1 X124.545 Y106.616 E58.30882
G1 X124.485 Y106.945 E58.3255
G1 X124.35 Y107.25 E58.34214
G1 X124.146 Y107.515 E58.35883
G1 X123.847 Y107.746 E58.37768
G1 X79.743 Y133.212 E60.91849
G1 X79.189 Y133.734 E60.95647
G1 X78.801 Y134.367 E60.99351
G1 X78.593 Y135.083 E61.03071
G1 X78.555 Y139.026 E61.22743
G1 X78.512 Y139.357 E61.24409
G1 X78.392 Y139.668 E61.26072
G1 X78.201 Y139.943 E61.27742
G1 X77.951 Y140.164 E61.29407
G1 X77.655 Y140.32 E61.31076
G1 X77.331 Y140.401 E61.32742
G1 X76.997 Y140.403 E61.34409
G1 X76.672 Y140.326 E61.36075
G1 X76.374 Y140.174 E61.37744
G1 X76.121 Y139.956 E61.3941
G1 X75.943 Y139.712 E61.40917
G1 X73.481 Y135.449 E61.65477
G1 X73.349 Y135.142 E61.67144
G1 X73.294 Y134.812 E61.68814
G1 X73.341 Y134.385 E61.70957
G1 X73.427 Y134.066 E61.72605
G1 X73.552 Y133.756 E61.74273
G1 X73.747 Y133.484 E61.75942
G1 X74.08 Y133.217 E61.78072
G0 F3600 X74.279 Y133.564
G1 F1500 X122.647 Y105.668 E64.56638
G1 X122.909 Y105.563 E64.58047
G1 X123.19 Y105.535 E64.59455
G1 X123.467 Y105.587 E64.60861
G1 X123.719 Y105.714 E64.62269
G1 X123.925 Y105.906 E64.63674
G1 X124.07 Y106.149 E64.65086
G1 X124.141 Y106.422 E64.66493
G1 X124.132 Y106.704 E64.67901
G1 X124.046 Y106.972 E64.69305
G1 X123.888 Y107.206 E64.70714
G1 X123.647 Y107.4 E64.72257
G1 X79.503 Y132.889 E67.26569
G1 X78.876 Y133.48 E67.30868
G1 X78.432 Y134.204 E67.35105
G1 X78.194 Y135.024 E67.39365
G1 X78.155 Y139.022 E67.59312
G1 X78.112 Y139.301 E67.6072
G1 X77.994 Y139.557 E67.62127
G1 X77.808 Y139.769 E67.63534
G1 X77.571 Y139.921 E67.64938
G1 X77.3 Y140.001 E67.66348
G1 X77.018 Y140.003 E67.67755
G1 X76.747 Y139.925 E67.69162
G1 X76.508 Y139.775 E67.7057
G1 X76.289 Y139.512 E67.72277
G1 X73.827 Y135.249 E67.96838
G1 X73.722 Y134.987 E67.98246
G1 X73.694 Y134.707 E67.9965
G1 X73.727 Y134.489 E68.0075
G1 X73.813 Y134.17 E68.02398
G1 X73.925 Y133.91 E68.0381
G1 X74.104 Y133.692 E68.05218
G1 X74.279 Y133.564 E68.06299
G0 F3600 X74.479 Y133.91
G1 F1500 X122.847 Y106.014 E70.84866
G1 X123.053 Y105.941 E70.85956
G1 X123.271 Y105.947 E70.87044
G1 X123.473 Y106.03 E70.88134
G1 X123.631 Y106.18 E70.89221
G1 X123.726 Y106.376 E70.90307
G1 X123.744 Y106.594 E70.91399
G1 X123.683 Y106.803 E70.92485
G1 X123.551 Y106.977 E70.93574
G1 X123.447 Y107.054 E70.9422
G1 X79.26 Y132.568 E73.4878
G1 X78.563 Y133.224 E73.53555
G1 X78.064 Y134.04 E73.58327
G1 X77.794 Y134.966 E73.6314
G1 X77.755 Y139.018 E73.83356
G1 X77.713 Y139.232 E73.84444
G1 X77.598 Y139.417 E73.85531
G1 X77.424 Y139.549 E73.8662
G1 X77.214 Y139.609 E73.8771
G1 X76.997 Y139.591 E73.88796
G1 X76.8 Y139.496 E73.89887
G1 X76.635 Y139.312 E73.9112
G1 X74.173 Y135.049 E74.15681
G1 X74.1 Y134.843 E74.16771
G1 X74.114 Y134.593 E74.1802
G1 X74.2 Y134.274 E74.19669
G1 X74.294 Y134.077 E74.20758
