;FLAVOR:Marlin
;TIME:4086
;Filament used: 4.1621m
;Layer height: 0.2
;Generated with Cura_SteamEngine master
M190 S65
M104 S210
M109 S210
G21 ;metric values
G90 ;absolute positioning
M82 ;set extruder to absolute mode
M107 ;start with the fan off
G28 X0 Y0 ;move X/Y to min endstops
G28 Z0 ;move Z to min endstops
G1 Z15.0 F9000 ;move the platform down 15mm
G92 E0 ;zero the extruded length
G1 F200 E3 ;extrude 3mm of feed stock
G92 E0 ;zero the extruded length again
G1 F9000
;Put printing message on LCD screen
M117 Printing...
;LAYER_COUNT:83
;LAYER:0
M107
G0 F3600 X79.314 Y119.383 Z0.3
G0 X79.926 Y119.096
;TYPE:SKIRT
G1 F1500 X123.679 Y103.171 E2.32294
G1 X124.209 Y103.021 E2.35042
G1 X124.756 Y102.949 E2.37795
G1 X125.307 Y102.956 E2.40544
G1 X125.851 Y103.043 E2.43292
G1 X126.376 Y103.208 E2.46038
G1 X126.873 Y103.447 E2.48789
G1 X127.17 Y103.638 E2.50551
G1 X127.34 Y103.758 E2.51589
G1 X127.766 Y104.107 E2.54336
G1 X128.137 Y104.515 E2.57088
G1 X128.445 Y104.971 E2.59833
G1 X128.684 Y105.468 E2.62584
G1 X128.849 Y105.994 E2.65335
G1 X128.935 Y106.538 E2.68082
G1 X128.949 Y106.862 E2.697
G1 X128.949 Y159.79 E5.33759
G1 X128.909 Y160.34 E5.3651
G1 X128.79 Y160.878 E5.39259
G1 X128.594 Y161.393 E5.42009
G1 X128.326 Y161.874 E5.44756
G1 X127.992 Y162.312 E5.47504
G1 X127.597 Y162.696 E5.50252
G1 X127.043 Y163.084 E5.53626
G1 X126.928 Y163.15 E5.54288
G1 X126.948 Y163.342 E5.55251
G1 X126.925 Y163.893 E5.58002
G1 X126.823 Y164.434 E5.60749
G1 X126.643 Y164.955 E5.63499
G1 X126.39 Y165.445 E5.6625
G1 X126.069 Y165.893 E5.69
G1 X125.687 Y166.289 E5.71745
G1 X125.251 Y166.626 E5.74494
G1 X124.771 Y166.897 E5.77244
G1 X124.257 Y167.095 E5.79992
G1 X123.72 Y167.217 E5.8274
G1 X123.17 Y167.26 E5.85492
G1 X122.621 Y167.223 E5.88237
G1 X122.082 Y167.107 E5.90988
G1 X121.566 Y166.914 E5.93736
G1 X121.252 Y166.752 E5.95499
G1 X72.881 Y138.862 E8.74064
G1 X72.425 Y138.553 E8.76812
G1 X72.018 Y138.181 E8.79563
G1 X71.67 Y137.754 E8.82311
G1 X71.386 Y137.282 E8.85059
G1 X71.11 Y136.559 E8.8892
G1 X71.024 Y136.24 E8.90568
G1 X70.92 Y135.699 E8.93317
G1 X70.894 Y135.149 E8.96064
G1 X70.949 Y134.6 E8.98816
G1 X71.083 Y134.066 E9.01563
G1 X71.402 Y133.351 E9.05469
G1 X73.864 Y129.088 E9.3003
G1 X74.174 Y128.632 E9.3278
G1 X74.546 Y128.225 E9.35531
G1 X74.973 Y127.877 E9.3828
G1 X75.446 Y127.594 E9.41029
G1 X75.954 Y127.383 E9.43774
G1 X76.489 Y127.247 E9.46528
G1 X77.037 Y127.19 E9.49277
G1 X77.355 Y127.203 E9.50864
G1 X77.355 Y122.769 E9.72986
G1 X77.395 Y122.219 E9.75737
G1 X77.514 Y121.681 E9.78486
G1 X77.71 Y121.166 E9.81235
G1 X78.036 Y120.598 E9.84502
G1 X78.107 Y120.496 E9.85122
G1 X78.454 Y120.068 E9.87871
G1 X78.859 Y119.694 E9.90622
G1 X79.314 Y119.383 E9.93371
G1 X79.926 Y119.096 E9.96744
G0 F3600 X80.063 Y119.472
G1 F1500 X123.816 Y103.547 E12.29038
G1 X124.318 Y103.407 E12.31638
G1 X124.836 Y103.345 E12.3424
G1 X125.356 Y103.363 E12.36836
G1 X125.868 Y103.46 E12.39436
G1 X126.359 Y103.635 E12.42037
G1 X126.94 Y103.964 E12.45368
G1 X127.11 Y104.084 E12.46406
G1 X127.511 Y104.417 E12.49006
G1 X127.857 Y104.806 E12.51604
G1 X128.14 Y105.244 E12.54205
G1 X128.352 Y105.72 E12.56805
G1 X128.488 Y106.223 E12.59405
G1 X128.549 Y106.862 E12.62607
G1 X128.549 Y159.79 E15.26666
G1 X128.509 Y160.31 E15.29268
G1 X128.39 Y160.817 E15.31866
G1 X128.195 Y161.3 E15.34465
G1 X127.929 Y161.748 E15.37064
G1 X127.597 Y162.15 E15.39665
G1 X127.207 Y162.496 E15.42266
G1 X126.844 Y162.737 E15.4444
G1 X126.644 Y162.852 E15.45591
G1 X126.5 Y162.921 E15.46388
G1 X126.523 Y163.032 E15.46953
G1 X126.549 Y163.552 E15.49551
G1 X126.495 Y164.071 E15.52154
G1 X126.362 Y164.575 E15.54755
G1 X126.154 Y165.053 E15.57355
G1 X125.875 Y165.493 E15.59955
G1 X125.533 Y165.886 E15.62554
G1 X125.134 Y166.221 E15.65153
G1 X124.689 Y166.492 E15.67752
G1 X124.207 Y166.691 E15.70354
G1 X123.701 Y166.815 E15.72953
G1 X123.182 Y166.86 E15.75552
G1 X122.662 Y166.825 E15.78152
G1 X122.153 Y166.711 E15.80755
G1 X121.452 Y166.405 E15.84571
G1 X73.081 Y138.515 E18.63135
G1 X72.65 Y138.221 E18.65738
G1 X72.27 Y137.865 E18.68336
G1 X71.949 Y137.455 E18.70934
G1 X71.694 Y137 E18.73536
G1 X71.496 Y136.455 E18.76429
G1 X71.41 Y136.136 E18.78077
G1 X71.314 Y135.624 E18.80676
G1 X71.296 Y135.103 E18.83277
G1 X71.359 Y134.586 E18.85875
G1 X71.5 Y134.084 E18.88477
G1 X71.749 Y133.551 E18.91412
G1 X74.211 Y129.288 E19.15972
G1 X74.505 Y128.858 E19.18571
G1 X74.862 Y128.478 E19.21172
G1 X75.273 Y128.157 E19.23774
G1 X75.727 Y127.902 E19.26372
G1 X76.216 Y127.72 E19.28975
G1 X76.726 Y127.615 E19.31572
G1 X77.247 Y127.589 E19.34175
G1 X77.755 Y127.642 E19.36723
G1 X77.755 Y122.769 E19.61035
G1 X77.795 Y122.249 E19.63637
G1 X77.914 Y121.742 E19.66235
G1 X78.109 Y121.259 E19.68833
G1 X78.364 Y120.827 E19.71336
G1 X78.435 Y120.725 E19.71956
G1 X78.765 Y120.321 E19.74559
G1 X79.153 Y119.972 E19.77162
G1 X79.589 Y119.687 E19.79761
G1 X80.063 Y119.472 E19.82358
G0 F3600 X80.2 Y119.848
G1 F1500 X123.953 Y103.923 E22.14652
G1 X124.425 Y103.794 E22.17093
G1 X124.912 Y103.743 E22.19536
G1 X125.4 Y103.772 E22.21975
G1 X125.878 Y103.88 E22.2442
G1 X126.331 Y104.064 E22.26859
G1 X126.709 Y104.291 E22.29059
G1 X126.879 Y104.411 E22.30097
G1 X127.255 Y104.725 E22.32541
G1 X127.574 Y105.096 E22.34982
G1 X127.829 Y105.514 E22.37425
G1 X128.013 Y105.968 E22.39869
G1 X128.12 Y106.445 E22.42308
G1 X128.149 Y106.862 E22.44393
G1 X128.149 Y159.79 E25.08452
G1 X128.109 Y160.278 E25.10895
G1 X127.99 Y160.753 E25.13338
G1 X127.796 Y161.202 E25.15778
G1 X127.531 Y161.614 E25.18222
G1 X127.203 Y161.977 E25.20663
G1 X126.644 Y162.391 E25.24133
G1 X126.444 Y162.506 E25.25284
G1 X126.045 Y162.694 E25.27485
G1 X126.071 Y162.776 E25.27914
G1 X126.143 Y163.26 E25.30355
G1 X126.136 Y163.749 E25.32795
G1 X126.049 Y164.231 E25.35239
G1 X125.885 Y164.692 E25.3768
G1 X125.648 Y165.121 E25.40125
G1 X125.345 Y165.505 E25.42565
G1 X124.983 Y165.835 E25.45009
G1 X124.573 Y166.101 E25.47447
G1 X124.124 Y166.297 E25.49892
G1 X123.65 Y166.418 E25.52332
G1 X123.162 Y166.46 E25.54776
G1 X122.674 Y166.422 E25.57218
G1 X122.199 Y166.305 E25.59658
G1 X121.651 Y166.059 E25.62655
G1 X73.28 Y138.169 E28.4122
G1 X72.878 Y137.891 E28.43658
G1 X72.526 Y137.551 E28.461
G1 X72.234 Y137.158 E28.48542
G1 X72.009 Y136.723 E28.50986
G1 X71.882 Y136.351 E28.52947
G1 X71.796 Y136.032 E28.54595
G1 X71.708 Y135.55 E28.5704
G1 X71.699 Y135.061 E28.5948
G1 X71.77 Y134.577 E28.6192
G1 X71.918 Y134.11 E28.64364
G1 X72.095 Y133.751 E28.66361
G1 X74.557 Y129.488 E28.90922
G1 X74.836 Y129.085 E28.93367
G1 X75.176 Y128.733 E28.95809
G1 X75.569 Y128.442 E28.98248
G1 X76.004 Y128.217 E29.00692
G1 X76.47 Y128.067 E29.03134
G1 X76.954 Y127.995 E29.05575
G1 X77.444 Y128.002 E29.0802
G1 X77.925 Y128.089 E29.10459
G1 X78.155 Y128.17 E29.11675
G1 X78.155 Y122.769 E29.38621
G1 X78.195 Y122.281 E29.41064
G1 X78.314 Y121.806 E29.43507
G1 X78.508 Y121.357 E29.45947
G1 X78.693 Y121.055 E29.47714
G1 X78.764 Y120.953 E29.48334
G1 X79.075 Y120.576 E29.50772
G1 X79.444 Y120.254 E29.53215
G1 X79.86 Y119.996 E29.55658
G1 X80.2 Y119.848 E29.57508
G0 F3600 X80.337 Y120.224
G1 F1500 X124.09 Y104.299 E31.89802
G1 X124.53 Y104.181 E31.92074
G1 X124.984 Y104.142 E31.94348
G1 X125.438 Y104.183 E31.96622
G1 X125.877 Y104.302 E31.98891
G1 X126.478 Y104.618 E32.02279
G1 X126.648 Y104.738 E32.03317
G1 X126.996 Y105.032 E32.0559
G1 X127.287 Y105.383 E32.07864
G1 X127.513 Y105.779 E32.10139
G1 X127.665 Y106.208 E32.1241
G1 X127.749 Y106.862 E32.15699
G1 X127.749 Y159.79 E34.79758
G1 X127.709 Y160.244 E34.82032
G1 X127.591 Y160.684 E34.84305
G1 X127.397 Y161.096 E34.86577
G1 X127.134 Y161.469 E34.88854
G1 X126.811 Y161.79 E34.91126
G1 X126.445 Y162.044 E34.93348
G1 X126.245 Y162.159 E34.94499
G1 X125.832 Y162.351 E34.96772
G1 X125.528 Y162.431 E34.9834
G1 X125.597 Y162.581 E34.99164
G1 X125.713 Y163.021 E35.01434
G1 X125.75 Y163.476 E35.03711
G1 X125.707 Y163.929 E35.05981
G1 X125.586 Y164.368 E35.08253
G1 X125.39 Y164.78 E35.1053
G1 X125.125 Y165.151 E35.12804
G1 X124.8 Y165.469 E35.15073
G1 X124.424 Y165.727 E35.17348
G1 X124.009 Y165.914 E35.19619
G1 X123.567 Y166.026 E35.21893
G1 X123.113 Y166.06 E35.24165
G1 X122.659 Y166.013 E35.26442
G1 X122.221 Y165.888 E35.28714
G1 X121.851 Y165.712 E35.30758
G1 X73.48 Y137.822 E38.09323
G1 X73.107 Y137.561 E38.11594
G1 X72.785 Y137.239 E38.13866
G1 X72.524 Y136.865 E38.16141
G1 X72.269 Y136.247 E38.19477
G1 X72.183 Y135.928 E38.21125
G1 X72.103 Y135.479 E38.234
G1 X72.103 Y135.024 E38.25671
G1 X72.182 Y134.575 E38.27945
G1 X72.442 Y133.951 E38.31318
G1 X74.904 Y129.688 E38.55878
G1 X75.165 Y129.315 E38.58149
G1 X75.488 Y128.993 E38.60424
G1 X75.862 Y128.733 E38.62697
G1 X76.275 Y128.541 E38.64969
G1 X76.716 Y128.425 E38.67244
G1 X77.17 Y128.388 E38.69517
G1 X77.624 Y128.431 E38.71792
G1 X78.063 Y128.552 E38.74064
G1 X78.474 Y128.748 E38.76335
G1 X78.555 Y128.806 E38.76832
G1 X78.555 Y122.769 E39.06951
G1 X78.595 Y122.315 E39.09225
G1 X78.713 Y121.875 E39.11498
G1 X79.021 Y121.284 E39.14823
G1 X79.092 Y121.182 E39.15443
G1 X79.384 Y120.832 E39.17717
G1 X79.733 Y120.539 E39.1999
G1 X80.337 Y120.224 E39.23389
G0 F3600 X80.474 Y120.6
G1 F1500 X124.227 Y104.675 E41.55683
G1 X124.632 Y104.57 E41.5777
G1 X125.05 Y104.543 E41.5986
G1 X125.466 Y104.597 E41.61953
G1 X125.864 Y104.728 E41.64043
G1 X126.248 Y104.945 E41.66244
G1 X126.418 Y105.065 E41.67282
G1 X126.735 Y105.338 E41.69369
G1 X126.996 Y105.666 E41.7146
G1 X127.189 Y106.038 E41.73551
G1 X127.308 Y106.44 E41.75643
G1 X127.349 Y106.862 E41.77758
G1 X127.349 Y159.79 E44.41817
G1 X127.309 Y160.207 E44.43907
G1 X127.191 Y160.609 E44.45997
G1 X126.998 Y160.981 E44.48088
G1 X126.739 Y161.31 E44.50177
G1 X126.246 Y161.697 E44.53304
G1 X126.046 Y161.812 E44.54455
G1 X125.664 Y161.986 E44.56549
G1 X125.257 Y162.083 E44.58636
G1 X124.879 Y162.1 E44.60524
G1 X124.881 Y162.102 E44.60538
G1 X125.107 Y162.455 E44.62629
G1 X125.262 Y162.844 E44.64718
G1 X125.34 Y163.256 E44.6681
G1 X125.339 Y163.675 E44.68901
G1 X125.259 Y164.086 E44.7099
G1 X125.102 Y164.475 E44.73082
G1 X124.874 Y164.826 E44.75171
G1 X124.584 Y165.128 E44.7726
G1 X124.242 Y165.37 E44.7935
G1 X123.86 Y165.542 E44.8144
G1 X123.452 Y165.639 E44.83532
G1 X123.033 Y165.657 E44.85624
G1 X122.619 Y165.595 E44.87713
G1 X122.051 Y165.366 E44.90768
G1 X73.68 Y137.476 E47.69333
G1 X73.339 Y137.233 E47.71422
G1 X73.049 Y136.93 E47.73514
G1 X72.823 Y136.577 E47.75605
G1 X72.655 Y136.143 E47.77927
G1 X72.569 Y135.824 E47.79576
G1 X72.499 Y135.411 E47.81665
G1 X72.508 Y134.992 E47.83756
G1 X72.597 Y134.582 E47.85849
G1 X72.788 Y134.151 E47.88201
G1 X75.25 Y129.888 E48.12762
G1 X75.493 Y129.546 E48.14855
G1 X75.797 Y129.258 E48.16944
G1 X76.149 Y129.031 E48.19034
G1 X76.539 Y128.876 E48.21127
G1 X76.95 Y128.798 E48.23214
G1 X77.369 Y128.798 E48.25305
G1 X77.78 Y128.879 E48.27395
G1 X78.169 Y129.036 E48.29488
G1 X78.521 Y129.263 E48.31577
G1 X78.823 Y129.554 E48.3367
G1 X78.955 Y129.741 E48.34812
G1 X78.955 Y122.769 E48.69595
G1 X78.995 Y122.352 E48.71685
G1 X79.113 Y121.95 E48.73775
G1 X79.349 Y121.512 E48.76257
G1 X79.42 Y121.41 E48.76877
G1 X79.691 Y121.091 E48.78966
G1 X80.018 Y120.828 E48.81059
G1 X80.474 Y120.6 E48.83603
G0 F3600 X80.61 Y120.976
G1 F1500 X124.363 Y105.051 E51.15897
G1 X124.731 Y104.959 E51.17789
G1 X125.11 Y104.947 E51.19681
G1 X125.483 Y105.014 E51.21572
G1 X125.833 Y105.158 E51.2346
G1 X126.017 Y105.271 E51.24537
G1 X126.187 Y105.391 E51.25575
G1 X126.472 Y105.641 E51.27467
G1 X126.698 Y105.945 E51.29357
G1 X126.856 Y106.29 E51.3125
G1 X126.938 Y106.66 E51.3314
G1 X126.949 Y106.862 E51.3415
G1 X126.949 Y159.79 E53.98209
G1 X126.909 Y160.167 E54.001
G1 X126.791 Y160.527 E54.0199
G1 X126.601 Y160.854 E54.03877
G1 X126.346 Y161.135 E54.0577
G1 X126.046 Y161.35 E54.07611
G1 X125.846 Y161.465 E54.08762
G1 X125.5 Y161.619 E54.10652
G1 X125.129 Y161.696 E54.12542
G1 X124.75 Y161.694 E54.14433
G1 X124.38 Y161.613 E54.16323
G1 X124.049 Y161.464 E54.18134
G1 X80.308 Y136.211 E56.70116
G1 X80.002 Y135.988 E56.72005
G1 X79.749 Y135.706 E56.73895
G1 X79.644 Y135.543 E56.74862
G1 X79.591 Y135.45 E56.75396
G1 X79.439 Y135.103 E56.77286
G1 X79.355 Y134.559 E56.80032
G1 X79.355 Y122.769 E57.38853
G1 X79.395 Y122.392 E57.40744
G1 X79.513 Y122.032 E57.42634
G1 X79.678 Y121.741 E57.44303
G1 X79.749 Y121.639 E57.44923
G1 X79.997 Y121.352 E57.46816
G1 X80.299 Y121.124 E57.48704
G1 X80.61 Y120.976 E57.50422
G0 F3600 X80.747 Y121.351
G1 F1500 X124.5 Y105.426 E59.82716
G1 X124.825 Y105.35 E59.84381
G1 X125.16 Y105.354 E59.86052
G1 X125.483 Y105.436 E59.87715
G1 X125.786 Y105.598 E59.89429
G1 X125.956 Y105.718 E59.90467
G1 X126.204 Y105.942 E59.92135
G1 X126.392 Y106.218 E59.93801
G1 X126.509 Y106.531 E59.95468
G1 X126.549 Y106.862 E59.97131
G1 X126.549 Y159.79 E62.6119
G1 X126.509 Y160.122 E62.62858
G1 X126.392 Y160.434 E62.64521
G1 X126.204 Y160.711 E62.66191
G1 X125.847 Y161.004 E62.68495
G1 X125.647 Y161.119 E62.69646
G1 X125.339 Y161.249 E62.71314
G1 X125.01 Y161.304 E62.72978
G1 X124.677 Y161.278 E62.74645
G1 X124.249 Y161.117 E62.76926
G1 X80.508 Y135.864 E65.28908
G1 X80.241 Y135.664 E65.30572
G1 X79.992 Y135.345 E65.32591
G1 X79.939 Y135.252 E65.33125
G1 X79.809 Y134.944 E65.34793
G1 X79.755 Y134.559 E65.36733
G1 X79.755 Y122.769 E65.95553
G1 X79.795 Y122.437 E65.97222
G1 X79.912 Y122.125 E65.98884
G1 X80.006 Y121.969 E65.99793
G1 X80.077 Y121.867 E66.00413
G1 X80.299 Y121.618 E66.02077
G1 X80.574 Y121.428 E66.03745
G1 X80.747 Y121.351 E66.04689
G0 F3600 X80.884 Y121.727
G1 F1500 X124.637 Y105.802 E68.36983
G1 X124.913 Y105.744 E68.3839
G1 X125.194 Y105.765 E68.39796
G1 X125.556 Y105.925 E68.41771
G1 X125.726 Y106.045 E68.42809
G1 X125.931 Y106.239 E68.44217
G1 X126.074 Y106.482 E68.45624
G1 X126.149 Y106.862 E68.47556
G1 X126.149 Y159.79 E71.11615
G1 X126.109 Y160.069 E71.13021
G1 X125.993 Y160.326 E71.14428
G1 X125.81 Y160.541 E71.15836
G1 X125.647 Y160.657 E71.16835
G1 X125.447 Y160.772 E71.17986
G1 X125.185 Y160.877 E71.19394
G1 X124.905 Y160.904 E71.20797
G1 X124.627 Y160.852 E71.22208
G1 X124.449 Y160.771 E71.23184
G1 X80.708 Y135.518 E73.75166
G1 X80.486 Y135.344 E73.76573
G1 X80.339 Y135.147 E73.77799
G1 X80.286 Y135.054 E73.78333
G1 X80.182 Y134.792 E73.7974
G1 X80.155 Y134.559 E73.8091
G1 X80.155 Y122.769 E74.39731
G1 X80.195 Y122.49 E74.41137
G1 X80.334 Y122.198 E74.4275
G1 X80.405 Y122.096 E74.4337
G1 X80.597 Y121.889 E74.44779
G1 X80.884 Y121.727 E74.46423
G0 F3600 X81.021 Y122.103
G1 F1500 X124.774 Y106.178 E76.78717
G1 X124.989 Y106.142 E76.79804
G1 X125.203 Y106.185 E76.80893
G1 X125.325 Y106.252 E76.81588
G1 X125.495 Y106.372 E76.82626
G1 X125.647 Y106.528 E76.83713
G1 X125.734 Y106.728 E76.84801
G1 X125.749 Y106.862 E76.85474
G1 X125.749 Y159.79 E79.49532
G1 X125.709 Y160.005 E79.50623
G1 X125.596 Y160.191 E79.51709
G1 X125.448 Y160.31 E79.52657
G1 X125.248 Y160.425 E79.53808
G1 X125.042 Y160.498 E79.54898
G1 X124.824 Y160.492 E79.55986
G1 X124.649 Y160.425 E79.56921
G1 X80.908 Y135.172 E82.08903
G1 X80.687 Y134.949 E82.10469
G1 X80.634 Y134.856 E82.11003
G1 X80.555 Y134.559 E82.12537
G1 X80.555 Y122.769 E82.71357
G1 X80.595 Y122.554 E82.72448
G1 X80.663 Y122.426 E82.73171
G1 X80.734 Y122.324 E82.73791
G1 X80.889 Y122.171 E82.74878
G1 X81.021 Y122.103 E82.75619
G0 F3600 X81.158 Y122.479
G1 F1500 X124.911 Y106.554 E85.07913
G1 X125.035 Y106.55 E85.08532
G1 X125.094 Y106.579 E85.0886
G1 X125.264 Y106.699 E85.09898
G1 X125.339 Y106.799 E85.10521
G1 X125.349 Y106.862 E85.1084
G1 X125.349 Y159.79 E87.74898
G1 X125.31 Y159.909 E87.75523
G1 X125.249 Y159.963 E87.7593
G1 X125.049 Y160.078 E87.77081
G1 X124.926 Y160.104 E87.77708
G1 X124.849 Y160.078 E87.78113
G1 X81.108 Y134.825 E90.30095
G1 X81.034 Y134.751 E90.30618
G1 X80.981 Y134.658 E90.31152
G1 X80.955 Y134.559 E90.31662
G1 X80.955 Y122.769 E90.90483
G1 X80.991 Y122.655 E90.91079
G1 X81.062 Y122.553 E90.91699
G1 X81.158 Y122.479 E90.92304
G1 F1500 E84.42304
G0 F3600 X80.492 Y122.561
G0 X77.904 Y129.351
G1 F1500 E90.92304
G1 X78.23 Y129.545 E90.94197
G1 X78.509 Y129.802 E90.96089
G1 X78.727 Y130.111 E90.97976
G1 X78.876 Y130.46 E90.99869
