;FLAVOR:Marlin
;TIME:406
;Filament used: 0.324404m
;Layer height: 0.2
;Generated with Cura_SteamEngine 2.7.0
M190 S65
M104 S210
M109 S210
G21 ;metric values
G90 ;absolute positioning
M82 ;set extruder to absolute mode
M107 ;start with the fan off
G28 X0 Y0 ;move X/Y to min endstops
G28 Z0 ;move Z to min endstops
G1 Z15.0 F9000 ;move the platform down 15mm
G92 E0 ;zero the extruded length
G1 F200 E3 ;extrude 3mm of feed stock
G92 E0 ;zero the extruded length again
G1 F9000
;Put printing message on LCD screen
M117 Printing...
;LAYER_COUNT:53
;LAYER:0
M107
G0 F3600 X94.414 Y127.858 Z0.3
;TYPE:SKIRT
G1 F1500 X95.078 Y127.397 E0.04033
G1 X96.297 Y126.731 E0.10963
G1 X96.798 Y126.503 E0.13709
G1 X97.138 Y126.395 E0.15489
G1 X98.234 Y126.102 E0.21149
G1 X98.775 Y125.999 E0.23896
G1 X99.126 Y125.974 E0.25652
G1 X100.485 Y125.942 E0.32434
G1 X101.289 Y126.009 E0.36459
G1 X102.145 Y126.173 E0.40807
G1 X102.924 Y126.411 E0.44871
G1 X104.278 Y126.99 E0.52218
G1 X104.768 Y127.243 E0.54969
G1 X105.048 Y127.432 E0.56655
G1 X105.796 Y127.987 E0.61301
G1 X106.214 Y128.347 E0.64054
G1 X106.441 Y128.594 E0.65727
G1 X107.462 Y129.809 E0.73645
G1 X107.785 Y130.256 E0.76396
G1 X107.954 Y130.559 E0.78127
G1 X108.373 Y131.4 E0.82815
G1 X108.599 Y131.96 E0.85828
G1 X108.803 Y132.612 E0.89236
G1 X108.934 Y133.187 E0.92178
G1 X109.058 Y134.019 E0.96375
G1 X109.1 Y134.575 E0.99157
G1 X109.101 Y135.553 E1.04036
G1 X109.029 Y136.296 E1.0776
G1 X108.838 Y137.26 E1.12663
G1 X108.692 Y137.791 E1.15411
G1 X108.587 Y138.053 E1.16819
G1 X108.037 Y139.301 E1.23623
G1 X107.779 Y139.788 E1.26373
G1 X107.463 Y140.221 E1.29047
G1 X106.413 Y141.464 E1.37165
G1 X106.028 Y141.858 E1.39913
G1 X105.608 Y142.18 E1.42553
G1 X104.433 Y142.958 E1.49584
G1 X103.953 Y143.228 E1.52332
G1 X103.459 Y143.42 E1.54976
G1 X101.938 Y143.891 E1.62919
G1 X101.401 Y144.015 E1.65669
G1 X100.912 Y144.06 E1.68119
G1 X99.634 Y144.093 E1.74497
G1 X98.824 Y144.027 E1.78552
G1 X97.812 Y143.834 E1.83692
G1 X97.28 Y143.692 E1.86439
G1 X96.993 Y143.579 E1.87977
G1 X95.737 Y143.026 E1.94824
G1 X95.25 Y142.768 E1.97574
G1 X94.937 Y142.549 E1.9948
G1 X93.993 Y141.816 E2.05442
G1 X93.432 Y141.28 E2.09313
G1 X92.82 Y140.562 E2.1402
G1 X92.356 Y139.879 E2.18139
G1 X91.699 Y138.642 E2.25127
G1 X91.45 Y138.063 E2.28272
G1 X91.118 Y137.068 E2.33505
G1 X90.982 Y136.534 E2.36254
G1 X90.925 Y135.986 E2.39003
G1 X90.929 Y135.654 E2.40659
G1 X91.037 Y133.715 E2.50348
G1 X91.107 Y133.168 E2.53099
G1 X91.248 Y132.66 E2.55729
G1 X91.708 Y131.358 E2.62619
G1 X92.05 Y130.64 E2.66586
G1 X92.508 Y129.892 E2.70962
G1 X92.85 Y129.42 E2.7387
G1 X93.321 Y128.864 E2.77506
G1 X93.734 Y128.446 E2.80437
G1 X94.414 Y127.858 E2.84922
G0 F3600 X94.676 Y128.16
G1 F1500 X95.27 Y127.748 E2.88529
G1 X96.489 Y127.082 E2.95459
G1 X96.964 Y126.868 E2.98058
G1 X97.241 Y126.781 E2.99506
G1 X98.337 Y126.488 E3.05166
G1 X98.849 Y126.393 E3.07764
G1 X99.135 Y126.374 E3.09194
G1 X100.494 Y126.342 E3.15976
G1 X101.214 Y126.402 E3.19581
G1 X102.07 Y126.566 E3.23929
G1 X102.767 Y126.779 E3.27565
G1 X104.121 Y127.358 E3.34912
G1 X104.583 Y127.599 E3.37512
G1 X104.81 Y127.754 E3.38883
G1 X105.558 Y128.309 E3.4353
G1 X105.951 Y128.65 E3.46126
G1 X106.135 Y128.852 E3.47489
G1 X107.156 Y130.067 E3.55407
G1 X107.46 Y130.49 E3.58006
G1 X107.596 Y130.738 E3.59417
G1 X108.015 Y131.579 E3.64104
G1 X108.217 Y132.08 E3.66799
G1 X108.421 Y132.732 E3.70208
G1 X108.539 Y133.246 E3.72839
G1 X108.663 Y134.078 E3.77036
G1 X108.7 Y134.576 E3.79527
G1 X108.701 Y135.554 E3.84406
G1 X108.636 Y136.218 E3.87735
G1 X108.445 Y137.182 E3.92638
G1 X108.221 Y137.892 E3.96352
G1 X107.671 Y139.14 E4.03156
G1 X107.425 Y139.6 E4.05759
G1 X107.157 Y139.963 E4.0801
G1 X106.107 Y141.206 E4.16127
G1 X105.742 Y141.577 E4.18724
G1 X105.387 Y141.847 E4.20949
G1 X104.212 Y142.625 E4.2798
G1 X103.757 Y142.878 E4.30577
G1 X103.341 Y143.038 E4.32801
G1 X101.82 Y143.509 E4.40745
G1 X101.312 Y143.624 E4.43343
G1 X100.902 Y143.66 E4.45397
G1 X99.624 Y143.693 E4.51775
G1 X98.899 Y143.634 E4.55404
G1 X97.887 Y143.441 E4.60543
G1 X97.154 Y143.213 E4.64373
G1 X95.898 Y142.66 E4.7122
G1 X95.438 Y142.414 E4.73822
G1 X95.183 Y142.233 E4.75383
G1 X94.239 Y141.5 E4.81345
G1 X93.736 Y141.021 E4.84811
G1 X93.124 Y140.303 E4.89517
G1 X92.709 Y139.692 E4.93202
G1 X92.052 Y138.455 E5.0019
G1 X91.83 Y137.936 E5.03006
G1 X91.498 Y136.941 E5.0824
G1 X91.371 Y136.436 E5.10837
G1 X91.328 Y135.676 E5.14635
G1 X91.436 Y133.737 E5.24324
G1 X91.505 Y133.22 E5.26926
G1 X91.625 Y132.793 E5.29139
G1 X92.085 Y131.491 E5.36028
G1 X92.391 Y130.849 E5.39576
G1 X92.849 Y130.101 E5.43952
G1 X93.155 Y129.678 E5.46557
G1 X93.626 Y129.122 E5.50192
G1 X93.996 Y128.748 E5.52817
G1 X94.676 Y128.16 E5.57302
G0 F3600 X94.938 Y128.463
G1 F1500 X95.462 Y128.099 E5.60485
G1 X96.681 Y127.433 E5.67415
G1 X97.344 Y127.168 E5.70977
G1 X98.44 Y126.875 E5.76637
G1 X99.144 Y126.774 E5.80185
G1 X100.503 Y126.742 E5.86967
G1 X101.138 Y126.795 E5.90146
G1 X101.994 Y126.959 E5.94495
G1 X102.61 Y127.147 E5.97708
G1 X103.964 Y127.726 E6.05055
G1 X104.572 Y128.075 E6.08552
G1 X105.32 Y128.63 E6.13199
G1 X105.829 Y129.109 E6.16686
G1 X106.85 Y130.324 E6.24604
G1 X107.238 Y130.916 E6.28135
G1 X107.657 Y131.757 E6.32823
G1 X107.835 Y132.199 E6.352
G1 X108.039 Y132.851 E6.38608
G1 X108.143 Y133.305 E6.40932
G1 X108.267 Y134.137 E6.45129
G1 X108.3 Y134.576 E6.47325
G1 X108.301 Y135.554 E6.52204
G1 X108.244 Y136.14 E6.55142
G1 X108.053 Y137.104 E6.60045
G1 X107.855 Y137.731 E6.63325
G1 X107.305 Y138.979 E6.70129
G1 X107.072 Y139.409 E6.72569
G1 X106.852 Y139.705 E6.74409
G1 X105.802 Y140.948 E6.82527
G1 X105.456 Y141.295 E6.84972
G1 X105.166 Y141.513 E6.86782
G1 X103.991 Y142.291 E6.93812
G1 X103.562 Y142.527 E6.96255
G1 X103.222 Y142.656 E6.98069
G1 X101.701 Y143.127 E7.06013
G1 X101.224 Y143.233 E7.08451
G1 X100.891 Y143.26 E7.10118
G1 X99.613 Y143.293 E7.16496
G1 X98.974 Y143.241 E7.19694
G1 X97.962 Y143.048 E7.24834
G1 X97.315 Y142.847 E7.28214
G1 X96.059 Y142.294 E7.35061
G1 X95.629 Y142.061 E7.37501
G1 X95.428 Y141.918 E7.38732
G1 X94.484 Y141.185 E7.44694
G1 X94.041 Y140.761 E7.47754
G1 X93.429 Y140.043 E7.5246
G1 X93.063 Y139.504 E7.55711
G1 X92.406 Y138.267 E7.62699
G1 X92.209 Y137.81 E7.65182
G1 X91.877 Y136.815 E7.70415
G1 X91.761 Y136.339 E7.72859
G1 X91.728 Y135.698 E7.76061
G1 X91.836 Y133.759 E7.8575
G1 X91.903 Y133.274 E7.88193
G1 X92.002 Y132.927 E7.89993
G1 X92.462 Y131.625 E7.96882
G1 X92.733 Y131.057 E8.00022
G1 X93.191 Y130.309 E8.04398
G1 X93.46 Y129.937 E8.06688
G1 X93.931 Y129.381 E8.10323
G1 X94.258 Y129.051 E8.12641
G1 X94.938 Y128.463 E8.17126
G0 F3600 X95.199 Y128.765
G1 F1500 X95.653 Y128.45 E8.19883
G1 X96.872 Y127.784 E8.26813
G1 X97.448 Y127.554 E8.29907
G1 X98.544 Y127.261 E8.35567
G1 X99.154 Y127.174 E8.38641
G1 X100.513 Y127.142 E8.45423
G1 X101.063 Y127.187 E8.48176
G1 X101.919 Y127.351 E8.52525
G1 X102.452 Y127.514 E8.55305
G1 X103.806 Y128.093 E8.62652
G1 X104.333 Y128.396 E8.65685
G1 X105.081 Y128.951 E8.70332
G1 X105.523 Y129.366 E8.73357
G1 X106.544 Y130.581 E8.81274
G1 X106.88 Y131.095 E8.84338
G1 X107.299 Y131.936 E8.89026
G1 X107.453 Y132.319 E8.91085
G1 X107.657 Y132.971 E8.94494
G1 X107.748 Y133.364 E8.96506
G1 X107.872 Y134.196 E9.00703
G1 X107.9 Y134.576 E9.02604
G1 X107.901 Y135.554 E9.07483
G1 X107.851 Y136.062 E9.1003
G1 X107.66 Y137.026 E9.14933
G1 X107.489 Y137.57 E9.17778
G1 X106.939 Y138.818 E9.24582
G1 X106.72 Y139.217 E9.26852
G1 X106.546 Y139.447 E9.28291
G1 X105.496 Y140.69 E9.36409
G1 X105.173 Y141.011 E9.38681
G1 X104.945 Y141.18 E9.40097
G1 X103.77 Y141.958 E9.47128
G1 X103.37 Y142.175 E9.49398
G1 X103.104 Y142.274 E9.50814
G1 X101.583 Y142.745 E9.58758
G1 X101.138 Y142.841 E9.61029
G1 X100.881 Y142.86 E9.62315
G1 X99.603 Y142.893 E9.68693
G1 X99.049 Y142.848 E9.71466
G1 X98.037 Y142.655 E9.76606
G1 X97.476 Y142.481 E9.79536
G1 X96.22 Y141.928 E9.86383
G1 X95.673 Y141.602 E9.89559
G1 X94.729 Y140.869 E9.95522
G1 X94.345 Y140.502 E9.98172
G1 X93.733 Y139.784 E10.02879
G1 X93.416 Y139.317 E10.05695
G1 X92.759 Y138.08 E10.12683
G1 X92.589 Y137.683 E10.14837
G1 X92.257 Y136.688 E10.20071
G1 X92.151 Y136.245 E10.22343
G1 X92.127 Y135.72 E10.24965
G1 X92.235 Y133.781 E10.34654
G1 X92.3 Y133.33 E10.36927
G1 X92.38 Y133.06 E10.38332
G1 X92.84 Y131.758 E10.45221
G1 X93.074 Y131.266 E10.47939
G1 X93.532 Y130.518 E10.52315
G1 X93.765 Y130.195 E10.54302
G1 X94.236 Y129.639 E10.57937
G1 X94.519 Y129.353 E10.59945
G1 X95.199 Y128.765 E10.6443
G0 F3600 X95.461 Y129.068
G1 F1500 X95.845 Y128.801 E10.66763
G1 X97.064 Y128.135 E10.73693
G1 X97.551 Y127.941 E10.76309
G1 X98.647 Y127.648 E10.81969
G1 X99.163 Y127.574 E10.84569
G1 X100.522 Y127.542 E10.91351
G1 X100.988 Y127.58 E10.93684
G1 X101.844 Y127.744 E10.98032
G1 X102.295 Y127.882 E11.00385
G1 X103.649 Y128.461 E11.07732
G1 X104.095 Y128.717 E11.10297
G1 X104.843 Y129.272 E11.14944
G1 X105.216 Y129.624 E11.17503
G1 X106.237 Y130.839 E11.25421
G1 X106.522 Y131.273 E11.28011
G1 X106.941 Y132.114 E11.32699
G1 X107.072 Y132.438 E11.34442
G1 X107.276 Y133.09 E11.37851
G1 X107.352 Y133.423 E11.39555
G1 X107.476 Y134.255 E11.43751
G1 X107.5 Y134.577 E11.45362
G1 X107.501 Y135.555 E11.50242
G1 X107.459 Y135.985 E11.52397
G1 X107.268 Y136.949 E11.573
G1 X107.123 Y137.408 E11.59702
G1 X106.573 Y138.656 E11.66506
G1 X106.368 Y139.022 E11.68599
G1 X106.241 Y139.189 E11.69645
G1 X105.191 Y140.432 E11.77763
G1 X104.725 Y140.846 E11.80873
G1 X103.55 Y141.624 E11.87904
G1 X102.986 Y141.892 E11.91019
G1 X101.465 Y142.363 E11.98963
G1 X100.871 Y142.46 E12.01965
G1 X99.593 Y142.493 E12.08344
G1 X99.124 Y142.455 E12.10691
G1 X98.112 Y142.262 E12.15831
G1 X97.637 Y142.114 E12.18313
G1 X96.381 Y141.561 E12.2516
G1 X95.919 Y141.286 E12.27842
G1 X94.975 Y140.553 E12.33805
G1 X94.65 Y140.242 E12.36049
G1 X94.038 Y139.524 E12.40756
G1 X93.769 Y139.129 E12.4314
G1 X93.112 Y137.892 E12.50128
G1 X92.968 Y137.556 E12.51952
G1 X92.636 Y136.561 E12.57185
G1 X92.542 Y136.153 E12.59274
G1 X92.526 Y135.743 E12.61321
G1 X92.634 Y133.804 E12.71009
G1 X92.757 Y133.193 E12.74119
G1 X93.217 Y131.891 E12.81008
G1 X93.415 Y131.475 E12.83307
G1 X93.873 Y130.727 E12.87682
G1 X94.07 Y130.454 E12.89362
G1 X94.541 Y129.898 E12.92997
G1 X94.781 Y129.656 E12.94698
G1 X95.461 Y129.068 E12.99183
G0 F3600 X95.723 Y129.37
G1 F1500 X96.037 Y129.152 E13.0109
G1 X97.256 Y128.486 E13.0802
G1 X97.654 Y128.327 E13.10158
G1 X98.75 Y128.034 E13.15818
G1 X99.173 Y127.973 E13.1795
G1 X100.532 Y127.941 E13.24732
G1 X100.913 Y127.973 E13.2664
G1 X101.769 Y128.137 E13.30988
G1 X102.138 Y128.25 E13.32913
G1 X103.492 Y128.829 E13.4026
G1 X103.857 Y129.038 E13.42359
G1 X104.605 Y129.593 E13.47005
G1 X104.91 Y129.881 E13.49098
G1 X105.931 Y131.096 E13.57016
G1 X106.164 Y131.451 E13.59135
G1 X106.583 Y132.292 E13.63822
G1 X106.69 Y132.558 E13.65253
G1 X106.894 Y133.21 E13.68661
G1 X106.956 Y133.482 E13.70053
G1 X107.08 Y134.314 E13.74249
G1 X107.1 Y134.577 E13.75565
G1 X107.101 Y135.555 E13.80445
G1 X107.067 Y135.907 E13.82209
G1 X106.876 Y136.871 E13.87112
G1 X106.757 Y137.247 E13.89079
G1 X106.207 Y138.495 E13.95884
G1 X105.935 Y138.931 E13.98447
G1 X104.885 Y140.174 E14.06565
G1 X104.504 Y140.513 E14.09109
G1 X103.329 Y141.291 E14.1614
G1 X102.867 Y141.509 E14.18689
G1 X101.346 Y141.98 E14.26633
G1 X100.86 Y142.06 E14.2909
G1 X99.582 Y142.093 E14.35468
G1 X99.199 Y142.062 E14.37385
G1 X98.187 Y141.869 E14.42525
G1 X97.799 Y141.748 E14.44553
G1 X96.543 Y141.195 E14.51399
G1 X96.164 Y140.97 E14.53598
G1 X95.22 Y140.237 E14.59561
G1 X94.954 Y139.983 E14.61396
G1 X94.342 Y139.265 E14.66103
G1 X94.122 Y138.941 E14.68056
G1 X93.465 Y137.704 E14.75044
G1 X93.348 Y137.43 E14.76531
G1 X93.016 Y136.435 E14.81764
G1 X92.934 Y136.065 E14.83655
G1 X92.926 Y135.765 E14.85152
G1 X93.034 Y133.826 E14.94841
G1 X93.134 Y133.326 E14.97384
G1 X93.594 Y132.024 E15.04274
G1 X93.756 Y131.684 E15.06153
G1 X94.214 Y130.936 E15.10528
G1 X94.376 Y130.713 E15.11904
G1 X94.847 Y130.157 E15.15539
G1 X95.043 Y129.958 E15.16932
G1 X95.723 Y129.37 E15.21417
G0 F3600 X95.984 Y129.673
G1 F1500 X96.229 Y129.503 E15.22905
G1 X97.448 Y128.837 E15.29835
G1 X97.757 Y128.713 E15.31496
G1 X98.853 Y128.42 E15.37156
G1 X99.182 Y128.373 E15.38814
G1 X100.541 Y128.341 E15.45596
G1 X100.837 Y128.366 E15.47078
G1 X101.693 Y128.53 E15.51427
G1 X101.98 Y128.618 E15.52924
G1 X103.334 Y129.197 E15.60271
G1 X103.618 Y129.36 E15.61905
G1 X104.366 Y129.915 E15.66552
G1 X104.604 Y130.138 E15.68179
G1 X105.625 Y131.353 E15.76097
G1 X105.806 Y131.63 E15.77747
G1 X106.225 Y132.471 E15.82435
G1 X106.308 Y132.677 E15.83543
G1 X106.512 Y133.329 E15.86951
G1 X106.561 Y133.541 E15.88037
G1 X106.685 Y134.373 E15.92234
G1 X106.7 Y134.578 E15.93259
G1 X106.701 Y135.556 E15.98138
G1 X106.674 Y135.829 E15.99507
G1 X106.483 Y136.793 E16.0441
G1 X106.391 Y137.086 E16.05942
G1 X105.841 Y138.334 E16.12746
G1 X105.629 Y138.672 E16.14737
G1 X104.579 Y139.915 E16.22855
G1 X104.283 Y140.179 E16.24833
G1 X103.108 Y140.957 E16.31864
G1 X102.749 Y141.127 E16.33846
G1 X101.228 Y141.598 E16.41789
G1 X100.85 Y141.661 E16.43701
G1 X99.572 Y141.694 E16.50079
G1 X99.274 Y141.669 E16.51571
G1 X98.262 Y141.476 E16.56711
G1 X97.96 Y141.382 E16.58289
G1 X96.704 Y140.829 E16.65136
G1 X96.409 Y140.654 E16.66847
G1 X95.465 Y139.921 E16.7281
G1 X95.259 Y139.723 E16.74235
G1 X94.647 Y139.005 E16.78942
G1 X94.476 Y138.754 E16.80457
G1 X93.819 Y137.517 E16.87445
G1 X93.727 Y137.303 E16.88607
G1 X93.395 Y136.308 E16.93841
G1 X93.328 Y135.981 E16.95506
G1 X93.325 Y135.787 E16.96474
G1 X93.433 Y133.848 E17.06163
G1 X93.511 Y133.46 E17.08137
G1 X93.971 Y132.158 E17.15026
G1 X94.097 Y131.893 E17.1649
G1 X94.555 Y131.145 E17.20866
G1 X94.681 Y130.971 E17.21938
G1 X95.152 Y130.415 E17.25573
G1 X95.304 Y130.261 E17.26653
G1 X95.984 Y129.673 E17.31138
G0 F3600 X96.246 Y129.976
G1 F1500 X96.421 Y129.854 E17.32202
G1 X97.64 Y129.188 E17.39132
G1 X97.861 Y129.1 E17.40319
G1 X98.957 Y128.807 E17.45979
G1 X99.191 Y128.773 E17.47158
G1 X100.55 Y128.741 E17.5394
G1 X100.762 Y128.759 E17.55002
G1 X101.618 Y128.923 E17.5935
G1 X101.823 Y128.986 E17.6042
G1 X103.177 Y129.565 E17.67767
G1 X103.38 Y129.681 E17.68933
G1 X104.128 Y130.236 E17.7358
G1 X104.298 Y130.396 E17.74745
G1 X105.319 Y131.611 E17.82663
G1 X105.448 Y131.808 E17.83837
G1 X105.867 Y132.649 E17.88525
G1 X105.926 Y132.796 E17.89315
G1 X106.13 Y133.448 E17.92724
G1 X106.165 Y133.6 E17.93502
G1 X106.289 Y134.432 E17.97699
G1 X106.3 Y134.578 E17.98429
G1 X106.301 Y135.556 E18.03308
G1 X106.282 Y135.751 E18.04286
G1 X106.091 Y136.715 E18.09189
G1 X106.025 Y136.924 E18.10282
G1 X105.475 Y138.172 E18.17086
G1 X105.324 Y138.414 E18.18509
G1 X104.274 Y139.657 E18.26627
G1 X104.062 Y139.846 E18.28044
G1 X102.887 Y140.624 E18.35075
G1 X102.631 Y140.745 E18.36487
G1 X101.11 Y141.216 E18.44431
G1 X100.84 Y141.261 E18.45797
G1 X99.562 Y141.294 E18.52175
G1 X99.349 Y141.276 E18.53241
G1 X98.337 Y141.083 E18.58381
G1 X98.121 Y141.016 E18.5951
G1 X96.865 Y140.463 E18.66356
G1 X96.655 Y140.338 E18.67576
G1 X95.711 Y139.605 E18.73538
G1 X95.563 Y139.464 E18.74558
G1 X94.951 Y138.746 E18.79265
G1 X94.829 Y138.566 E18.8035
G1 X94.172 Y137.329 E18.87338
G1 X94.106 Y137.177 E18.88164
G1 X93.774 Y136.182 E18.93397
G1 X93.725 Y135.809 E18.95274
G1 X93.833 Y133.87 E19.04963
G1 X93.888 Y133.593 E19.06372
G1 X94.348 Y132.291 E19.13261
G1 X94.438 Y132.102 E19.14306
G1 X94.896 Y131.354 E19.18681
G1 X94.986 Y131.23 E19.19446
G1 X95.457 Y130.674 E19.23081
G1 X95.566 Y130.564 E19.23854
G1 X96.246 Y129.976 E19.28339
G0 F3600 X96.508 Y130.278
