;FLAVOR:Marlin
;TIME:7381
;Filament used: 6.84077m
;Layer height: 0.2
;Generated with Cura_SteamEngine 2.7.0
M190 S65
M104 S210
M109 S210
G21 ;metric values
G90 ;absolute positioning
M82 ;set extruder to absolute mode
M107 ;start with the fan off
G28 X0 Y0 ;move X/Y to min endstops
G28 Z0 ;move Z to min endstops
G1 Z15.0 F9000 ;move the platform down 15mm
G92 E0 ;zero the extruded length
G1 F200 E3 ;extrude 3mm of feed stock
G92 E0 ;zero the extruded length again
G1 F9000
;Put printing message on LCD screen
M117 Printing...
;LAYER_COUNT:41
;LAYER:0
M107
G0 F3600 X56.095 Y98.147 Z0.3
;TYPE:SKIRT
G1 F1500 X56.594 Y97.951 E0.02675
G1 X57.117 Y97.832 E0.05351
G1 X57.653 Y97.792 E0.08032
G1 X142.346 Y97.793 E4.30567
G1 X142.881 Y97.833 E4.33244
G1 X143.404 Y97.952 E4.3592
G1 X143.903 Y98.147 E4.38593
G1 X144.368 Y98.415 E4.4127
G1 X144.788 Y98.748 E4.43944
G1 X145.14 Y99.122 E4.46507
G1 X148.383 Y103.112 E4.72159
G1 X152.625 Y107.764 E5.03568
G1 X152.956 Y108.186 E5.06244
G1 X153.22 Y108.653 E5.0892
G1 X153.413 Y109.154 E5.11599
G1 X153.528 Y109.677 E5.1427
G1 X153.565 Y110.19 E5.16836
G1 X153.565 Y159.811 E7.64397
G1 X153.525 Y160.346 E7.67073
G1 X153.406 Y160.869 E7.69749
G1 X153.211 Y161.368 E7.72422
G1 X152.943 Y161.833 E7.751
G1 X152.577 Y162.288 E7.78013
G1 X151.087 Y163.859 E7.88815
G1 X147.442 Y168.009 E8.16372
G1 X145.156 Y170.86 E8.34603
G1 X144.79 Y171.252 E8.37279
G1 X144.37 Y171.586 E8.39956
G1 X143.905 Y171.853 E8.42631
G1 X143.406 Y172.049 E8.45306
G1 X142.883 Y172.168 E8.47982
G1 X142.347 Y172.208 E8.50663
G1 X57.651 Y172.207 E12.73213
G1 X57.116 Y172.167 E12.7589
G1 X56.593 Y172.048 E12.78566
G1 X56.094 Y171.853 E12.81239
G1 X55.629 Y171.585 E12.83916
G1 X55.209 Y171.252 E12.8659
G1 X54.825 Y170.838 E12.89408
G1 X53.371 Y168.996 E13.01115
G1 X49.792 Y164.816 E13.28569
G1 X47.405 Y162.264 E13.46003
G1 X47.069 Y161.846 E13.48678
G1 X46.798 Y161.383 E13.51355
G1 X46.6 Y160.885 E13.54029
G1 X46.477 Y160.363 E13.56704
G1 X46.434 Y159.805 E13.59496
G1 X46.435 Y110.189 E16.07031
G1 X46.475 Y109.654 E16.09708
G1 X46.594 Y109.131 E16.12384
G1 X46.789 Y108.632 E16.15057
G1 X47.057 Y108.167 E16.17734
G1 X47.423 Y107.712 E16.20648
G1 X48.913 Y106.141 E16.3145
G1 X52.558 Y101.991 E16.59007
G1 X54.844 Y99.14 E16.77238
G1 X55.21 Y98.748 E16.79914
G1 X55.63 Y98.414 E16.82591
G1 X56.095 Y98.147 E16.85266
G0 F3600 X56.347 Y98.471
G1 F1500 X56.823 Y98.302 E16.87786
G1 X57.32 Y98.209 E16.90309
G1 X57.653 Y98.192 E16.91972
G1 X142.346 Y98.193 E21.14507
G1 X142.85 Y98.233 E21.1703
G1 X143.341 Y98.352 E21.1955
G1 X143.808 Y98.546 E21.22073
G1 X144.238 Y98.812 E21.24596
G1 X144.621 Y99.142 E21.27118
G1 X144.829 Y99.375 E21.28676
G1 X148.068 Y103.36 E21.54296
G1 X152.33 Y108.034 E21.85854
G1 X152.64 Y108.433 E21.88375
G1 X152.883 Y108.876 E21.90895
G1 X153.053 Y109.352 E21.93417
G1 X153.147 Y109.849 E21.95941
G1 X153.165 Y110.19 E21.97644
G1 X153.165 Y159.811 E24.45204
G1 X153.125 Y160.315 E24.47727
G1 X153.006 Y160.806 E24.50247
G1 X152.812 Y161.273 E24.5277
G1 X152.546 Y161.703 E24.55293
G1 X152.287 Y162.013 E24.57308
G1 X150.779 Y163.603 E24.68241
G1 X147.143 Y167.742 E24.95727
G1 X144.844 Y170.61 E25.14065
G1 X144.497 Y170.978 E25.16588
G1 X144.097 Y171.287 E25.1911
G1 X143.653 Y171.529 E25.21633
G1 X143.177 Y171.698 E25.24153
G1 X142.68 Y171.791 E25.26675
G1 X142.347 Y171.808 E25.28339
G1 X57.651 Y171.807 E29.50889
G1 X57.147 Y171.767 E29.53411
G1 X56.656 Y171.648 E29.55932
G1 X56.189 Y171.454 E29.58455
G1 X55.759 Y171.188 E29.60977
G1 X55.376 Y170.858 E29.635
G1 X55.139 Y170.59 E29.65285
G1 X53.681 Y168.744 E29.7702
G1 X50.095 Y164.554 E30.04535
G1 X47.697 Y161.991 E30.22046
G1 X47.382 Y161.596 E30.24566
G1 X47.133 Y161.156 E30.27089
G1 X46.956 Y160.682 E30.29613
G1 X46.857 Y160.186 E30.32136
G1 X46.834 Y159.805 E30.34041
G1 X46.835 Y110.189 E32.81576
G1 X46.875 Y109.685 E32.84098
G1 X46.994 Y109.194 E32.86619
G1 X47.189 Y108.727 E32.89144
G1 X47.454 Y108.297 E32.91664
G1 X47.713 Y107.987 E32.93679
G1 X49.221 Y106.397 E33.04612
G1 X52.857 Y102.258 E33.32098
G1 X55.156 Y99.39 E33.50436
G1 X55.503 Y99.022 E33.52959
G1 X55.903 Y98.713 E33.55481
G1 X56.347 Y98.471 E33.58004
G0 F3600 X56.745 Y104.335
;TYPE:SUPPORT
G1 F1500 X57.144 Y104.734 E33.60819
G1 X64.366 Y104.734 E33.9685
G1 X64.366 Y109.284 E34.1955
G1 X57.645 Y109.284 E34.53081
G1 X57.645 Y106.804 E34.65454
G1 X56.25 Y105.393 E34.75353
G1 X56.252 Y103.78 E34.834
G1 X56.745 Y103.582 E34.8605
G1 X56.745 Y104.335 E34.89807
G0 F3600 X56.584 Y103.974
G1 F1500 X56.411 Y103.974 E34.9067
G1 F1500 E28.4067
G0 F3600 X57.488 Y104.495
G0 X58.652 Y104.894
G1 F1500 E34.9067
G1 X58.652 Y109.124 E35.11774
G0 F3600 X57.707 Y106.64
G1 F1500 X64.205 Y106.64 E35.44193
G0 F3600 X63.984 Y104.894
G1 F1500 X63.984 Y109.124 E35.65296
G0 F3600 X61.318 Y109.124
G1 F1500 X61.318 Y104.894 E35.864
G1 F1500 E29.364
G0 F3600 X49.868 Y109.523
G0 X49.364 Y110.027
G0 X49.364 Y159.973
G0 X49.868 Y160.477
G0 X64.366 Y160.716
G1 F1500 E35.864
G1 X64.366 Y165.266 E36.091
G1 X57.144 Y165.266 E36.4513
G1 X56.745 Y165.665 E36.47946
G1 X56.745 Y166.406 E36.51642
G1 X56.25 Y166.199 E36.54319
G1 X56.25 Y164.591 E36.62342
G1 X57.463 Y163.38 E36.70893
G1 X57.645 Y162.939 E36.73273
G1 X57.645 Y160.716 E36.84364
G1 X64.366 Y160.716 E37.17895
G0 F3600 X63.984 Y160.876
G1 F1500 X63.984 Y165.106 E37.38998
G0 F3600 X64.205 Y162.626
G1 F1500 X57.804 Y162.626 E37.70933
G0 F3600 X58.652 Y160.876
G1 F1500 X58.652 Y165.106 E37.92037
G0 F3600 X56.89 Y165.292
G1 F1500 X56.409 Y165.292 E37.94436
G0 F3600 X61.318 Y165.106
G1 F1500 X61.318 Y160.876 E38.1554
G1 F1500 E31.6554
G0 F3600 X56.984 Y166.009
G0 X56.984 Y168.774
G0 X57.488 Y169.278
G0 X142.512 Y169.278
G0 X143.016 Y168.774
G0 X143.016 Y166.009
G0 X142.512 Y165.505
G0 X135.634 Y160.716
G1 F1500 E38.1554
G1 X142.355 Y160.716 E38.49071
G1 X142.355 Y163.198 E38.61454
G1 X143.75 Y164.592 E38.71293
G1 X143.75 Y166.199 E38.7931
G1 X143.255 Y166.406 E38.81987
G1 X143.255 Y165.665 E38.85684
G1 X142.856 Y165.266 E38.88499
G1 X135.634 Y165.266 E39.2453
G1 X135.634 Y160.716 E39.4723
G0 F3600 X135.966 Y160.876
G1 F1500 X135.966 Y165.106 E39.68333
G0 F3600 X135.794 Y162.626
G1 F1500 X142.195 Y162.626 E40.00268
G0 F3600 X141.298 Y160.876
G1 F1500 X141.298 Y165.106 E40.21372
G0 F3600 X143.109 Y165.292
G1 F1500 X143.59 Y165.292 E40.23771
G0 F3600 X138.632 Y165.106
G1 F1500 X138.632 Y160.876 E40.44875
G1 F1500 E33.94875
G0 F3600 X150.132 Y160.477
G0 X150.636 Y159.973
G0 X150.636 Y110.027
G0 X150.132 Y109.523
G0 X135.634 Y109.284
G1 F1500 E40.44875
G1 X135.634 Y104.734 E40.67575
G1 X142.856 Y104.734 E41.03606
G1 X143.255 Y104.335 E41.06421
G1 X143.255 Y103.585 E41.10163
G1 X143.75 Y103.795 E41.12845
G1 X143.75 Y105.409 E41.20897
G1 X142.537 Y106.62 E41.29449
G1 X142.355 Y107.061 E41.31829
G1 X142.355 Y109.284 E41.4292
G1 X135.634 Y109.284 E41.76451
G0 F3600 X135.966 Y109.124
G1 F1500 X135.966 Y104.894 E41.97554
G0 F3600 X135.794 Y106.64
G1 F1500 X142.354 Y106.64 E42.30282
G0 F3600 X141.298 Y104.894
G1 F1500 X141.298 Y109.124 E42.51386
G0 F3600 X138.632 Y109.124
G1 F1500 X138.632 Y104.894 E42.72489
G1 F1500 E36.22489
G0 F3600 X142.512 Y104.495
G0 X143.415 Y103.974
G1 F1500 E42.72489
G1 X143.59 Y103.974 E42.73362
G1 F1500 E36.23362
G0 F3600 X143.02 Y103.22
G0 X141.741 Y103.22
G0 X141.685 Y103.164
G0 X141.755 Y103.234
;TYPE:WALL-INNER
G1 F1500 E42.73362
G1 X134.134 Y103.234 E43.11384
G1 X134.134 Y110.784 E43.49051
G1 X149.375 Y110.784 E44.25089
G1 X149.375 Y159.216 E46.66717
G1 X134.134 Y159.216 E47.42754
G1 X134.134 Y166.766 E47.80422
G1 X141.755 Y166.766 E48.18443
G1 X141.755 Y168.017 E48.24684
G1 X58.245 Y168.017 E52.41317
G1 X58.245 Y166.766 E52.47558
G1 X65.866 Y166.766 E52.8558
G1 X65.866 Y159.216 E53.23247
G1 X50.625 Y159.216 E53.99285
G1 X50.625 Y110.784 E56.40913
G1 X65.866 Y110.784 E57.1695
G1 X65.866 Y103.234 E57.54618
G1 X58.245 Y103.234 E57.92639
G1 X58.245 Y101.983 E57.9888
G1 X141.755 Y101.983 E62.15513
G1 X141.755 Y103.234 E62.21754
G0 F3600 X141.685 Y103.164
G0 X134.106 Y103.206
G0 X134.106 Y110.812
G0 X145.612 Y113.86
G0 X145.642 Y113.955
G1 F1500 X145.367 Y114.07 E62.23242
G1 X145.11 Y114.231 E62.24755
G1 X144.886 Y114.437 E62.26273
G1 X144.703 Y114.677 E62.27779
G1 X144.564 Y114.944 E62.2928
G1 X144.473 Y115.23 E62.30778
G1 X144.433 Y115.532 E62.32298
G1 X144.447 Y115.836 E62.33816
G1 X144.513 Y116.128 E62.35309
G1 X144.627 Y116.407 E62.36813
G1 X144.783 Y116.65 E62.38254
G1 X144.896 Y116.786 E62.39136
G1 X145.11 Y116.982 E62.40584
G1 X145.366 Y117.144 E62.42095
G1 X145.631 Y117.255 E62.43528
G1 X145.789 Y117.297 E62.44344
G1 X145.941 Y117.324 E62.45114
G1 X146.104 Y117.337 E62.4593
G1 X146.39 Y117.325 E62.47358
G1 X146.685 Y117.259 E62.48866
G1 X146.963 Y117.145 E62.50365
G1 X147.219 Y116.982 E62.51879
G1 X147.442 Y116.777 E62.53391
G1 X147.626 Y116.538 E62.54895
G1 X147.765 Y116.271 E62.56397
G1 X147.853 Y115.993 E62.57852
G1 X147.88 Y115.833 E62.58662
G1 X147.895 Y115.669 E62.59483
G1 X147.882 Y115.38 E62.60926
G1 X147.816 Y115.086 E62.6243
G1 X147.702 Y114.807 E62.63933
G1 X147.546 Y114.564 E62.65374
G1 X147.434 Y114.429 E62.66249
G1 X147.219 Y114.231 E62.67707
G1 X146.974 Y114.077 E62.69151
G1 X146.827 Y114.008 E62.69961
G1 X146.672 Y113.952 E62.70783
G1 X146.402 Y113.892 E62.72163
G1 X146.226 Y113.877 E62.73045
G1 X145.939 Y113.889 E62.74478
G1 X145.642 Y113.955 E62.75996
G0 F3600 X145.612 Y113.86
G0 X144.857 Y114.411
G0 X144.528 Y114.929
G0 X144.394 Y115.531
G0 X146.226 Y152.564
G0 X146.225 Y152.663
G1 F1500 X145.939 Y152.675 E62.77424
G1 X145.644 Y152.741 E62.78932
G1 X145.366 Y152.855 E62.80431
G1 X145.11 Y153.018 E62.81945
G1 X144.887 Y153.223 E62.83456
G1 X144.703 Y153.462 E62.84961
G1 X144.564 Y153.729 E62.86463
G1 X144.476 Y154.007 E62.87918
G1 X144.449 Y154.167 E62.88727
G1 X144.434 Y154.331 E62.89549
G1 X144.447 Y154.62 E62.90992
G1 X144.513 Y154.914 E62.92495
G1 X144.627 Y155.193 E62.93999
G1 X144.783 Y155.436 E62.9544
G1 X144.895 Y155.571 E62.96315
G1 X145.11 Y155.769 E62.97773
G1 X145.355 Y155.923 E62.99217
G1 X145.502 Y155.992 E63.00027
G1 X145.657 Y156.048 E63.00849
G1 X145.927 Y156.108 E63.02229
G1 X146.103 Y156.123 E63.0311
G1 X146.39 Y156.111 E63.04543
G1 X146.687 Y156.045 E63.06061
G1 X146.962 Y155.93 E63.07548
G1 X147.219 Y155.769 E63.09061
G1 X147.443 Y155.563 E63.1058
G1 X147.626 Y155.323 E63.12085
G1 X147.765 Y155.056 E63.13587
G1 X147.856 Y154.77 E63.15084
G1 X147.896 Y154.468 E63.16604
G1 X147.882 Y154.164 E63.18122
G1 X147.816 Y153.872 E63.19616
G1 X147.702 Y153.593 E63.2112
G1 X147.546 Y153.35 E63.2256
G1 X147.433 Y153.214 E63.23442
G1 X147.219 Y153.018 E63.2489
G1 X146.963 Y152.856 E63.26402
G1 X146.698 Y152.745 E63.27835
G1 X146.54 Y152.703 E63.28651
G1 X146.388 Y152.676 E63.29421
G1 X146.225 Y152.663 E63.30237
G0 F3600 X146.226 Y152.564
G0 X55.666 Y154.472
G0 X55.567 Y154.468
G1 F1500 X55.553 Y154.164 E63.31755
G1 X55.487 Y153.872 E63.33249
G1 X55.373 Y153.593 E63.34752
G1 X55.217 Y153.35 E63.36193
G1 X55.104 Y153.214 E63.37075
G1 X54.89 Y153.018 E63.38523
G1 X54.634 Y152.856 E63.40034
G1 X54.369 Y152.745 E63.41468
G1 X54.211 Y152.703 E63.42283
G1 X54.059 Y152.676 E63.43053
G1 X53.896 Y152.663 E63.43869
G1 X53.61 Y152.675 E63.45297
G1 X53.315 Y152.741 E63.46805
G1 X53.037 Y152.855 E63.48305
G1 X52.781 Y153.018 E63.49819
G1 X52.558 Y153.223 E63.5133
G1 X52.374 Y153.462 E63.52835
G1 X52.235 Y153.729 E63.54336
G1 X52.147 Y154.007 E63.55791
G1 X52.12 Y154.167 E63.56601
G1 X52.105 Y154.331 E63.57422
G1 X52.118 Y154.62 E63.58866
G1 X52.184 Y154.914 E63.60369
G1 X52.298 Y155.193 E63.61873
G1 X52.454 Y155.436 E63.63313
G1 X52.566 Y155.571 E63.64188
G1 X52.781 Y155.769 E63.65647
G1 X53.026 Y155.923 E63.6709
G1 X53.173 Y155.992 E63.679
G1 X53.328 Y156.048 E63.68723
G1 X53.598 Y156.108 E63.70103
G1 X53.774 Y156.123 E63.70984
G1 X54.061 Y156.111 E63.72417
G1 X54.358 Y156.045 E63.73935
G1 X54.633 Y155.93 E63.75422
G1 X54.89 Y155.769 E63.76935
G1 X55.114 Y155.563 E63.78453
G1 X55.297 Y155.323 E63.79959
G1 X55.436 Y155.056 E63.81461
G1 X55.527 Y154.77 E63.82958
G1 X55.567 Y154.468 E63.84478
G0 F3600 X55.666 Y154.472
G0 X54.074 Y117.424
G0 X54.061 Y117.325
G1 F1500 X54.356 Y117.259 E63.85986
G1 X54.634 Y117.145 E63.87485
G1 X54.89 Y116.982 E63.88999
G1 X55.113 Y116.777 E63.9051
G1 X55.297 Y116.538 E63.92015
G1 X55.436 Y116.271 E63.93517
G1 X55.524 Y115.993 E63.94972
G1 X55.551 Y115.833 E63.95781
G1 X55.566 Y115.669 E63.96603
G1 X55.553 Y115.38 E63.98046
G1 X55.487 Y115.086 E63.99549
G1 X55.373 Y114.807 E64.01053
G1 X55.217 Y114.564 E64.02494
G1 X55.105 Y114.429 E64.03369
G1 X54.89 Y114.231 E64.04827
G1 X54.645 Y114.077 E64.06271
G1 X54.498 Y114.008 E64.07081
G1 X54.343 Y113.952 E64.07903
G1 X54.073 Y113.892 E64.09283
G1 X53.897 Y113.877 E64.10164
G1 X53.61 Y113.889 E64.11597
G1 X53.313 Y113.955 E64.13115
G1 X53.038 Y114.07 E64.14602
G1 X52.781 Y114.231 E64.16115
G1 X52.557 Y114.437 E64.17634
G1 X52.374 Y114.677 E64.19139
G1 X52.235 Y114.944 E64.20641
G1 X52.144 Y115.23 E64.22138
G1 X52.104 Y115.532 E64.23658
G1 X52.118 Y115.836 E64.25177
G1 X52.184 Y116.128 E64.2667
G1 X52.298 Y116.407 E64.28174
G1 X52.454 Y116.65 E64.29614
G1 X52.567 Y116.786 E64.30497
G1 X52.781 Y116.982 E64.31944
G1 X53.037 Y117.144 E64.33456
G1 X53.302 Y117.255 E64.34889
G1 X53.46 Y117.297 E64.35705
G1 X53.612 Y117.324 E64.36475
G1 X53.775 Y117.337 E64.37291
G1 X54.061 Y117.325 E64.38719
G0 F3600 X54.009 Y116.927
;TYPE:WALL-OUTER
G1 F1500 X54.235 Y116.876 E64.39875
G1 X54.449 Y116.788 E64.41029
G1 X54.646 Y116.663 E64.42193
G1 X54.817 Y116.506 E64.43351
G1 X54.958 Y116.322 E64.44508
G1 X55.065 Y116.117 E64.45662
G1 X55.134 Y115.899 E64.46802
G1 X55.154 Y115.781 E64.47399
G1 X55.165 Y115.66 E64.48006
G1 X55.155 Y115.433 E64.49139
G1 X55.104 Y115.207 E64.50295
G1 X55.016 Y114.992 E64.51454
G1 X54.894 Y114.801 E64.52585
G1 X54.814 Y114.705 E64.53208
G1 X54.646 Y114.55 E64.54349
G1 X54.453 Y114.429 E64.55485
G1 X54.345 Y114.378 E64.56081
G1 X54.231 Y114.337 E64.56685
G1 X54.013 Y114.288 E64.578
G1 X53.889 Y114.278 E64.58421
G1 X53.662 Y114.287 E64.59554
G1 X53.435 Y114.338 E64.60715
G1 X53.222 Y114.427 E64.61867
G1 X53.025 Y114.55 E64.63025
G1 X52.854 Y114.708 E64.64187
G1 X52.713 Y114.892 E64.65343
G1 X52.606 Y115.098 E64.66501
G1 X52.536 Y115.318 E64.67653
G1 X52.505 Y115.549 E64.68816
G1 X52.516 Y115.782 E64.6998
G1 X52.567 Y116.007 E64.71131
G1 X52.655 Y116.222 E64.7229
G1 X52.777 Y116.413 E64.73421
G1 X52.857 Y116.509 E64.74044
G1 X53.025 Y116.663 E64.75181
G1 X53.222 Y116.788 E64.76345
G1 X53.431 Y116.875 E64.77474
G1 X53.547 Y116.906 E64.78073
G1 X53.663 Y116.927 E64.78662
G1 X53.782 Y116.936 E64.79257
G1 X54.009 Y116.927 E64.8039
G0 F3600 X54.204 Y116.883
G0 X54.312 Y117.371
G0 X53.452 Y117.336
G0 X53.019 Y117.179
G0 X52.539 Y116.813
G0 X52.263 Y116.425
G0 X50.695 Y110.854
G0 X50.225 Y110.384
G1 F1500 X65.466 Y110.384 E65.56428
G1 X65.466 Y103.634 E65.90104
G1 X57.845 Y103.634 E66.28125
G1 X57.845 Y101.583 E66.38358
G1 X142.155 Y101.583 E70.58982
G1 X142.155 Y103.634 E70.69215
G1 X134.534 Y103.634 E71.07236
G1 X134.534 Y110.384 E71.40912
G1 X149.775 Y110.384 E72.16949
G1 X149.775 Y159.616 E74.62569
G1 X134.534 Y159.616 E75.38606
G1 X134.534 Y166.366 E75.72282
G1 X142.155 Y166.366 E76.10304
G1 X142.155 Y168.417 E76.20536
G1 X57.845 Y168.417 E80.4116
G1 X57.845 Y166.366 E80.51393
G1 X65.466 Y166.366 E80.89414
G1 X65.466 Y159.616 E81.2309
G1 X50.225 Y159.616 E81.99128
G1 X50.225 Y110.384 E84.44747
G0 F3600 X50.425 Y110.384
G0 X50.695 Y110.854
G0 X53.641 Y152.573
G0 X53.662 Y153.073
G1 F1500 X53.436 Y153.124 E84.45903
