;FLAVOR:Marlin
;TIME:229
;Filament used: 0.171224m
;Layer height: 0.2
;Generated with Cura_SteamEngine 2.7.0
M190 S65
M104 S210
M109 S210
G21 ;metric values
G90 ;absolute positioning
M82 ;set extruder to absolute mode
M107 ;start with the fan off
G28 X0 Y0 ;move X/Y to min endstops
G28 Z0 ;move Z to min endstops
G1 Z15.0 F9000 ;move the platform down 15mm
G92 E0 ;zero the extruded length
G1 F200 E3 ;extrude 3mm of feed stock
G92 E0 ;zero the extruded length again
G1 F9000
;Put printing message on LCD screen
M117 Printing...
;LAYER_COUNT:31
;LAYER:0
M107
G0 F3600 X145.417 Y118.937 Z0.3
;TYPE:SKIRT
G1 F1500 X145.801 Y118.508 E0.02872
G1 X146.456 Y117.88 E0.074
G1 X146.84 Y117.558 E0.099
G1 X147.573 Y117.021 E0.14433
G1 X148.067 Y116.714 E0.17335
G1 X149.139 Y116.157 E0.23362
G1 X149.748 Y115.905 E0.2665
G1 X150.902 Y115.541 E0.32687
G1 X151.546 Y115.398 E0.35978
G1 X152.747 Y115.239 E0.42022
G1 X153.413 Y115.21 E0.45348
G1 X154.621 Y115.263 E0.51381
G1 X155.277 Y115.349 E0.54681
G1 X156.458 Y115.611 E0.60717
G1 X157.086 Y115.809 E0.64002
G1 X158.204 Y116.271 E0.70037
G1 X158.795 Y116.578 E0.7336
G1 X159.815 Y117.228 E0.79394
G1 X160.4 Y117.688 E0.83107
G1 X161.492 Y118.733 E0.90647
G1 X161.93 Y119.232 E0.9396
G1 X162.467 Y119.965 E0.98493
G1 X162.774 Y120.459 E1.01395
G1 X163.331 Y121.531 E1.07422
G1 X163.582 Y122.137 E1.10694
G1 X163.947 Y123.291 E1.16733
G1 X164.091 Y123.941 E1.20054
G1 X164.249 Y125.141 E1.26093
G1 X164.278 Y125.803 E1.29399
G1 X164.225 Y127.012 E1.35436
G1 X164.156 Y127.587 E1.38326
G1 X163.979 Y128.477 E1.42853
G1 X163.795 Y129.11 E1.46142
G1 X163.249 Y130.518 E1.53676
G1 X162.954 Y131.117 E1.57007
G1 X162.482 Y131.894 E1.61543
G1 X162.194 Y132.304 E1.64042
G1 X161.624 Y133.012 E1.68577
G1 X161.294 Y133.372 E1.71013
G1 X160.639 Y134 E1.75541
G1 X160.19 Y134.369 E1.7844
G1 X159.2 Y135.063 E1.84472
G1 X158.549 Y135.43 E1.882
G1 X157.164 Y136.039 E1.95749
G1 X156.454 Y136.27 E1.99474
G1 X155.273 Y136.531 E2.05508
G1 X154.62 Y136.617 E2.08794
G1 X153.413 Y136.67 E2.14821
G1 X152.753 Y136.642 E2.18117
G1 X151.552 Y136.485 E2.2416
G1 X150.899 Y136.34 E2.27497
G1 X149.745 Y135.975 E2.33535
G1 X149.212 Y135.761 E2.36401
G1 X148.398 Y135.36 E2.40928
G1 X147.827 Y135.013 E2.44261
G1 X146.609 Y134.118 E2.51802
G1 X146.116 Y133.686 E2.55073
G1 X145.488 Y133.031 E2.596
G1 X145.119 Y132.582 E2.62499
G1 X144.425 Y131.592 E2.68531
G1 X144.092 Y131.016 E2.7185
G1 X143.581 Y129.919 E2.77888
G1 X143.383 Y129.394 E2.80687
G1 X143.15 Y128.608 E2.84777
G1 X143.032 Y128.07 E2.87525
G1 X142.999 Y127.606 E2.89846
G1 X142.964 Y127.506 E2.90375
G1 X142.859 Y126.965 E2.93124
G1 X142.832 Y126.519 E2.95353
G1 X142.83 Y125.376 E3.01056
G1 X142.869 Y124.826 E3.03806
G1 X142.987 Y124.288 E3.06554
G1 X142.995 Y124.268 E3.06662
G1 X142.994 Y124.256 E3.06722
G1 X143.048 Y123.707 E3.09474
G1 X143.202 Y123.111 E3.12545
G1 X143.667 Y121.766 E3.19645
G1 X143.924 Y121.184 E3.22819
G1 X144.36 Y120.387 E3.27352
G1 X144.68 Y119.897 E3.30271
G1 X145.417 Y118.937 E3.36309
G0 F3600 X145.734 Y119.181
G1 F1500 X146.078 Y118.797 E3.38881
G1 X146.733 Y118.169 E3.43409
G1 X147.077 Y117.88 E3.4565
G1 X147.81 Y117.343 E3.50183
G1 X148.251 Y117.069 E3.52774
G1 X149.323 Y116.512 E3.58801
G1 X149.868 Y116.286 E3.61744
G1 X151.022 Y115.922 E3.67781
G1 X151.599 Y115.794 E3.7073
G1 X152.8 Y115.635 E3.76774
G1 X153.395 Y115.609 E3.79745
G1 X154.603 Y115.662 E3.85778
G1 X155.19 Y115.74 E3.88732
G1 X156.371 Y116.002 E3.94767
G1 X156.934 Y116.179 E3.97712
G1 X158.052 Y116.641 E4.03747
G1 X158.58 Y116.916 E4.06717
G1 X159.6 Y117.566 E4.12751
G1 X160.124 Y117.977 E4.16074
G1 X161.216 Y119.022 E4.23614
G1 X161.608 Y119.469 E4.26581
G1 X162.145 Y120.202 E4.31114
G1 X162.419 Y120.643 E4.33704
G1 X162.976 Y121.715 E4.39731
G1 X163.201 Y122.258 E4.42664
G1 X163.566 Y123.412 E4.48702
G1 X163.695 Y123.993 E4.51671
G1 X163.853 Y125.193 E4.5771
G1 X163.879 Y125.786 E4.60671
G1 X163.826 Y126.995 E4.66709
G1 X163.764 Y127.509 E4.69292
G1 X163.587 Y128.399 E4.73819
G1 X163.422 Y128.965 E4.7676
G1 X162.876 Y130.373 E4.84294
G1 X162.612 Y130.909 E4.87275
G1 X162.14 Y131.686 E4.91811
G1 X161.882 Y132.053 E4.94049
G1 X161.312 Y132.761 E4.98584
G1 X161.017 Y133.083 E5.00762
G1 X160.362 Y133.711 E5.05289
G1 X159.961 Y134.041 E5.0788
G1 X158.971 Y134.735 E5.13912
G1 X158.388 Y135.063 E5.1725
G1 X157.003 Y135.672 E5.24798
G1 X156.368 Y135.88 E5.28132
G1 X155.187 Y136.141 E5.34166
G1 X154.602 Y136.218 E5.37109
G1 X153.395 Y136.271 E5.43137
G1 X152.805 Y136.245 E5.46083
G1 X151.604 Y136.088 E5.52126
G1 X151.02 Y135.959 E5.5511
G1 X149.866 Y135.594 E5.61148
G1 X149.388 Y135.402 E5.63718
G1 X148.574 Y135.001 E5.68245
G1 X148.064 Y134.691 E5.71223
G1 X146.846 Y133.796 E5.78764
G1 X146.405 Y133.409 E5.81691
G1 X145.777 Y132.754 E5.86218
G1 X145.447 Y132.353 E5.88809
G1 X144.753 Y131.363 E5.94841
G1 X144.455 Y130.847 E5.97814
G1 X143.944 Y129.75 E6.03851
G1 X143.766 Y129.28 E6.06359
G1 X143.533 Y128.494 E6.10449
G1 X143.424 Y127.985 E6.13046
G1 X143.398 Y127.541 E6.15265
G1 X143.293 Y127.154 E6.17265
G1 X143.232 Y126.518 E6.20453
G1 X143.23 Y125.375 E6.26155
G1 X143.269 Y124.855 E6.28757
G1 X143.387 Y124.348 E6.31354
G1 X143.402 Y124.311 E6.31553
G1 X143.416 Y123.956 E6.33326
G1 X143.58 Y123.242 E6.3698
G1 X144.045 Y121.897 E6.4408
G1 X144.275 Y121.376 E6.46922
G1 X144.711 Y120.579 E6.51454
G1 X144.997 Y120.141 E6.54064
G1 X145.734 Y119.181 E6.60102
G0 F3600 X146.051 Y119.424
G1 F1500 X146.355 Y119.086 E6.6237
G1 X147.01 Y118.458 E6.66897
G1 X147.313 Y118.203 E6.68873
G1 X148.046 Y117.666 E6.73406
G1 X148.436 Y117.424 E6.75696
G1 X149.508 Y116.867 E6.81723
G1 X149.989 Y116.668 E6.8432
G1 X151.143 Y116.304 E6.90357
G1 X151.651 Y116.191 E6.92953
G1 X152.852 Y116.032 E6.98997
G1 X153.377 Y116.009 E7.01619
G1 X154.585 Y116.062 E7.07652
G1 X155.104 Y116.13 E7.10263
G1 X156.285 Y116.392 E7.16298
G1 X156.781 Y116.548 E7.18892
G1 X157.899 Y117.01 E7.24928
G1 X158.365 Y117.253 E7.2755
G1 X159.385 Y117.903 E7.33584
G1 X159.847 Y118.266 E7.36515
G1 X160.939 Y119.311 E7.44056
G1 X161.285 Y119.705 E7.46672
G1 X161.822 Y120.438 E7.51205
G1 X162.064 Y120.828 E7.53495
G1 X162.621 Y121.9 E7.59522
G1 X162.819 Y122.378 E7.62103
G1 X163.184 Y123.532 E7.68142
G1 X163.298 Y124.045 E7.70764
G1 X163.456 Y125.245 E7.76802
G1 X163.479 Y125.768 E7.79414
G1 X163.426 Y126.977 E7.85451
G1 X163.371 Y127.431 E7.87733
G1 X163.194 Y128.321 E7.9226
G1 X163.049 Y128.821 E7.94858
G1 X162.503 Y130.229 E8.02392
G1 X162.27 Y130.702 E8.05022
G1 X161.798 Y131.479 E8.09558
G1 X161.571 Y131.802 E8.11528
G1 X161.001 Y132.51 E8.16062
G1 X160.74 Y132.794 E8.17987
G1 X160.085 Y133.422 E8.22514
G1 X159.731 Y133.714 E8.24803
G1 X158.741 Y134.408 E8.30835
G1 X158.227 Y134.697 E8.33777
G1 X156.842 Y135.306 E8.41325
G1 X156.281 Y135.489 E8.44269
G1 X155.1 Y135.75 E8.50303
G1 X154.585 Y135.818 E8.52895
G1 X153.378 Y135.871 E8.58923
G1 X152.857 Y135.849 E8.61524
G1 X151.656 Y135.692 E8.67567
G1 X151.14 Y135.577 E8.70204
G1 X149.986 Y135.212 E8.76243
G1 X149.565 Y135.043 E8.78506
G1 X148.751 Y134.642 E8.83033
G1 X148.301 Y134.369 E8.85659
G1 X147.083 Y133.474 E8.932
G1 X146.694 Y133.132 E8.95784
G1 X146.066 Y132.477 E9.00311
G1 X145.774 Y132.123 E9.02601
G1 X145.08 Y131.133 E9.08632
G1 X144.818 Y130.678 E9.11252
G1 X144.307 Y129.581 E9.1729
G1 X144.15 Y129.167 E9.19499
G1 X143.917 Y128.381 E9.23589
G1 X143.816 Y127.902 E9.26031
G1 X143.797 Y127.465 E9.28213
G1 X143.736 Y127.295 E9.29114
G1 X143.647 Y126.814 E9.31555
G1 X143.632 Y126.517 E9.33038
G1 X143.63 Y125.374 E9.38741
G1 X143.669 Y124.886 E9.41183
G1 X143.787 Y124.411 E9.43625
G1 X143.803 Y124.374 E9.43826
G1 X143.799 Y124.165 E9.44869
G1 X143.869 Y123.681 E9.47309
G1 X143.958 Y123.373 E9.48908
G1 X144.423 Y122.028 E9.56008
G1 X144.626 Y121.568 E9.58517
G1 X145.062 Y120.771 E9.63049
G1 X145.314 Y120.384 E9.65353
G1 X146.051 Y119.424 E9.71391
G0 F3600 X146.369 Y119.668
G1 F1500 X146.632 Y119.374 E9.73359
G1 X147.287 Y118.746 E9.77886
G1 X147.549 Y118.526 E9.79593
G1 X148.282 Y117.989 E9.84126
G1 X148.62 Y117.779 E9.86112
G1 X149.692 Y117.222 E9.92139
G1 X150.109 Y117.049 E9.94391
G1 X151.263 Y116.685 E10.00428
G1 X151.704 Y116.587 E10.02682
G1 X152.905 Y116.428 E10.08726
G1 X153.36 Y116.408 E10.10998
G1 X154.568 Y116.461 E10.17031
G1 X155.017 Y116.521 E10.19291
G1 X156.198 Y116.783 E10.25326
G1 X156.628 Y116.918 E10.27574
G1 X157.746 Y117.38 E10.3361
G1 X158.15 Y117.59 E10.35881
G1 X159.17 Y118.24 E10.41915
G1 X159.571 Y118.555 E10.4446
G1 X160.663 Y119.6 E10.52
G1 X160.962 Y119.941 E10.54263
G1 X161.499 Y120.674 E10.58796
G1 X161.709 Y121.012 E10.60781
G1 X162.266 Y122.084 E10.66808
G1 X162.438 Y122.499 E10.6905
G1 X162.803 Y123.653 E10.75088
G1 X162.902 Y124.098 E10.77363
G1 X163.06 Y125.298 E10.83401
G1 X163.08 Y125.751 E10.85663
G1 X163.027 Y126.96 E10.91701
G1 X162.979 Y127.353 E10.93676
G1 X162.802 Y128.243 E10.98203
G1 X162.676 Y128.676 E11.00453
G1 X162.13 Y130.084 E11.07987
G1 X161.928 Y130.494 E11.10268
G1 X161.456 Y131.271 E11.14803
G1 X161.259 Y131.551 E11.16511
G1 X160.689 Y132.259 E11.21046
G1 X160.463 Y132.506 E11.22716
G1 X159.808 Y133.134 E11.27243
G1 X159.501 Y133.386 E11.29225
G1 X158.511 Y134.08 E11.35257
G1 X158.066 Y134.331 E11.37806
G1 X156.681 Y134.94 E11.45354
G1 X156.195 Y135.099 E11.47905
G1 X155.014 Y135.36 E11.53939
G1 X154.567 Y135.418 E11.56188
G1 X153.36 Y135.471 E11.62216
G1 X152.909 Y135.452 E11.64468
G1 X151.708 Y135.295 E11.7051
G1 X151.261 Y135.196 E11.72795
G1 X150.107 Y134.831 E11.78833
G1 X149.742 Y134.684 E11.80796
G1 X148.928 Y134.283 E11.85323
G1 X148.537 Y134.046 E11.87604
G1 X147.319 Y133.151 E11.95145
G1 X146.982 Y132.855 E11.97383
G1 X146.354 Y132.2 E12.0191
G1 X146.102 Y131.893 E12.03892
G1 X145.408 Y130.903 E12.09923
G1 X145.18 Y130.509 E12.12194
G1 X144.669 Y129.412 E12.18232
G1 X144.533 Y129.053 E12.20147
G1 X144.3 Y128.267 E12.24237
G1 X144.209 Y127.82 E12.26513
G1 X144.199 Y127.421 E12.28504
G1 X144.183 Y127.385 E12.28701
G1 X144.068 Y126.944 E12.30975
G1 X144.032 Y126.517 E12.33113
G1 X144.03 Y125.374 E12.38815
G1 X144.069 Y124.92 E12.41088
G1 X144.187 Y124.479 E12.43366
G1 X144.202 Y124.447 E12.43542
G1 X144.193 Y124.331 E12.44123
G1 X144.237 Y123.878 E12.46393
G1 X144.336 Y123.503 E12.48328
G1 X144.801 Y122.158 E12.55428
G1 X144.977 Y121.76 E12.57599
G1 X145.413 Y120.963 E12.62132
G1 X145.632 Y120.628 E12.64129
G1 X146.369 Y119.668 E12.70167
G0 F3600 X146.686 Y119.911
G1 F1500 X146.908 Y119.663 E12.71827
G1 X147.563 Y119.035 E12.76354
G1 X147.786 Y118.848 E12.77806
G1 X148.519 Y118.311 E12.8234
G1 X148.805 Y118.134 E12.84018
G1 X149.877 Y117.577 E12.90045
G1 X150.229 Y117.431 E12.91946
G1 X151.383 Y117.067 E12.97983
G1 X151.756 Y116.984 E12.99889
G1 X152.957 Y116.825 E13.05933
G1 X153.342 Y116.808 E13.07856
G1 X154.55 Y116.861 E13.13889
G1 X154.93 Y116.911 E13.15801
G1 X156.111 Y117.173 E13.21836
G1 X156.475 Y117.288 E13.2374
G1 X157.593 Y117.75 E13.29776
G1 X157.935 Y117.928 E13.31699
G1 X158.955 Y118.578 E13.37733
G1 X159.294 Y118.844 E13.39883
G1 X160.386 Y119.889 E13.47424
G1 X160.64 Y120.178 E13.49343
G1 X161.177 Y120.911 E13.53877
G1 X161.354 Y121.197 E13.55555
G1 X161.911 Y122.269 E13.61582
G1 X162.057 Y122.62 E13.63478
G1 X162.422 Y123.774 E13.69517
G1 X162.505 Y124.15 E13.71438
G1 X162.663 Y125.35 E13.77476
G1 X162.68 Y125.733 E13.79389
G1 X162.627 Y126.942 E13.85427
G1 X162.587 Y127.275 E13.871
G1 X162.41 Y128.165 E13.91627
G1 X162.303 Y128.531 E13.9353
G1 X161.757 Y129.939 E14.01064
G1 X161.586 Y130.286 E14.02994
G1 X161.114 Y131.063 E14.07529
G1 X160.948 Y131.301 E14.08977
G1 X160.378 Y132.009 E14.13512
G1 X160.187 Y132.217 E14.14921
G1 X159.532 Y132.845 E14.19448
G1 X159.272 Y133.058 E14.21125
G1 X158.282 Y133.752 E14.27156
G1 X157.905 Y133.965 E14.29317
G1 X156.52 Y134.574 E14.36865
G1 X156.109 Y134.708 E14.39022
G1 X154.928 Y134.969 E14.45056
G1 X154.55 Y135.019 E14.46958
G1 X153.343 Y135.072 E14.52986
G1 X152.961 Y135.055 E14.54893
G1 X151.76 Y134.898 E14.60936
G1 X151.382 Y134.815 E14.62867
G1 X150.228 Y134.45 E14.68905
G1 X149.919 Y134.326 E14.70567
G1 X149.105 Y133.925 E14.75094
G1 X148.774 Y133.724 E14.77026
G1 X147.556 Y132.829 E14.84566
G1 X147.271 Y132.579 E14.86458
G1 X146.643 Y131.924 E14.90985
G1 X146.43 Y131.664 E14.92662
G1 X145.736 Y130.674 E14.98694
G1 X145.543 Y130.34 E15.00618
G1 X145.032 Y129.243 E15.06656
G1 X144.917 Y128.939 E15.08277
G1 X144.684 Y128.153 E15.12367
G1 X144.603 Y127.742 E15.14457
G1 X144.603 Y127.346 E15.16433
G1 X144.493 Y127.025 E15.18126
G1 X144.432 Y126.516 E15.20683
G1 X144.43 Y125.373 E15.26386
G1 X144.469 Y124.956 E15.28475
G1 X144.587 Y124.553 E15.3057
G1 X144.605 Y124.519 E15.30762
G1 X144.595 Y124.451 E15.31105
G1 X144.616 Y124.033 E15.33193
G1 X144.714 Y123.634 E15.35243
G1 X145.179 Y122.289 E15.42343
G1 X145.328 Y121.952 E15.44181
G1 X145.764 Y121.155 E15.48714
G1 X145.949 Y120.871 E15.50405
G1 X146.686 Y119.911 E15.56443
G0 F3600 X147.003 Y120.155
G1 F1500 X147.185 Y119.952 E15.57803
G1 X147.84 Y119.324 E15.6233
G1 X148.022 Y119.171 E15.63516
G1 X148.755 Y118.634 E15.6805
G1 X148.989 Y118.489 E15.69423
G1 X150.061 Y117.932 E15.7545
G1 X150.35 Y117.812 E15.77011
G1 X151.504 Y117.448 E15.83048
G1 X151.809 Y117.381 E15.84606
G1 X153.01 Y117.222 E15.9065
G1 X153.325 Y117.208 E15.92223
G1 X154.533 Y117.261 E15.98256
G1 X154.844 Y117.302 E15.99821
G1 X156.025 Y117.564 E16.05856
G1 X156.322 Y117.657 E16.07409
G1 X157.44 Y118.119 E16.13444
G1 X157.72 Y118.265 E16.15019
G1 X158.74 Y118.915 E16.21054
G1 X159.017 Y119.133 E16.22812
G1 X160.109 Y120.178 E16.30353
G1 X160.317 Y120.414 E16.31922
G1 X160.854 Y121.147 E16.36456
G1 X160.999 Y121.381 E16.37829
G1 X161.556 Y122.453 E16.43856
G1 X161.675 Y122.74 E16.45406
G1 X162.04 Y123.894 E16.51445
G1 X162.109 Y124.202 E16.53019
G1 X162.267 Y125.402 E16.59058
G1 X162.28 Y125.716 E16.60626
G1 X162.227 Y126.925 E16.66663
G1 X162.194 Y127.197 E16.6803
G1 X162.017 Y128.087 E16.72557
G1 X161.93 Y128.387 E16.74116
G1 X161.384 Y129.795 E16.8165
G1 X161.244 Y130.079 E16.8323
G1 X160.772 Y130.856 E16.87765
G1 X160.636 Y131.05 E16.88947
G1 X160.066 Y131.758 E16.93482
G1 X159.91 Y131.928 E16.94633
G1 X159.255 Y132.556 E16.9916
G1 X159.042 Y132.731 E17.00536
G1 X158.052 Y133.425 E17.06567
G1 X157.744 Y133.599 E17.08332
G1 X156.359 Y134.208 E17.15881
G1 X156.022 Y134.318 E17.17649
G1 X154.841 Y134.579 E17.23683
G1 X154.532 Y134.619 E17.25238
G1 X153.325 Y134.672 E17.31265
G1 X153.013 Y134.659 E17.32823
G1 X151.812 Y134.502 E17.38866
G1 X151.502 Y134.433 E17.40451
G1 X150.348 Y134.068 E17.46489
G1 X150.096 Y133.967 E17.47844
G1 X149.282 Y133.566 E17.52371
G1 X149.011 Y133.402 E17.53951
G1 X147.793 Y132.507 E17.61492
G1 X147.56 Y132.302 E17.6304
G1 X146.932 Y131.647 E17.67567
G1 X146.757 Y131.434 E17.68942
G1 X146.063 Y130.444 E17.74974
G1 X145.905 Y130.171 E17.76548
G1 X145.394 Y129.074 E17.82586
G1 X145.3 Y128.826 E17.83909
G1 X145.067 Y128.04 E17.87999
G1 X144.998 Y127.667 E17.89891
G1 X145.009 Y127.288 E17.91783
G1 X145.012 Y127.275 E17.91849
G1 X144.915 Y127.053 E17.93058
G1 X144.832 Y126.515 E17.95774
G1 X144.83 Y125.372 E18.01476
G1 X144.869 Y124.995 E18.03367
G1 X144.987 Y124.635 E18.05257
G1 X145.014 Y124.588 E18.05528
G1 X145.001 Y124.523 E18.05859
G1 X145.005 Y124.144 E18.07749
G1 X145.092 Y123.765 E18.09689
G1 X145.557 Y122.42 E18.16789
G1 X145.679 Y122.144 E18.18295
G1 X146.115 Y121.347 E18.22827
G1 X146.266 Y121.115 E18.24208
G1 X147.003 Y120.155 E18.30246
G0 F3600 X147.321 Y120.398
G1 F1500 X147.462 Y120.24 E18.31303
G1 X148.117 Y119.612 E18.3583
G1 X148.259 Y119.494 E18.36751
