;FLAVOR:Marlin
;TIME:227
;Filament used: 0.170521m
;Layer height: 0.2
;Generated with Cura_SteamEngine 2.7.0
M190 S65
M104 S210
M109 S210
G21 ;metric values
G90 ;absolute positioning
M82 ;set extruder to absolute mode
M107 ;start with the fan off
G28 X0 Y0 ;move X/Y to min endstops
G28 Z0 ;move Z to min endstops
G1 Z15.0 F9000 ;move the platform down 15mm
G92 E0 ;zero the extruded length
G1 F200 E3 ;extrude 3mm of feed stock
G92 E0 ;zero the extruded length again
G1 F9000
;Put printing message on LCD screen
M117 Printing...
;LAYER_COUNT:31
;LAYER:0
M107
G0 F3600 X41.758 Y57.678 Z0.3
;TYPE:SKIRT
G1 F1500 X42.253 Y57.37 E0.02909
G1 X43.324 Y56.814 E0.08929
G1 X43.932 Y56.563 E0.12211
G1 X45.086 Y56.199 E0.18248
G1 X45.73 Y56.056 E0.21539
G1 X46.93 Y55.897 E0.27578
G1 X47.595 Y55.868 E0.30899
G1 X48.804 Y55.921 E0.36936
G1 X49.461 Y56.007 E0.40242
G1 X50.642 Y56.269 E0.46277
G1 X51.269 Y56.467 E0.49558
G1 X52.388 Y56.929 E0.55597
G1 X52.982 Y57.237 E0.58936
G1 X54.001 Y57.887 E0.64966
G1 X54.584 Y58.346 E0.68668
G1 X55.676 Y59.391 E0.76208
G1 X56.114 Y59.89 E0.79521
G1 X56.651 Y60.623 E0.84054
G1 X56.915 Y61.037 E0.86504
G1 X57.353 Y61.833 E0.91036
G1 X57.596 Y62.369 E0.93973
G1 X58.008 Y63.505 E1.00001
G1 X58.163 Y64.061 E1.02881
G1 X58.34 Y64.952 E1.07413
G1 X58.409 Y65.526 E1.10297
G1 X58.462 Y66.735 E1.16335
G1 X58.434 Y67.394 E1.19626
G1 X58.277 Y68.593 E1.25659
G1 X58.156 Y69.167 E1.28585
G1 X57.901 Y70.039 E1.33118
G1 X57.733 Y70.502 E1.35575
G1 X57.368 Y71.332 E1.40099
G1 X57.094 Y71.844 E1.42996
G1 X56.444 Y72.864 E1.4903
G1 X56.098 Y73.326 E1.5191
G1 X55.499 Y74.01 E1.56446
G1 X55.083 Y74.417 E1.59349
G1 X54.156 Y75.195 E1.65387
G1 X53.612 Y75.576 E1.68701
G1 X52.565 Y76.18 E1.74731
G1 X52.04 Y76.431 E1.77634
G1 X51.192 Y76.76 E1.82172
G1 X50.641 Y76.927 E1.85044
G1 X49.46 Y77.189 E1.9108
G1 X48.804 Y77.275 E1.94381
G1 X47.597 Y77.328 E2.00408
G1 X46.934 Y77.3 E2.03719
G1 X45.733 Y77.142 E2.09762
G1 X45.086 Y76.998 E2.13069
G1 X43.932 Y76.634 E2.19106
G1 X43.394 Y76.418 E2.21998
G1 X42.581 Y76.017 E2.26521
G1 X42.012 Y75.671 E2.29843
G1 X40.794 Y74.776 E2.37384
G1 X40.301 Y74.344 E2.40654
G1 X39.673 Y73.689 E2.45182
G1 X39.306 Y73.242 E2.48067
G1 X38.611 Y72.252 E2.54102
G1 X38.275 Y71.671 E2.5745
G1 X37.765 Y70.574 E2.63486
G1 X37.569 Y70.055 E2.66253
G1 X37.335 Y69.268 E2.7035
G1 X37.216 Y68.73 E2.73099
G1 X37.183 Y68.258 E2.75459
G1 X37.149 Y68.163 E2.75963
G1 X37.044 Y67.622 E2.78712
G1 X37.017 Y67.176 E2.80941
G1 X37.015 Y66.033 E2.86644
G1 X37.054 Y65.483 E2.89395
G1 X37.172 Y64.945 E2.92142
G1 X37.18 Y64.925 E2.9225
G1 X37.179 Y64.913 E2.9231
G1 X37.233 Y64.364 E2.95062
G1 X37.358 Y63.853 E2.97687
G1 X37.699 Y62.786 E3.03275
G1 X37.91 Y62.264 E3.06084
G1 X38.312 Y61.448 E3.10622
G1 X38.564 Y61.012 E3.13135
G1 X39.069 Y60.258 E3.17662
G1 X39.479 Y59.747 E3.20931
G1 X40.523 Y58.655 E3.28468
G1 X41.024 Y58.216 E3.31791
G1 X41.758 Y57.678 E3.36332
G0 F3600 X41.994 Y58.001
G1 F1500 X42.437 Y57.725 E3.38936
G1 X43.508 Y57.169 E3.44956
G1 X44.052 Y56.944 E3.47893
G1 X45.206 Y56.58 E3.5393
G1 X45.782 Y56.452 E3.56874
G1 X46.982 Y56.293 E3.62913
G1 X47.578 Y56.267 E3.65889
G1 X48.787 Y56.32 E3.71927
G1 X49.374 Y56.398 E3.74881
G1 X50.555 Y56.66 E3.80916
G1 X51.117 Y56.836 E3.83854
G1 X52.236 Y57.298 E3.89894
G1 X52.766 Y57.575 E3.92878
G1 X53.785 Y58.225 E3.98908
G1 X54.308 Y58.635 E4.02223
G1 X55.4 Y59.68 E4.09764
G1 X55.792 Y60.127 E4.1273
G1 X56.329 Y60.86 E4.17263
G1 X56.565 Y61.23 E4.19453
G1 X57.003 Y62.026 E4.23986
G1 X57.22 Y62.506 E4.26614
G1 X57.632 Y63.642 E4.32642
G1 X57.771 Y64.139 E4.35217
G1 X57.948 Y65.03 E4.39749
G1 X58.01 Y65.543 E4.42327
G1 X58.063 Y66.752 E4.48365
G1 X58.037 Y67.342 E4.51311
G1 X57.88 Y68.541 E4.57344
G1 X57.772 Y69.054 E4.5996
G1 X57.517 Y69.926 E4.64492
G1 X57.366 Y70.341 E4.66695
G1 X57.001 Y71.171 E4.71219
G1 X56.756 Y71.629 E4.7381
G1 X56.106 Y72.649 E4.79845
G1 X55.797 Y73.062 E4.82418
G1 X55.198 Y73.746 E4.86954
G1 X54.826 Y74.11 E4.89551
G1 X53.899 Y74.888 E4.95588
G1 X53.412 Y75.229 E4.98554
G1 X52.365 Y75.833 E5.04585
G1 X51.896 Y76.058 E5.0718
G1 X51.048 Y76.387 E5.11718
G1 X50.554 Y76.536 E5.14292
G1 X49.373 Y76.798 E5.20327
G1 X48.786 Y76.876 E5.23282
G1 X47.579 Y76.929 E5.29309
G1 X46.987 Y76.903 E5.32266
G1 X45.786 Y76.745 E5.38309
G1 X45.206 Y76.617 E5.41272
G1 X44.052 Y76.253 E5.47309
G1 X43.571 Y76.059 E5.49897
G1 X42.758 Y75.658 E5.54419
G1 X42.249 Y75.349 E5.5739
G1 X41.031 Y74.454 E5.64931
G1 X40.59 Y74.067 E5.67858
G1 X39.962 Y73.412 E5.72385
G1 X39.633 Y73.013 E5.74965
G1 X38.938 Y72.023 E5.81
G1 X38.638 Y71.502 E5.83999
G1 X38.128 Y70.405 E5.90035
G1 X37.952 Y69.941 E5.92511
G1 X37.718 Y69.154 E5.96607
G1 X37.608 Y68.645 E5.99205
G1 X37.582 Y68.193 E6.01464
G1 X37.478 Y67.811 E6.03439
G1 X37.417 Y67.175 E6.06627
G1 X37.415 Y66.032 E6.12329
G1 X37.454 Y65.512 E6.14931
G1 X37.572 Y65.005 E6.17528
G1 X37.587 Y64.968 E6.17727
G1 X37.601 Y64.613 E6.19499
G1 X37.739 Y63.975 E6.22756
G1 X38.08 Y62.908 E6.28344
G1 X38.269 Y62.44 E6.30862
G1 X38.671 Y61.624 E6.35401
G1 X38.896 Y61.235 E6.37643
G1 X39.401 Y60.481 E6.4217
G1 X39.768 Y60.023 E6.45098
G1 X40.812 Y58.931 E6.52635
G1 X41.26 Y58.539 E6.55605
G1 X41.994 Y58.001 E6.60146
G0 F3600 X42.23 Y58.323
G1 F1500 X42.622 Y58.08 E6.62447
G1 X43.693 Y57.524 E6.68467
G1 X44.173 Y57.326 E6.71057
G1 X45.327 Y56.962 E6.77094
G1 X45.835 Y56.849 E6.79691
G1 X47.035 Y56.69 E6.8573
G1 X47.56 Y56.667 E6.88352
G1 X48.769 Y56.72 E6.94389
G1 X49.288 Y56.788 E6.97001
G1 X50.469 Y57.05 E7.03036
G1 X50.964 Y57.206 E7.05625
G1 X52.083 Y57.668 E7.11665
G1 X52.551 Y57.912 E7.14298
G1 X53.57 Y58.562 E7.20328
G1 X54.031 Y58.924 E7.23252
G1 X55.123 Y59.969 E7.30793
G1 X55.469 Y60.363 E7.33409
G1 X56.006 Y61.096 E7.37943
G1 X56.214 Y61.423 E7.39876
G1 X56.652 Y62.219 E7.44409
G1 X56.844 Y62.642 E7.46726
G1 X57.256 Y63.778 E7.52755
G1 X57.379 Y64.216 E7.55025
G1 X57.556 Y65.107 E7.59557
G1 X57.61 Y65.561 E7.61838
G1 X57.663 Y66.77 E7.67875
G1 X57.641 Y67.291 E7.70477
G1 X57.484 Y68.49 E7.7651
G1 X57.388 Y68.942 E7.78815
G1 X57.133 Y69.814 E7.83348
G1 X57 Y70.18 E7.85291
G1 X56.635 Y71.01 E7.89814
G1 X56.419 Y71.414 E7.921
G1 X55.769 Y72.434 E7.98134
G1 X55.496 Y72.798 E8.00404
G1 X54.897 Y73.482 E8.0494
G1 X54.569 Y73.804 E8.07233
G1 X53.642 Y74.582 E8.13271
G1 X53.212 Y74.883 E8.1589
G1 X52.165 Y75.487 E8.2192
G1 X51.751 Y75.685 E8.2421
G1 X50.903 Y76.014 E8.28748
G1 X50.468 Y76.146 E8.31015
G1 X49.287 Y76.408 E8.37051
G1 X48.769 Y76.476 E8.39657
G1 X47.562 Y76.529 E8.45685
G1 X47.039 Y76.506 E8.48297
G1 X45.838 Y76.348 E8.5434
G1 X45.327 Y76.235 E8.56951
G1 X44.173 Y75.871 E8.62988
G1 X43.748 Y75.701 E8.65272
G1 X42.935 Y75.3 E8.69794
G1 X42.486 Y75.027 E8.72416
G1 X41.268 Y74.132 E8.79957
G1 X40.879 Y73.79 E8.82541
G1 X40.251 Y73.135 E8.87068
G1 X39.961 Y72.783 E8.89343
G1 X39.266 Y71.793 E8.95378
G1 X39.001 Y71.334 E8.98022
G1 X38.491 Y70.237 E9.04058
G1 X38.335 Y69.827 E9.06246
G1 X38.101 Y69.04 E9.10342
G1 X38.001 Y68.561 E9.12784
G1 X37.981 Y68.119 E9.14991
G1 X37.921 Y67.952 E9.15876
G1 X37.832 Y67.471 E9.18317
G1 X37.817 Y67.174 E9.198
G1 X37.815 Y66.031 E9.25503
G1 X37.854 Y65.543 E9.27945
G1 X37.972 Y65.068 E9.30387
G1 X37.988 Y65.031 E9.30588
G1 X37.984 Y64.822 E9.31631
G1 X38.054 Y64.338 E9.34071
G1 X38.12 Y64.097 E9.35318
G1 X38.461 Y63.03 E9.40906
G1 X38.628 Y62.617 E9.43129
G1 X39.03 Y61.801 E9.47667
G1 X39.228 Y61.458 E9.49643
G1 X39.733 Y60.704 E9.5417
G1 X40.058 Y60.3 E9.56757
G1 X41.102 Y59.208 E9.64294
G1 X41.496 Y58.861 E9.66914
G1 X42.23 Y58.323 E9.71454
G0 F3600 X42.467 Y58.646
G1 F1500 X42.806 Y58.435 E9.73446
G1 X43.877 Y57.879 E9.79466
G1 X44.293 Y57.707 E9.81712
G1 X45.447 Y57.343 E9.87749
G1 X45.887 Y57.246 E9.89997
G1 X47.087 Y57.087 E9.96036
G1 X47.543 Y57.066 E9.98314
G1 X48.752 Y57.119 E10.04351
G1 X49.201 Y57.179 E10.06611
G1 X50.382 Y57.441 E10.12646
G1 X50.811 Y57.576 E10.1489
G1 X51.93 Y58.038 E10.2093
G1 X52.336 Y58.249 E10.23213
G1 X53.355 Y58.899 E10.29243
G1 X53.755 Y59.213 E10.3178
G1 X54.847 Y60.258 E10.3932
G1 X55.146 Y60.599 E10.41583
G1 X55.683 Y61.332 E10.46116
G1 X55.864 Y61.616 E10.47797
G1 X56.302 Y62.412 E10.52329
G1 X56.468 Y62.779 E10.54339
G1 X56.88 Y63.915 E10.60368
G1 X56.986 Y64.294 E10.62331
G1 X57.163 Y65.185 E10.66863
G1 X57.211 Y65.578 E10.68838
G1 X57.264 Y66.787 E10.74876
G1 X57.244 Y67.239 E10.77133
G1 X57.087 Y68.438 E10.83166
G1 X57.004 Y68.83 E10.85165
G1 X56.749 Y69.702 E10.89698
G1 X56.634 Y70.019 E10.9138
G1 X56.269 Y70.849 E10.95904
G1 X56.082 Y71.199 E10.97883
G1 X55.432 Y72.219 E11.03918
G1 X55.195 Y72.535 E11.05888
G1 X54.596 Y73.219 E11.10424
G1 X54.311 Y73.498 E11.12414
G1 X53.384 Y74.276 E11.18452
G1 X53.012 Y74.536 E11.20716
G1 X51.965 Y75.14 E11.26747
G1 X51.606 Y75.312 E11.28733
G1 X50.758 Y75.641 E11.33271
G1 X50.381 Y75.755 E11.35236
G1 X49.2 Y76.017 E11.41271
G1 X48.751 Y76.076 E11.4353
G1 X47.544 Y76.129 E11.49558
G1 X47.091 Y76.11 E11.5182
G1 X45.89 Y75.952 E11.57863
G1 X45.447 Y75.854 E11.60127
G1 X44.293 Y75.49 E11.66164
G1 X43.925 Y75.342 E11.68143
G1 X43.112 Y74.941 E11.72665
G1 X42.722 Y74.704 E11.74942
G1 X41.504 Y73.809 E11.82483
G1 X41.167 Y73.513 E11.84721
G1 X40.539 Y72.858 E11.89248
G1 X40.288 Y72.553 E11.91218
G1 X39.593 Y71.563 E11.97253
G1 X39.363 Y71.165 E11.99546
G1 X38.853 Y70.068 E12.05582
G1 X38.719 Y69.713 E12.07475
G1 X38.485 Y68.926 E12.11571
G1 X38.394 Y68.48 E12.13842
G1 X38.383 Y68.075 E12.15863
G1 X38.368 Y68.042 E12.16044
G1 X38.253 Y67.601 E12.18318
G1 X38.217 Y67.174 E12.20456
G1 X38.215 Y66.031 E12.26158
G1 X38.254 Y65.577 E12.28432
G1 X38.372 Y65.136 E12.30709
G1 X38.387 Y65.104 E12.30886
G1 X38.378 Y64.988 E12.31466
G1 X38.422 Y64.535 E12.33737
G1 X38.501 Y64.219 E12.35362
G1 X38.842 Y63.152 E12.4095
G1 X38.987 Y62.794 E12.42877
G1 X39.389 Y61.978 E12.47416
G1 X39.561 Y61.68 E12.49132
G1 X40.066 Y60.926 E12.5366
G1 X40.347 Y60.576 E12.55899
G1 X41.391 Y59.484 E12.63436
G1 X41.733 Y59.184 E12.65706
G1 X42.467 Y58.646 E12.70246
G0 F3600 X42.703 Y58.969
G1 F1500 X42.99 Y58.79 E12.71934
G1 X44.061 Y58.234 E12.77954
G1 X44.413 Y58.089 E12.79853
G1 X45.567 Y57.725 E12.8589
G1 X45.94 Y57.642 E12.87797
G1 X47.14 Y57.483 E12.93836
G1 X47.525 Y57.466 E12.95758
G1 X48.734 Y57.519 E13.01796
G1 X49.114 Y57.569 E13.03708
G1 X50.295 Y57.831 E13.09743
G1 X50.659 Y57.945 E13.11646
G1 X51.778 Y58.407 E13.17686
G1 X52.121 Y58.586 E13.19616
G1 X53.14 Y59.236 E13.25646
G1 X53.478 Y59.502 E13.27792
G1 X54.57 Y60.547 E13.35333
G1 X54.824 Y60.836 E13.37253
G1 X55.361 Y61.569 E13.41786
G1 X55.513 Y61.808 E13.43199
G1 X55.951 Y62.604 E13.47732
G1 X56.092 Y62.915 E13.49435
G1 X56.504 Y64.051 E13.55464
G1 X56.594 Y64.372 E13.57127
G1 X56.771 Y65.263 E13.61659
G1 X56.811 Y65.596 E13.63333
G1 X56.864 Y66.805 E13.6937
G1 X56.847 Y67.187 E13.71278
G1 X56.69 Y68.386 E13.77311
G1 X56.621 Y68.717 E13.78998
G1 X56.366 Y69.589 E13.8353
G1 X56.268 Y69.858 E13.84959
G1 X55.903 Y70.688 E13.89482
G1 X55.744 Y70.984 E13.91159
G1 X55.094 Y72.004 E13.97193
G1 X54.894 Y72.271 E13.98857
G1 X54.295 Y72.955 E14.03393
G1 X54.054 Y73.191 E14.05076
G1 X53.127 Y73.969 E14.11114
G1 X52.812 Y74.19 E14.13034
G1 X51.765 Y74.794 E14.19064
G1 X51.462 Y74.939 E14.2074
G1 X50.614 Y75.268 E14.25278
G1 X50.294 Y75.365 E14.26946
G1 X49.113 Y75.627 E14.32981
G1 X48.734 Y75.677 E14.34888
G1 X47.527 Y75.73 E14.40916
G1 X47.143 Y75.713 E14.42834
G1 X45.942 Y75.555 E14.48877
G1 X45.567 Y75.472 E14.50793
G1 X44.413 Y75.108 E14.5683
G1 X44.102 Y74.983 E14.58502
G1 X43.289 Y74.582 E14.63025
G1 X42.959 Y74.382 E14.6495
G1 X41.741 Y73.487 E14.72491
G1 X41.456 Y73.237 E14.74382
G1 X40.828 Y72.582 E14.78909
G1 X40.615 Y72.323 E14.80582
G1 X39.92 Y71.333 E14.86617
G1 X39.726 Y70.996 E14.88557
G1 X39.216 Y69.899 E14.94593
G1 X39.102 Y69.599 E14.96194
G1 X38.868 Y68.812 E15.0029
G1 X38.788 Y68.401 E15.02379
G1 X38.786 Y67.997 E15.04395
G1 X38.678 Y67.682 E15.06056
G1 X38.617 Y67.173 E15.08613
G1 X38.615 Y66.03 E15.14316
G1 X38.654 Y65.613 E15.16405
G1 X38.772 Y65.21 E15.185
G1 X38.79 Y65.176 E15.18692
G1 X38.78 Y65.108 E15.19035
G1 X38.801 Y64.69 E15.21123
G1 X38.882 Y64.34 E15.22916
G1 X39.223 Y63.273 E15.28504
G1 X39.345 Y62.971 E15.30129
G1 X39.747 Y62.155 E15.34667
G1 X39.893 Y61.903 E15.3612
G1 X40.398 Y61.149 E15.40648
G1 X40.636 Y60.853 E15.42543
G1 X41.68 Y59.761 E15.5008
G1 X41.969 Y59.507 E15.52
G1 X42.703 Y58.969 E15.5654
G0 F3600 X42.94 Y59.291
G1 F1500 X43.175 Y59.145 E15.5792
G1 X44.246 Y58.589 E15.6394
G1 X44.534 Y58.47 E15.65495
G1 X45.688 Y58.106 E15.71532
G1 X45.993 Y58.039 E15.7309
G1 X47.193 Y57.88 E15.79129
G1 X47.508 Y57.866 E15.80702
G1 X48.717 Y57.919 E15.8674
G1 X49.028 Y57.96 E15.88305
G1 X50.209 Y58.222 E15.9434
G1 X50.506 Y58.315 E15.95893
G1 X51.625 Y58.777 E16.01933
G1 X51.906 Y58.923 E16.03512
G1 X52.925 Y59.573 E16.09542
G1 X53.201 Y59.791 E16.11297
G1 X54.293 Y60.836 E16.18838
G1 X54.501 Y61.072 E16.20407
G1 X55.038 Y61.805 E16.24941
G1 X55.163 Y62.001 E16.261
G1 X55.601 Y62.797 E16.30633
G1 X55.716 Y63.051 E16.32024
G1 X56.128 Y64.187 E16.38053
G1 X56.202 Y64.45 E16.39416
G1 X56.379 Y65.341 E16.43948
G1 X56.411 Y65.613 E16.45314
G1 X56.464 Y66.822 E16.51352
G1 X56.451 Y67.135 E16.52915
G1 X56.294 Y68.334 E16.58948
G1 X56.237 Y68.605 E16.60329
G1 X55.982 Y69.477 E16.64862
G1 X55.902 Y69.697 E16.6603
G1 X55.537 Y70.527 E16.70553
G1 X55.407 Y70.769 E16.71924
G1 X54.757 Y71.789 E16.77958
G1 X54.593 Y72.008 E16.79323
G1 X53.994 Y72.692 E16.83859
G1 X53.797 Y72.885 E16.85235
G1 X52.87 Y73.663 E16.91273
G1 X52.612 Y73.843 E16.92842
G1 X51.565 Y74.447 E16.98873
G1 X51.317 Y74.566 E17.00245
G1 X50.469 Y74.895 E17.04783
G1 X50.208 Y74.974 E17.06144
G1 X49.027 Y75.236 E17.12179
G1 X48.716 Y75.277 E17.13744
G1 X47.509 Y75.33 E17.19771
G1 X47.195 Y75.317 E17.21339
G1 X45.994 Y75.159 E17.27383
G1 X45.688 Y75.091 E17.28947
G1 X44.534 Y74.727 E17.34984
G1 X44.279 Y74.624 E17.36356
G1 X43.466 Y74.223 E17.40878
G1 X43.196 Y74.06 E17.42452
G1 X41.978 Y73.165 E17.49992
G1 X41.745 Y72.96 E17.51541
G1 X41.117 Y72.305 E17.56068
G1 X40.943 Y72.093 E17.57436
G1 X40.248 Y71.103 E17.63471
G1 X40.089 Y70.828 E17.65056
G1 X39.579 Y69.731 E17.71091
G1 X39.486 Y69.485 E17.72403
G1 X39.252 Y68.698 E17.765
G1 X39.182 Y68.325 E17.78393
G1 X39.193 Y67.947 E17.8028
G1 X39.197 Y67.931 E17.80362
G1 X39.1 Y67.71 E17.81566
G1 X39.017 Y67.172 E17.84282
G1 X39.015 Y66.029 E17.89984
G1 X39.054 Y65.652 E17.91875
G1 X39.172 Y65.292 E17.93765
G1 X39.199 Y65.245 E17.94036
G1 X39.186 Y65.18 E17.94366
G1 X39.19 Y64.801 E17.96257
G1 X39.263 Y64.462 E17.97987
G1 X39.604 Y63.395 E18.03576
G1 X39.704 Y63.148 E18.04905
G1 X40.106 Y62.332 E18.09444
G1 X40.225 Y62.125 E18.10635
G1 X40.73 Y61.371 E18.15162
G1 X40.925 Y61.129 E18.16713
G1 X41.969 Y60.037 E18.2425
G1 X42.206 Y59.829 E18.25823
G1 X42.94 Y59.291 E18.30363
G0 F3600 X43.176 Y59.614
G1 F1500 X43.359 Y59.5 E18.31439
G1 X44.43 Y58.944 E18.37459
G1 X44.654 Y58.852 E18.38668
G1 X45.808 Y58.488 E18.44705
G1 X46.045 Y58.435 E18.45916
G1 X47.245 Y58.276 E18.51955
G1 X47.49 Y58.265 E18.53179
G1 X48.699 Y58.318 E18.59216
G1 X48.941 Y58.35 E18.60434
G1 X50.122 Y58.612 E18.6647
G1 X50.353 Y58.685 E18.67678
G1 X51.472 Y59.147 E18.73718
G1 X51.691 Y59.261 E18.7495
G1 X52.71 Y59.911 E18.8098
G1 X52.925 Y60.08 E18.82344
G1 X54.017 Y61.125 E18.89885
G1 X54.178 Y61.309 E18.91105
G1 X54.715 Y62.042 E18.95638
G1 X54.813 Y62.194 E18.9654
G1 X55.251 Y62.99 E19.01073
G1 X55.34 Y63.188 E19.02156
G1 X55.752 Y64.324 E19.08185
G1 X55.809 Y64.528 E19.09241
G1 X55.986 Y65.419 E19.13774
G1 X56.012 Y65.631 E19.14839
