;FLAVOR:Marlin
;TIME:210
;Filament used: 0.15152m
;Layer height: 0.2
;Generated with Cura_SteamEngine 2.7.0
M190 S65
M104 S210
M109 S210
G21 ;metric values
G90 ;absolute positioning
M82 ;set extruder to absolute mode
M107 ;start with the fan off
G28 X0 Y0 ;move X/Y to min endstops
G28 Z0 ;move Z to min endstops
G1 Z15.0 F9000 ;move the platform down 15mm
G92 E0 ;zero the extruded length
G1 F200 E3 ;extrude 3mm of feed stock
G92 E0 ;zero the extruded length again
G1 F9000
;Put printing message on LCD screen
M117 Printing...
;LAYER_COUNT:31
;LAYER:0
M107
G0 F3600 X94.036 Y126.748 Z0.3
;TYPE:SKIRT
G1 F1500 X94.965 Y126.151 E0.05509
G1 X95.555 Y125.842 E0.08832
G1 X96.575 Y125.416 E0.14347
G1 X97.205 Y125.215 E0.17646
G1 X98.281 Y124.973 E0.23148
G1 X98.936 Y124.884 E0.26446
G1 X100.036 Y124.832 E0.3194
G1 X100.697 Y124.859 E0.35241
G1 X101.792 Y124.999 E0.40748
G1 X102.44 Y125.14 E0.44057
G1 X103.493 Y125.468 E0.49559
G1 X104.029 Y125.681 E0.52437
G1 X104.773 Y126.044 E0.56567
G1 X105.206 Y126.292 E0.59056
G1 X105.897 Y126.75 E0.63192
G1 X106.358 Y127.109 E0.66107
G1 X107.173 Y127.852 E0.71609
G1 X107.618 Y128.334 E0.74882
G1 X108.293 Y129.206 E0.80384
G1 X108.652 Y129.765 E0.83698
G1 X109.165 Y130.742 E0.89203
G1 X109.422 Y131.355 E0.9252
G1 X109.757 Y132.406 E0.98023
G1 X109.901 Y133.046 E1.01296
G1 X110.05 Y134.138 E1.06794
G1 X110.082 Y134.803 E1.10116
G1 X110.038 Y135.906 E1.15623
G1 X109.954 Y136.564 E1.18933
G1 X109.719 Y137.642 E1.24437
G1 X109.563 Y138.171 E1.27189
G1 X109.456 Y138.427 E1.28573
G1 X108.763 Y139.927 E1.36816
G1 X108.496 Y140.409 E1.39565
G1 X108.336 Y140.636 E1.40951
G1 X107.667 Y141.514 E1.46458
G1 X107.226 Y141.999 E1.49728
G1 X106.417 Y142.748 E1.55229
G1 X105.889 Y143.157 E1.58561
G1 X104.96 Y143.754 E1.6407
G1 X104.37 Y144.063 E1.67393
G1 X103.35 Y144.489 E1.72908
G1 X102.72 Y144.69 E1.76207
G1 X101.644 Y144.932 E1.81709
G1 X100.99 Y145.021 E1.85002
G1 X99.891 Y145.073 E1.90491
G1 X99.23 Y145.046 E1.93792
G1 X98.133 Y144.906 E1.99309
G1 X97.484 Y144.765 E2.02622
G1 X96.431 Y144.437 E2.08125
G1 X95.893 Y144.223 E2.11013
G1 X95.15 Y143.86 E2.15139
G1 X94.719 Y143.613 E2.17617
G1 X94.028 Y143.155 E2.21753
G1 X93.567 Y142.796 E2.24668
G1 X92.752 Y142.053 E2.3017
G1 X92.306 Y141.57 E2.3345
G1 X91.63 Y140.696 E2.38963
G1 X91.272 Y140.138 E2.4227
G1 X90.759 Y139.161 E2.47776
G1 X90.522 Y138.607 E2.50782
G1 X90.229 Y137.737 E2.55362
G1 X90.085 Y137.17 E2.58281
G1 X89.914 Y136.178 E2.63303
G1 X89.859 Y135.522 E2.66587
G1 X89.862 Y134.338 E2.72494
G1 X89.935 Y133.607 E2.76159
G1 X90.187 Y132.339 E2.82609
G1 X90.333 Y131.808 E2.85356
G1 X90.465 Y131.484 E2.87102
G1 X91.163 Y129.976 E2.95392
G1 X91.589 Y129.269 E2.9951
G1 X92.258 Y128.391 E3.05017
G1 X92.699 Y127.906 E3.08288
G1 X93.508 Y127.157 E3.13788
G1 X94.036 Y126.748 E3.1712
G0 F3600 X94.252 Y127.085
G1 F1500 X95.181 Y126.488 E3.22629
G1 X95.709 Y126.211 E3.25604
G1 X96.729 Y125.785 E3.31119
G1 X97.293 Y125.605 E3.34072
G1 X98.369 Y125.363 E3.39575
G1 X98.954 Y125.284 E3.4252
G1 X100.054 Y125.232 E3.48014
G1 X100.646 Y125.255 E3.5097
G1 X101.741 Y125.395 E3.56477
G1 X102.321 Y125.522 E3.59439
G1 X103.374 Y125.85 E3.64942
G1 X103.854 Y126.04 E3.67517
G1 X104.598 Y126.403 E3.71647
G1 X104.985 Y126.625 E3.73873
G1 X105.676 Y127.083 E3.78009
G1 X106.089 Y127.404 E3.80619
G1 X106.904 Y128.147 E3.86121
G1 X107.302 Y128.579 E3.89051
G1 X107.977 Y129.451 E3.94553
G1 X108.298 Y129.951 E3.97517
G1 X108.811 Y130.928 E4.03022
G1 X109.04 Y131.476 E4.05985
G1 X109.375 Y132.527 E4.11489
G1 X109.505 Y133.1 E4.1442
G1 X109.654 Y134.192 E4.19919
G1 X109.682 Y134.788 E4.22895
G1 X109.638 Y135.891 E4.28403
G1 X109.563 Y136.479 E4.3136
G1 X109.328 Y137.557 E4.36865
G1 X109.093 Y138.259 E4.40558
G1 X108.4 Y139.759 E4.48801
G1 X108.017 Y140.394 E4.52501
G1 X107.348 Y141.272 E4.58008
G1 X106.954 Y141.706 E4.60933
G1 X106.145 Y142.455 E4.66433
G1 X105.673 Y142.82 E4.6941
G1 X104.744 Y143.417 E4.74919
G1 X104.216 Y143.694 E4.77894
G1 X103.196 Y144.12 E4.83408
G1 X102.632 Y144.3 E4.86362
G1 X101.556 Y144.542 E4.91864
G1 X100.971 Y144.621 E4.94809
G1 X99.872 Y144.673 E5.00298
G1 X99.281 Y144.65 E5.03249
G1 X98.184 Y144.51 E5.08767
G1 X97.603 Y144.383 E5.11734
G1 X96.55 Y144.055 E5.17236
G1 X96.068 Y143.864 E5.19823
G1 X95.325 Y143.501 E5.23948
G1 X94.94 Y143.28 E5.26163
G1 X94.249 Y142.822 E5.30299
G1 X93.836 Y142.501 E5.32909
G1 X93.021 Y141.758 E5.38411
G1 X92.623 Y141.325 E5.41345
G1 X91.947 Y140.451 E5.46857
G1 X91.626 Y139.952 E5.49817
G1 X91.113 Y138.975 E5.55323
G1 X90.901 Y138.479 E5.58014
G1 X90.608 Y137.609 E5.62594
G1 X90.479 Y137.102 E5.65204
G1 X90.308 Y136.11 E5.70226
G1 X90.259 Y135.523 E5.73165
G1 X90.262 Y134.339 E5.79072
G1 X90.327 Y133.685 E5.82351
G1 X90.579 Y132.417 E5.888
G1 X90.72 Y131.915 E5.91402
G1 X90.828 Y131.652 E5.9282
G1 X91.526 Y130.144 E6.01111
G1 X91.908 Y129.511 E6.04799
G1 X92.577 Y128.633 E6.10306
G1 X92.971 Y128.199 E6.13231
G1 X93.78 Y127.45 E6.18731
G1 X94.252 Y127.085 E6.21708
G0 F3600 X94.468 Y127.421
G1 F1500 X95.397 Y126.824 E6.27217
G1 X95.863 Y126.58 E6.29841
G1 X96.883 Y126.154 E6.35356
G1 X97.381 Y125.995 E6.37964
G1 X98.457 Y125.753 E6.43466
G1 X98.973 Y125.683 E6.46064
G1 X100.073 Y125.631 E6.51558
G1 X100.595 Y125.652 E6.54165
G1 X101.69 Y125.792 E6.59672
G1 X102.202 Y125.904 E6.62287
G1 X103.255 Y126.232 E6.67789
G1 X103.678 Y126.4 E6.7006
G1 X104.422 Y126.763 E6.7419
G1 X104.764 Y126.958 E6.76154
G1 X105.455 Y127.416 E6.8029
G1 X105.819 Y127.7 E6.82594
G1 X106.634 Y128.443 E6.88096
G1 X106.985 Y128.824 E6.9068
G1 X107.66 Y129.696 E6.96182
G1 X107.944 Y130.137 E6.98799
G1 X108.457 Y131.114 E7.04304
G1 X108.659 Y131.598 E7.06921
G1 X108.994 Y132.649 E7.12424
G1 X109.108 Y133.154 E7.15007
G1 X109.257 Y134.246 E7.20505
G1 X109.283 Y134.772 E7.23133
G1 X109.239 Y135.875 E7.2864
G1 X109.172 Y136.394 E7.31251
G1 X108.937 Y137.472 E7.36755
G1 X108.729 Y138.091 E7.40013
G1 X108.036 Y139.591 E7.48257
G1 X107.699 Y140.151 E7.51517
G1 X107.03 Y141.029 E7.57025
G1 X106.682 Y141.412 E7.59606
G1 X105.873 Y142.161 E7.65107
G1 X105.457 Y142.484 E7.67734
G1 X104.528 Y143.081 E7.73244
G1 X104.062 Y143.325 E7.75868
G1 X103.042 Y143.751 E7.81383
G1 X102.544 Y143.91 E7.83991
G1 X101.468 Y144.152 E7.89493
G1 X100.952 Y144.222 E7.92091
G1 X99.853 Y144.274 E7.9758
G1 X99.331 Y144.253 E8.00186
G1 X98.234 Y144.113 E8.05704
G1 X97.722 Y144.001 E8.08318
G1 X96.669 Y143.673 E8.13821
G1 X96.244 Y143.505 E8.16101
G1 X95.501 Y143.142 E8.20226
G1 X95.161 Y142.947 E8.22182
G1 X94.47 Y142.489 E8.26318
G1 X94.106 Y142.205 E8.28621
G1 X93.291 Y141.462 E8.34123
G1 X92.939 Y141.08 E8.36715
G1 X92.263 Y140.206 E8.42227
G1 X91.98 Y139.766 E8.44837
G1 X91.467 Y138.789 E8.50343
G1 X91.28 Y138.352 E8.52714
G1 X90.987 Y137.482 E8.57294
G1 X90.874 Y137.034 E8.59599
G1 X90.703 Y136.042 E8.64621
G1 X90.659 Y135.524 E8.67215
G1 X90.662 Y134.34 E8.73122
G1 X90.72 Y133.763 E8.76015
G1 X90.972 Y132.495 E8.82465
G1 X91.191 Y131.82 E8.86005
G1 X91.889 Y130.312 E8.94296
G1 X92.226 Y129.754 E8.97548
G1 X92.895 Y128.876 E9.03055
G1 X93.243 Y128.493 E9.05637
G1 X94.052 Y127.744 E9.11137
G1 X94.468 Y127.421 E9.13764
G0 F3600 X94.684 Y127.758
G1 F1500 X95.613 Y127.161 E9.19274
G1 X96.017 Y126.949 E9.2155
G1 X97.037 Y126.523 E9.27065
G1 X97.468 Y126.385 E9.29323
G1 X98.544 Y126.143 E9.34825
G1 X98.992 Y126.083 E9.3708
G1 X100.092 Y126.031 E9.42574
G1 X100.545 Y126.049 E9.44836
G1 X101.64 Y126.189 E9.50343
G1 X102.083 Y126.286 E9.52606
G1 X103.136 Y126.614 E9.58108
G1 X103.503 Y126.759 E9.60077
G1 X104.247 Y127.122 E9.64207
G1 X104.543 Y127.292 E9.6591
G1 X105.234 Y127.75 E9.70046
G1 X105.55 Y127.996 E9.72044
G1 X106.365 Y128.739 E9.77546
G1 X106.669 Y129.068 E9.79781
G1 X107.344 Y129.94 E9.85282
G1 X107.59 Y130.323 E9.87553
G1 X108.103 Y131.3 E9.93058
G1 X108.278 Y131.719 E9.95324
G1 X108.613 Y132.77 E10.00827
G1 X108.712 Y133.208 E10.03068
G1 X108.861 Y134.3 E10.08566
G1 X108.883 Y134.756 E10.10844
G1 X108.839 Y135.859 E10.16351
G1 X108.781 Y136.309 E10.18615
G1 X108.546 Y137.387 E10.24119
G1 X108.366 Y137.923 E10.2694
G1 X107.673 Y139.423 E10.35184
G1 X107.381 Y139.909 E10.38012
G1 X106.712 Y140.787 E10.43519
G1 X106.41 Y141.119 E10.45758
G1 X105.601 Y141.868 E10.51259
G1 X105.241 Y142.147 E10.53531
G1 X104.312 Y142.744 E10.5904
G1 X103.908 Y142.956 E10.61317
G1 X102.888 Y143.382 E10.66831
G1 X102.457 Y143.52 E10.69089
G1 X101.381 Y143.762 E10.74591
G1 X100.933 Y143.822 E10.76846
G1 X99.834 Y143.874 E10.82335
G1 X99.382 Y143.856 E10.84592
G1 X98.285 Y143.716 E10.9011
G1 X97.841 Y143.619 E10.92377
G1 X96.788 Y143.291 E10.97879
G1 X96.42 Y143.145 E10.99855
G1 X95.677 Y142.782 E11.0398
G1 X95.382 Y142.613 E11.05676
G1 X94.691 Y142.155 E11.09812
G1 X94.375 Y141.909 E11.1181
G1 X93.56 Y141.166 E11.17312
G1 X93.255 Y140.836 E11.19554
G1 X92.579 Y139.962 E11.25067
G1 X92.334 Y139.58 E11.27331
G1 X91.821 Y138.603 E11.32836
G1 X91.659 Y138.224 E11.34892
G1 X91.366 Y137.354 E11.39472
G1 X91.268 Y136.966 E11.41469
G1 X91.097 Y135.974 E11.46491
G1 X91.059 Y135.525 E11.48739
G1 X91.062 Y134.341 E11.54646
G1 X91.112 Y133.841 E11.57153
G1 X91.364 Y132.573 E11.63603
G1 X91.554 Y131.988 E11.66672
G1 X92.252 Y130.48 E11.74962
G1 X92.544 Y129.996 E11.77782
G1 X93.213 Y129.118 E11.83289
G1 X93.515 Y128.786 E11.85528
G1 X94.324 Y128.037 E11.91028
G1 X94.684 Y127.758 E11.93301
G0 F3600 X94.901 Y128.094
G1 F1500 X95.83 Y127.497 E11.9881
G1 X96.171 Y127.318 E12.00731
G1 X97.191 Y126.892 E12.06246
G1 X97.556 Y126.776 E12.08157
G1 X98.632 Y126.534 E12.13659
G1 X99.011 Y126.482 E12.15568
G1 X100.111 Y126.43 E12.21062
G1 X100.494 Y126.446 E12.22974
G1 X101.589 Y126.586 E12.28482
G1 X101.964 Y126.668 E12.30397
G1 X103.017 Y126.996 E12.35899
G1 X103.328 Y127.119 E12.37568
G1 X104.072 Y127.482 E12.41698
G1 X104.322 Y127.625 E12.43135
G1 X105.013 Y128.083 E12.47271
G1 X105.28 Y128.291 E12.48959
G1 X106.095 Y129.034 E12.54461
G1 X106.353 Y129.313 E12.56357
G1 X107.028 Y130.185 E12.61859
G1 X107.236 Y130.509 E12.6378
G1 X107.749 Y131.486 E12.69285
G1 X107.897 Y131.841 E12.71204
G1 X108.232 Y132.892 E12.76707
G1 X108.316 Y133.263 E12.78605
G1 X108.465 Y134.355 E12.84103
G1 X108.483 Y134.74 E12.86026
G1 X108.439 Y135.843 E12.91534
G1 X108.391 Y136.224 E12.93449
G1 X108.156 Y137.302 E12.98954
G1 X108.003 Y137.756 E13.01344
G1 X107.31 Y139.256 E13.09588
G1 X107.063 Y139.666 E13.11976
G1 X106.394 Y140.544 E13.17483
G1 X106.139 Y140.825 E13.19376
G1 X105.33 Y141.574 E13.24876
G1 X105.024 Y141.811 E13.26807
G1 X104.095 Y142.408 E13.32316
G1 X103.754 Y142.587 E13.34238
G1 X102.734 Y143.013 E13.39753
G1 X102.369 Y143.129 E13.41663
G1 X101.293 Y143.371 E13.47166
G1 X100.914 Y143.423 E13.49074
G1 X99.815 Y143.475 E13.54563
G1 X99.432 Y143.459 E13.56476
G1 X98.335 Y143.319 E13.61993
G1 X97.96 Y143.237 E13.63908
G1 X96.907 Y142.909 E13.69411
G1 X96.595 Y142.786 E13.71084
G1 X95.852 Y142.423 E13.75209
G1 X95.603 Y142.28 E13.76642
G1 X94.912 Y141.822 E13.80778
G1 X94.645 Y141.614 E13.82466
G1 X93.83 Y140.871 E13.87968
G1 X93.572 Y140.591 E13.89868
G1 X92.896 Y139.717 E13.9538
G1 X92.688 Y139.394 E13.97297
G1 X92.175 Y138.417 E14.02803
G1 X92.038 Y138.096 E14.04544
G1 X91.745 Y137.226 E14.09124
G1 X91.662 Y136.898 E14.10812
G1 X91.491 Y135.906 E14.15834
G1 X91.459 Y135.526 E14.17736
G1 X91.462 Y134.342 E14.23643
G1 X91.504 Y133.919 E14.25764
G1 X91.756 Y132.651 E14.32214
G1 X91.917 Y132.156 E14.34811
G1 X92.615 Y130.648 E14.43101
G1 X92.862 Y130.239 E14.45485
G1 X93.531 Y129.361 E14.50992
G1 X93.786 Y129.08 E14.52885
G1 X94.595 Y128.331 E14.58385
G1 X94.901 Y128.094 E14.60316
G0 F3600 X95.117 Y128.431
G1 F1500 X96.046 Y127.834 E14.65826
G1 X96.325 Y127.687 E14.67399
G1 X97.345 Y127.261 E14.72914
G1 X97.644 Y127.166 E14.74479
G1 X98.72 Y126.924 E14.79981
G1 X99.03 Y126.882 E14.81542
G1 X100.13 Y126.83 E14.87036
G1 X100.443 Y126.843 E14.88599
G1 X101.538 Y126.983 E14.94106
G1 X101.845 Y127.049 E14.95673
G1 X102.898 Y127.377 E15.01175
G1 X103.152 Y127.478 E15.02539
G1 X103.896 Y127.841 E15.06669
G1 X104.101 Y127.959 E15.07849
G1 X104.792 Y128.417 E15.11985
G1 X105.011 Y128.587 E15.13368
G1 X105.826 Y129.33 E15.1887
G1 X106.036 Y129.558 E15.20417
G1 X106.711 Y130.43 E15.25918
G1 X106.882 Y130.695 E15.27492
G1 X107.395 Y131.672 E15.32997
G1 X107.516 Y131.962 E15.34565
G1 X107.851 Y133.013 E15.40068
G1 X107.919 Y133.317 E15.41622
G1 X108.068 Y134.409 E15.47121
G1 X108.084 Y134.724 E15.48695
G1 X108.04 Y135.827 E15.54202
G1 X108 Y136.138 E15.55766
G1 X107.765 Y137.216 E15.61271
G1 X107.64 Y137.588 E15.63229
G1 X106.947 Y139.088 E15.71472
G1 X106.745 Y139.424 E15.73428
G1 X106.076 Y140.302 E15.78935
G1 X105.867 Y140.532 E15.80486
G1 X105.058 Y141.281 E15.85986
G1 X104.808 Y141.474 E15.87562
G1 X103.879 Y142.071 E15.93071
G1 X103.6 Y142.218 E15.94644
G1 X102.58 Y142.644 E16.00159
G1 X102.281 Y142.739 E16.01724
G1 X101.205 Y142.981 E16.07226
G1 X100.895 Y143.023 E16.08787
G1 X99.796 Y143.075 E16.14276
G1 X99.483 Y143.063 E16.15839
G1 X98.386 Y142.923 E16.21356
G1 X98.079 Y142.856 E16.22924
G1 X97.026 Y142.528 E16.28426
G1 X96.771 Y142.426 E16.29797
G1 X96.028 Y142.063 E16.33922
G1 X95.824 Y141.946 E16.35095
G1 X95.133 Y141.488 E16.39231
G1 X94.914 Y141.318 E16.40614
G1 X94.099 Y140.575 E16.46117
G1 X93.888 Y140.346 E16.4767
G1 X93.212 Y139.472 E16.53183
G1 X93.042 Y139.208 E16.54749
G1 X92.529 Y138.231 E16.60255
G1 X92.417 Y137.969 E16.61676
G1 X92.124 Y137.099 E16.66256
G1 X92.056 Y136.83 E16.6764
G1 X91.885 Y135.838 E16.72662
G1 X91.859 Y135.527 E16.74219
G1 X91.862 Y134.343 E16.80126
G1 X91.897 Y133.997 E16.81861
G1 X92.149 Y132.729 E16.88311
G1 X92.28 Y132.324 E16.90435
G1 X92.978 Y130.816 E16.98725
G1 X93.18 Y130.481 E17.00677
G1 X93.849 Y129.603 E17.06184
G1 X94.058 Y129.373 E17.07734
G1 X94.867 Y128.624 E17.13235
G1 X95.117 Y128.431 E17.1481
G0 F3600 X95.333 Y128.767
G1 F1500 X96.262 Y128.17 E17.2032
G1 X96.479 Y128.056 E17.21543
G1 X97.499 Y127.63 E17.27057
G1 X97.732 Y127.556 E17.28277
G1 X98.808 Y127.314 E17.33779
G1 X99.049 Y127.282 E17.34992
G1 X100.149 Y127.23 E17.40486
G1 X100.393 Y127.239 E17.41704
G1 X101.488 Y127.379 E17.47212
G1 X101.726 Y127.431 E17.48427
G1 X102.779 Y127.759 E17.5393
G1 X102.977 Y127.838 E17.54993
G1 X103.721 Y128.201 E17.59123
G1 X103.88 Y128.292 E17.60037
G1 X104.571 Y128.75 E17.64173
G1 X104.741 Y128.882 E17.65247
G1 X105.556 Y129.625 E17.70749
G1 X105.72 Y129.803 E17.71957
G1 X106.395 Y130.675 E17.77458
G1 X106.528 Y130.881 E17.78681
G1 X107.041 Y131.858 E17.84187
G1 X107.135 Y132.084 E17.85408
G1 X107.47 Y133.135 E17.90911
G1 X107.523 Y133.371 E17.92118
G1 X107.672 Y134.463 E17.97617
G1 X107.684 Y134.708 E17.9884
G1 X107.64 Y135.811 E18.04348
G1 X107.609 Y136.053 E18.05565
G1 X107.374 Y137.131 E18.11069
G1 X107.277 Y137.42 E18.1259
G1 X106.584 Y138.92 E18.20834
G1 X106.427 Y139.181 E18.22353
G1 X105.758 Y140.059 E18.2786
G1 X105.595 Y140.238 E18.29068
G1 X104.786 Y140.987 E18.34569
G1 X104.592 Y141.138 E18.35795
G1 X103.663 Y141.735 E18.41304
G1 X103.446 Y141.849 E18.42527
G1 X102.426 Y142.275 E18.48042
G1 X102.193 Y142.349 E18.49262
G1 X101.117 Y142.591 E18.54764
G1 X100.876 Y142.623 E18.55977
G1 X99.777 Y142.675 E18.61466
G1 X99.534 Y142.666 E18.62679
G1 X98.437 Y142.526 E18.68196
G1 X98.198 Y142.474 E18.69417
G1 X97.145 Y142.146 E18.74919
G1 X96.946 Y142.067 E18.75987
G1 X96.203 Y141.704 E18.80113
G1 X96.045 Y141.613 E18.81023
G1 X95.354 Y141.155 E18.85158
G1 X95.184 Y141.023 E18.86232
G1 X94.369 Y140.28 E18.91734
G1 X94.205 Y140.102 E18.92942
G1 X93.529 Y139.228 E18.98454
G1 X93.396 Y139.022 E18.99678
G1 X92.883 Y138.045 E19.05183
