;FLAVOR:Marlin
;TIME:230
;Filament used: 0.17093m
;Layer height: 0.2
;Generated with Cura_SteamEngine 2.7.0
M190 S65
M104 S210
M109 S210
G21 ;metric values
G90 ;absolute positioning
M82 ;set extruder to absolute mode
M107 ;start with the fan off
G28 X0 Y0 ;move X/Y to min endstops
G28 Z0 ;move Z to min endstops
G1 Z15.0 F9000 ;move the platform down 15mm
G92 E0 ;zero the extruded length
G1 F200 E3 ;extrude 3mm of feed stock
G92 E0 ;zero the extruded length again
G1 F9000
;Put printing message on LCD screen
M117 Printing...
;LAYER_COUNT:31
;LAYER:0
M107
G0 F3600 X35.367 Y191.959 Z0.3
;TYPE:SKIRT
G1 F1500 X35.944 Y191.89 E0.02899
G1 X37.152 Y191.838 E0.08931
G1 X37.808 Y191.866 E0.12207
G1 X39.007 Y192.023 E0.1824
G1 X39.657 Y192.167 E0.21562
G1 X40.811 Y192.531 E0.27599
G1 X41.422 Y192.784 E0.30898
G1 X42.496 Y193.343 E0.36938
G1 X43.056 Y193.699 E0.40249
G1 X44.015 Y194.435 E0.4628
G1 X44.444 Y194.82 E0.49156
G1 X45.072 Y195.475 E0.53683
G1 X45.394 Y195.859 E0.56183
G1 X45.932 Y196.593 E0.60724
G1 X46.24 Y197.088 E0.63632
G1 X46.796 Y198.159 E0.69652
G1 X47.046 Y198.764 E0.72918
G1 X47.411 Y199.918 E0.78957
G1 X47.555 Y200.568 E0.82278
G1 X47.713 Y201.768 E0.88317
G1 X47.742 Y202.43 E0.91623
G1 X47.689 Y203.639 E0.9766
G1 X47.603 Y204.293 E1.00951
G1 X47.342 Y205.474 E1.06985
G1 X47.143 Y206.107 E1.10296
G1 X46.68 Y207.226 E1.16338
G1 X46.374 Y207.815 E1.19649
G1 X45.724 Y208.835 E1.25683
G1 X45.263 Y209.422 E1.29407
G1 X44.218 Y210.513 E1.36944
G1 X43.722 Y210.948 E1.40235
G1 X42.99 Y211.485 E1.44765
G1 X42.496 Y211.792 E1.47666
G1 X41.422 Y212.351 E1.53707
G1 X40.735 Y212.627 E1.57401
G1 X39.285 Y213.051 E1.64938
G1 X38.624 Y213.182 E1.683
G1 X37.721 Y213.279 E1.72831
G1 X37.148 Y213.297 E1.75691
G1 X35.94 Y213.244 E1.81723
G1 X35.367 Y213.175 E1.84603
G1 X34.476 Y212.998 E1.89135
G1 X33.919 Y212.843 E1.92019
G1 X32.782 Y212.43 E1.98054
G1 X32.33 Y212.231 E2.00518
G1 X31.792 Y211.952 E2.03542
G1 X31.426 Y211.736 E2.05662
G1 X30.672 Y211.231 E2.10189
G1 X30.161 Y210.821 E2.13458
G1 X29.069 Y209.777 E2.20995
G1 X28.63 Y209.276 E2.24319
G1 X28.092 Y208.542 E2.28859
G1 X27.784 Y208.046 E2.31772
G1 X27.228 Y206.974 E2.37796
G1 X26.984 Y206.388 E2.40963
G1 X26.64 Y205.319 E2.46566
G1 X26.509 Y204.784 E2.49314
G1 X26.458 Y204.235 E2.52065
G1 X26.459 Y204.22 E2.5214
G1 X26.428 Y204.133 E2.526
G1 X26.323 Y203.592 E2.5535
G1 X26.296 Y203.146 E2.57579
G1 X26.294 Y202.003 E2.63282
G1 X26.333 Y201.453 E2.66032
G1 X26.451 Y200.915 E2.6878
G1 X26.459 Y200.895 E2.68888
G1 X26.458 Y200.883 E2.68948
G1 X26.512 Y200.334 E2.717
G1 X26.666 Y199.738 E2.74771
G1 X27.131 Y198.393 E2.81871
G1 X27.388 Y197.811 E2.85045
G1 X27.824 Y197.014 E2.89577
G1 X28.145 Y196.522 E2.92508
G1 X28.882 Y195.563 E2.98542
G1 X29.265 Y195.136 E3.01404
G1 X29.92 Y194.508 E3.05931
G1 X30.304 Y194.186 E3.08431
G1 X31.037 Y193.649 E3.12965
G1 X31.453 Y193.384 E3.15426
G1 X32.25 Y192.946 E3.19963
G1 X32.782 Y192.705 E3.22876
G1 X33.918 Y192.292 E3.28907
G1 X34.476 Y192.136 E3.31798
G1 X35.367 Y191.959 E3.3633
G0 F3600 X35.445 Y192.351
G1 F1500 X35.961 Y192.289 E3.38922
G1 X37.169 Y192.237 E3.44955
G1 X37.756 Y192.263 E3.47886
G1 X38.955 Y192.42 E3.53919
G1 X39.537 Y192.548 E3.56892
G1 X40.691 Y192.912 E3.62929
G1 X41.238 Y193.139 E3.65884
G1 X42.312 Y193.698 E3.71924
G1 X42.812 Y194.017 E3.74883
G1 X43.771 Y194.753 E3.80914
G1 X44.155 Y195.097 E3.83486
G1 X44.783 Y195.752 E3.88014
G1 X45.071 Y196.095 E3.90248
G1 X45.609 Y196.829 E3.94788
G1 X45.885 Y197.272 E3.97392
G1 X46.441 Y198.343 E4.03413
G1 X46.665 Y198.885 E4.06339
G1 X47.03 Y200.039 E4.12377
G1 X47.159 Y200.62 E4.15346
G1 X47.317 Y201.82 E4.21385
G1 X47.343 Y202.413 E4.24346
G1 X47.29 Y203.622 E4.30384
G1 X47.213 Y204.207 E4.33327
G1 X46.952 Y205.388 E4.39361
G1 X46.774 Y205.954 E4.42322
G1 X46.311 Y207.073 E4.48363
G1 X46.036 Y207.6 E4.51329
G1 X45.386 Y208.62 E4.57363
G1 X44.974 Y209.145 E4.60693
G1 X43.929 Y210.236 E4.6823
G1 X43.485 Y210.625 E4.71175
G1 X42.753 Y211.162 E4.75704
G1 X42.312 Y211.437 E4.78297
G1 X41.238 Y211.996 E4.84338
G1 X40.622 Y212.243 E4.87649
G1 X39.172 Y212.667 E4.95186
G1 X38.581 Y212.785 E4.98192
G1 X37.678 Y212.882 E5.02723
G1 X37.166 Y212.898 E5.05279
G1 X35.958 Y212.845 E5.11311
G1 X35.445 Y212.783 E5.13889
G1 X34.554 Y212.606 E5.18422
G1 X34.055 Y212.467 E5.21006
G1 X32.918 Y212.054 E5.27041
G1 X32.514 Y211.876 E5.29244
G1 X31.976 Y211.597 E5.32267
G1 X31.649 Y211.404 E5.34161
G1 X30.895 Y210.899 E5.38689
G1 X30.437 Y210.532 E5.41617
G1 X29.345 Y209.488 E5.49154
G1 X28.953 Y209.04 E5.52124
G1 X28.415 Y208.306 E5.56664
G1 X28.139 Y207.861 E5.59277
G1 X27.583 Y206.789 E5.65302
G1 X27.364 Y206.266 E5.6813
G1 X27.02 Y205.197 E5.73733
G1 X26.899 Y204.69 E5.76333
G1 X26.857 Y204.17 E5.78936
G1 X26.858 Y204.153 E5.79021
G1 X26.757 Y203.781 E5.80944
G1 X26.696 Y203.145 E5.84132
G1 X26.694 Y202.002 E5.89834
G1 X26.733 Y201.482 E5.92436
G1 X26.851 Y200.975 E5.95033
G1 X26.866 Y200.938 E5.95232
G1 X26.88 Y200.583 E5.97005
G1 X27.044 Y199.869 E6.0066
G1 X27.509 Y198.524 E6.07759
G1 X27.739 Y198.003 E6.10601
G1 X28.175 Y197.206 E6.15133
G1 X28.462 Y196.766 E6.17754
G1 X29.199 Y195.807 E6.23788
G1 X29.542 Y195.425 E6.26349
G1 X30.197 Y194.797 E6.30877
G1 X30.541 Y194.508 E6.33118
G1 X31.274 Y193.971 E6.37651
G1 X31.645 Y193.734 E6.39848
G1 X32.442 Y193.296 E6.44385
G1 X32.918 Y193.081 E6.46991
G1 X34.054 Y192.668 E6.53021
G1 X34.554 Y192.528 E6.55612
G1 X35.445 Y192.351 E6.60144
G0 F3600 X35.522 Y192.743
G1 F1500 X35.978 Y192.689 E6.62435
G1 X37.186 Y192.637 E6.68467
G1 X37.705 Y192.659 E6.71058
G1 X38.904 Y192.816 E6.77091
G1 X39.416 Y192.93 E6.79708
G1 X40.57 Y193.294 E6.85745
G1 X41.053 Y193.494 E6.88353
G1 X42.127 Y194.053 E6.94394
G1 X42.568 Y194.334 E6.97003
G1 X43.527 Y195.07 E7.03034
G1 X43.866 Y195.374 E7.05306
G1 X44.494 Y196.029 E7.09833
G1 X44.749 Y196.331 E7.11805
G1 X45.287 Y197.065 E7.16345
G1 X45.53 Y197.457 E7.18646
G1 X46.086 Y198.528 E7.24666
G1 X46.283 Y199.005 E7.27241
G1 X46.648 Y200.159 E7.33279
G1 X46.762 Y200.672 E7.35901
G1 X46.92 Y201.872 E7.4194
G1 X46.943 Y202.395 E7.44552
G1 X46.89 Y203.604 E7.50589
G1 X46.822 Y204.12 E7.53186
G1 X46.561 Y205.301 E7.5922
G1 X46.404 Y205.801 E7.61834
G1 X45.941 Y206.92 E7.67876
G1 X45.699 Y207.385 E7.70491
G1 X45.049 Y208.405 E7.76526
G1 X44.686 Y208.868 E7.79461
G1 X43.641 Y209.959 E7.86998
G1 X43.249 Y210.303 E7.896
G1 X42.517 Y210.84 E7.94129
G1 X42.127 Y211.082 E7.96419
G1 X41.053 Y211.641 E8.0246
G1 X40.51 Y211.859 E8.05379
G1 X39.06 Y212.283 E8.12916
G1 X38.538 Y212.387 E8.15571
G1 X37.635 Y212.484 E8.20102
G1 X37.184 Y212.498 E8.22353
G1 X35.976 Y212.445 E8.28386
G1 X35.522 Y212.391 E8.30667
G1 X34.631 Y212.214 E8.35199
G1 X34.192 Y212.091 E8.37474
G1 X33.055 Y211.678 E8.43509
G1 X32.698 Y211.521 E8.45454
G1 X32.16 Y211.242 E8.48478
G1 X31.872 Y211.072 E8.50146
G1 X31.118 Y210.567 E8.54674
G1 X30.714 Y210.242 E8.57261
G1 X29.622 Y209.198 E8.64798
G1 X29.275 Y208.804 E8.67417
G1 X28.737 Y208.07 E8.71958
G1 X28.494 Y207.677 E8.74263
G1 X27.938 Y206.605 E8.80288
G1 X27.745 Y206.143 E8.82785
G1 X27.401 Y205.074 E8.88388
G1 X27.29 Y204.597 E8.90831
G1 X27.257 Y204.109 E8.93272
G1 X27.259 Y204.086 E8.93387
G1 X27.2 Y203.922 E8.94256
G1 X27.111 Y203.441 E8.96697
G1 X27.096 Y203.144 E8.9818
G1 X27.094 Y202.001 E9.03883
G1 X27.133 Y201.513 E9.06325
G1 X27.251 Y201.038 E9.08767
G1 X27.267 Y201.001 E9.08968
G1 X27.263 Y200.792 E9.10011
G1 X27.333 Y200.308 E9.12451
G1 X27.422 Y200 E9.1405
G1 X27.887 Y198.655 E9.2115
G1 X28.09 Y198.195 E9.23659
G1 X28.526 Y197.398 E9.28191
G1 X28.779 Y197.01 E9.30502
G1 X29.516 Y196.051 E9.36536
G1 X29.819 Y195.714 E9.38797
G1 X30.474 Y195.086 E9.43324
G1 X30.777 Y194.831 E9.453
G1 X31.51 Y194.294 E9.49833
G1 X31.838 Y194.085 E9.51774
G1 X32.635 Y193.647 E9.56311
G1 X33.055 Y193.457 E9.58611
G1 X34.191 Y193.044 E9.64641
G1 X34.631 Y192.92 E9.66922
G1 X35.522 Y192.743 E9.71454
G0 F3600 X35.6 Y193.136
G1 F1500 X35.995 Y193.088 E9.73439
G1 X37.203 Y193.036 E9.79471
G1 X37.653 Y193.056 E9.81719
G1 X38.852 Y193.213 E9.87752
G1 X39.296 Y193.311 E9.9002
G1 X40.45 Y193.675 E9.96057
G1 X40.868 Y193.849 E9.98316
G1 X41.942 Y194.408 E10.04356
G1 X42.325 Y194.651 E10.06619
G1 X43.284 Y195.387 E10.1265
G1 X43.578 Y195.651 E10.14622
G1 X44.206 Y196.306 E10.19149
G1 X44.426 Y196.568 E10.20856
G1 X44.964 Y197.302 E10.25396
G1 X45.175 Y197.641 E10.27388
G1 X45.731 Y198.712 E10.33408
G1 X45.902 Y199.126 E10.35643
G1 X46.267 Y200.28 E10.41682
G1 X46.366 Y200.725 E10.43956
G1 X46.524 Y201.925 E10.49995
G1 X46.544 Y202.378 E10.52257
G1 X46.491 Y203.587 E10.58294
G1 X46.432 Y204.034 E10.60544
G1 X46.171 Y205.215 E10.66578
G1 X46.034 Y205.648 E10.68844
G1 X45.571 Y206.767 E10.74885
G1 X45.362 Y207.17 E10.7715
G1 X44.712 Y208.19 E10.83185
G1 X44.397 Y208.591 E10.85729
G1 X43.352 Y209.682 E10.93266
G1 X43.012 Y209.98 E10.95521
G1 X42.28 Y210.517 E11.00051
G1 X41.942 Y210.727 E11.02036
G1 X40.868 Y211.286 E11.08076
G1 X40.398 Y211.475 E11.10604
G1 X38.948 Y211.899 E11.18141
G1 X38.496 Y211.989 E11.2044
G1 X37.593 Y212.086 E11.24971
G1 X37.201 Y212.099 E11.26928
G1 X35.993 Y212.046 E11.3296
G1 X35.6 Y211.998 E11.34936
G1 X34.709 Y211.821 E11.39468
G1 X34.328 Y211.715 E11.41441
G1 X33.191 Y211.302 E11.47476
G1 X32.882 Y211.166 E11.4916
G1 X32.344 Y210.887 E11.52184
G1 X32.094 Y210.739 E11.53633
G1 X31.34 Y210.234 E11.58161
G1 X30.99 Y209.953 E11.604
G1 X29.898 Y208.909 E11.67937
G1 X29.598 Y208.567 E11.70207
G1 X29.06 Y207.833 E11.74747
G1 X28.849 Y207.493 E11.76743
G1 X28.293 Y206.421 E11.82768
G1 X28.126 Y206.02 E11.84935
G1 X27.782 Y204.951 E11.90538
G1 X27.681 Y204.507 E11.9281
G1 X27.659 Y204.052 E11.95082
G1 X27.66 Y204.041 E11.95137
G1 X27.647 Y204.012 E11.95296
G1 X27.532 Y203.571 E11.9757
G1 X27.496 Y203.144 E11.99708
G1 X27.494 Y202.001 E12.0541
G1 X27.533 Y201.547 E12.07683
G1 X27.651 Y201.106 E12.09961
G1 X27.666 Y201.074 E12.10137
G1 X27.657 Y200.958 E12.10718
G1 X27.701 Y200.505 E12.12988
G1 X27.8 Y200.13 E12.14923
G1 X28.265 Y198.785 E12.22023
G1 X28.441 Y198.387 E12.24194
G1 X28.877 Y197.59 E12.28727
G1 X29.096 Y197.254 E12.30728
G1 X29.833 Y196.295 E12.36762
G1 X30.096 Y196.002 E12.38726
G1 X30.751 Y195.374 E12.43253
G1 X31.013 Y195.154 E12.4496
G1 X31.746 Y194.617 E12.49493
G1 X32.031 Y194.435 E12.5118
G1 X32.828 Y193.997 E12.55718
G1 X33.192 Y193.832 E12.57711
G1 X34.328 Y193.419 E12.63742
G1 X34.709 Y193.313 E12.65715
G1 X35.6 Y193.136 E12.70247
G0 F3600 X35.678 Y193.528
G1 F1500 X36.012 Y193.488 E12.71925
G1 X37.22 Y193.436 E12.77958
G1 X37.601 Y193.453 E12.7986
G1 X38.8 Y193.61 E12.85893
G1 X39.176 Y193.693 E12.87814
G1 X40.33 Y194.057 E12.93851
G1 X40.684 Y194.204 E12.95763
G1 X41.758 Y194.763 E13.01804
G1 X42.081 Y194.969 E13.03715
G1 X43.04 Y195.705 E13.09746
G1 X43.289 Y195.927 E13.11411
G1 X43.917 Y196.582 E13.15938
G1 X44.103 Y196.804 E13.17383
G1 X44.641 Y197.538 E13.21923
G1 X44.82 Y197.825 E13.23611
G1 X45.376 Y198.896 E13.29631
G1 X45.521 Y199.247 E13.31526
G1 X45.886 Y200.401 E13.37564
G1 X45.969 Y200.777 E13.39485
G1 X46.127 Y201.977 E13.45524
G1 X46.144 Y202.36 E13.47436
G1 X46.091 Y203.569 E13.53474
G1 X46.041 Y203.948 E13.55381
G1 X45.78 Y205.129 E13.61415
G1 X45.665 Y205.495 E13.63329
G1 X45.202 Y206.614 E13.69371
G1 X45.024 Y206.955 E13.7129
G1 X44.374 Y207.975 E13.77324
G1 X44.108 Y208.315 E13.79478
G1 X43.063 Y209.406 E13.87015
G1 X42.775 Y209.658 E13.88924
G1 X42.043 Y210.195 E13.93454
G1 X41.758 Y210.372 E13.95127
G1 X40.684 Y210.931 E14.01168
G1 X40.285 Y211.092 E14.03314
G1 X38.835 Y211.516 E14.10851
G1 X38.453 Y211.591 E14.12794
G1 X37.55 Y211.688 E14.17325
G1 X37.219 Y211.699 E14.18977
G1 X36.011 Y211.646 E14.25009
G1 X35.678 Y211.606 E14.26683
G1 X34.787 Y211.429 E14.31215
G1 X34.465 Y211.339 E14.32883
G1 X33.328 Y210.926 E14.38918
G1 X33.066 Y210.811 E14.40345
G1 X32.528 Y210.532 E14.43369
G1 X32.317 Y210.407 E14.44593
G1 X31.563 Y209.902 E14.4912
G1 X31.267 Y209.664 E14.51015
G1 X30.175 Y208.62 E14.58552
G1 X29.921 Y208.331 E14.60472
G1 X29.383 Y207.597 E14.65012
G1 X29.204 Y207.309 E14.66704
G1 X28.648 Y206.237 E14.72729
G1 X28.507 Y205.898 E14.7456
G1 X28.163 Y204.829 E14.80163
G1 X28.073 Y204.42 E14.82252
G1 X28.062 Y204.001 E14.84343
G1 X28.067 Y203.972 E14.8449
G1 X27.957 Y203.652 E14.86178
G1 X27.896 Y203.143 E14.88736
G1 X27.894 Y202 E14.94438
G1 X27.933 Y201.583 E14.96528
G1 X28.051 Y201.18 E14.98623
G1 X28.069 Y201.146 E14.98815
G1 X28.059 Y201.078 E14.99158
G1 X28.08 Y200.66 E15.01246
G1 X28.178 Y200.261 E15.03295
G1 X28.643 Y198.916 E15.10395
G1 X28.792 Y198.579 E15.12234
G1 X29.228 Y197.782 E15.16766
G1 X29.414 Y197.497 E15.18464
G1 X30.151 Y196.538 E15.24498
G1 X30.372 Y196.291 E15.26152
G1 X31.027 Y195.663 E15.30679
G1 X31.25 Y195.476 E15.32131
G1 X31.983 Y194.939 E15.36664
G1 X32.223 Y194.786 E15.38084
G1 X33.02 Y194.348 E15.42621
G1 X33.328 Y194.208 E15.44309
G1 X34.464 Y193.795 E15.5034
G1 X34.787 Y193.705 E15.52012
G1 X35.678 Y193.528 E15.56544
G0 F3600 X35.756 Y193.92
G1 F1500 X36.03 Y193.888 E15.57921
G1 X37.238 Y193.836 E15.63953
G1 X37.549 Y193.849 E15.65506
G1 X38.748 Y194.006 E15.71539
G1 X39.055 Y194.074 E15.73108
G1 X40.209 Y194.438 E15.79145
G1 X40.499 Y194.558 E15.8071
G1 X41.573 Y195.117 E15.86751
G1 X41.838 Y195.286 E15.88319
G1 X42.797 Y196.022 E15.9435
G1 X43 Y196.204 E15.9571
G1 X43.628 Y196.859 E16.00237
G1 X43.781 Y197.041 E16.01424
G1 X44.319 Y197.775 E16.05964
G1 X44.465 Y198.01 E16.07344
G1 X45.021 Y199.081 E16.13365
G1 X45.139 Y199.367 E16.14908
G1 X45.504 Y200.521 E16.20947
G1 X45.573 Y200.829 E16.22521
G1 X45.731 Y202.029 E16.2856
G1 X45.744 Y202.343 E16.30128
G1 X45.691 Y203.552 E16.36165
G1 X45.651 Y203.861 E16.3772
G1 X45.39 Y205.042 E16.43754
G1 X45.295 Y205.342 E16.45324
G1 X44.832 Y206.461 E16.51365
G1 X44.687 Y206.74 E16.52934
G1 X44.037 Y207.76 E16.58968
G1 X43.819 Y208.038 E16.60731
G1 X42.774 Y209.129 E16.68268
G1 X42.539 Y209.335 E16.69827
G1 X41.807 Y209.872 E16.74356
G1 X41.573 Y210.018 E16.75732
G1 X40.499 Y210.577 E16.81773
G1 X40.173 Y210.708 E16.83526
G1 X38.723 Y211.132 E16.91063
G1 X38.41 Y211.194 E16.92655
G1 X37.507 Y211.291 E16.97186
G1 X37.236 Y211.299 E16.98538
G1 X36.028 Y211.246 E17.04571
G1 X35.756 Y211.214 E17.05937
G1 X34.865 Y211.037 E17.10469
G1 X34.601 Y210.963 E17.11837
G1 X33.464 Y210.55 E17.17872
G1 X33.25 Y210.456 E17.19038
G1 X32.712 Y210.177 E17.22062
G1 X32.539 Y210.075 E17.23064
G1 X31.785 Y209.57 E17.27591
G1 X31.543 Y209.375 E17.29142
G1 X30.451 Y208.331 E17.36679
G1 X30.243 Y208.094 E17.38252
G1 X29.705 Y207.36 E17.42793
G1 X29.559 Y207.125 E17.44173
G1 X29.003 Y206.053 E17.50198
G1 X28.888 Y205.775 E17.51699
G1 X28.544 Y204.706 E17.57301
G1 X28.466 Y204.335 E17.59193
G1 X28.468 Y203.957 E17.61078
G1 X28.479 Y203.908 E17.61329
G1 X28.379 Y203.68 E17.62571
G1 X28.296 Y203.142 E17.65287
G1 X28.294 Y201.999 E17.70989
G1 X28.333 Y201.622 E17.7288
G1 X28.451 Y201.262 E17.7477
G1 X28.478 Y201.215 E17.75041
G1 X28.465 Y201.15 E17.75372
G1 X28.469 Y200.771 E17.77262
G1 X28.556 Y200.392 E17.79202
G1 X29.021 Y199.047 E17.86302
G1 X29.143 Y198.771 E17.87808
G1 X29.579 Y197.974 E17.9234
G1 X29.731 Y197.741 E17.93728
G1 X30.468 Y196.782 E17.99762
G1 X30.649 Y196.58 E18.01115
G1 X31.304 Y195.952 E18.05643
G1 X31.486 Y195.799 E18.06829
G1 X32.219 Y195.262 E18.11362
G1 X32.416 Y195.137 E18.12526
G1 X33.213 Y194.699 E18.17063
G1 X33.465 Y194.584 E18.18445
G1 X34.601 Y194.171 E18.24476
G1 X34.865 Y194.097 E18.25844
G1 X35.756 Y193.92 E18.30376
G0 F3600 X35.834 Y194.313
G1 F1500 X36.047 Y194.287 E18.31446
G1 X37.255 Y194.235 E18.37479
