;FLAVOR:Marlin
;TIME:228
;Filament used: 0.171232m
;Layer height: 0.2
;Generated with Cura_SteamEngine 2.7.0
M190 S65
M104 S210
M109 S210
G21 ;metric values
G90 ;absolute positioning
M82 ;set extruder to absolute mode
M107 ;start with the fan off
G28 X0 Y0 ;move X/Y to min endstops
G28 Z0 ;move Z to min endstops
G1 Z15.0 F9000 ;move the platform down 15mm
G92 E0 ;zero the extruded length
G1 F200 E3 ;extrude 3mm of feed stock
G92 E0 ;zero the extruded length again
G1 F9000
;Put printing message on LCD screen
M117 Printing...
;LAYER_COUNT:31
;LAYER:0
M107
G0 F3600 X93.254 Y126.571 Z0.3
;TYPE:SKIRT
G1 F1500 X93.988 Y126.033 E0.0454
G1 X94.482 Y125.726 E0.07442
G1 X95.554 Y125.169 E0.13469
G1 X96.162 Y124.917 E0.16753
G1 X97.315 Y124.553 E0.22785
G1 X97.964 Y124.409 E0.26101
G1 X99.166 Y124.251 E0.3215
G1 X99.825 Y124.223 E0.35441
G1 X101.032 Y124.275 E0.41468
G1 X101.691 Y124.361 E0.44784
G1 X102.872 Y124.623 E0.50819
G1 X103.502 Y124.822 E0.54115
G1 X104.621 Y125.285 E0.60157
G1 X105.21 Y125.591 E0.63468
G1 X106.23 Y126.241 E0.69502
G1 X106.756 Y126.645 E0.72811
G1 X107.648 Y127.463 E0.78849
G1 X108.044 Y127.886 E0.8174
G1 X108.612 Y128.594 E0.86269
G1 X108.938 Y129.071 E0.89151
G1 X109.543 Y130.118 E0.95184
G1 X109.824 Y130.719 E0.98494
G1 X110.238 Y131.856 E1.04531
G1 X110.409 Y132.496 E1.07836
G1 X110.619 Y133.687 E1.13869
G1 X110.677 Y134.347 E1.17175
G1 X110.677 Y135.558 E1.23217
G1 X110.619 Y136.218 E1.26522
G1 X110.409 Y137.409 E1.32556
G1 X110.238 Y138.049 E1.35861
G1 X109.824 Y139.186 E1.41897
G1 X109.625 Y139.638 E1.44361
G1 X109.346 Y140.175 E1.4738
G1 X109.133 Y140.536 E1.49472
G1 X108.628 Y141.291 E1.54003
G1 X108.27 Y141.746 E1.56892
G1 X107.452 Y142.638 E1.6293
G1 X107.029 Y143.034 E1.65821
G1 X106.321 Y143.602 E1.70349
G1 X105.844 Y143.928 E1.73231
G1 X104.797 Y144.533 E1.79264
G1 X104.27 Y144.786 E1.82181
G1 X103.422 Y145.115 E1.86719
G1 X102.871 Y145.282 E1.89591
G1 X101.69 Y145.544 E1.95627
G1 X101.031 Y145.63 E1.98942
G1 X99.825 Y145.682 E2.04965
G1 X99.169 Y145.654 E2.0824
G1 X97.967 Y145.497 E2.14288
G1 X97.315 Y145.353 E2.17619
G1 X96.162 Y144.989 E2.23651
G1 X95.627 Y144.774 E2.26528
G1 X94.813 Y144.373 E2.31055
G1 X94.379 Y144.123 E2.33554
G1 X93.624 Y143.618 E2.38086
G1 X93.169 Y143.26 E2.40974
G1 X92.277 Y142.442 E2.47012
G1 X91.881 Y142.019 E2.49903
G1 X91.313 Y141.311 E2.54431
G1 X90.987 Y140.834 E2.57314
G1 X90.382 Y139.787 E2.63347
G1 X90.08 Y139.127 E2.66968
G1 X89.615 Y137.781 E2.74072
G1 X89.474 Y137.248 E2.76823
G1 X89.41 Y136.701 E2.79571
G1 X89.413 Y136.614 E2.80005
G1 X89.379 Y136.518 E2.80513
G1 X89.274 Y135.977 E2.83262
G1 X89.247 Y135.531 E2.85492
G1 X89.245 Y134.388 E2.91194
G1 X89.284 Y133.838 E2.93945
G1 X89.402 Y133.3 E2.96693
G1 X89.41 Y133.28 E2.968
G1 X89.409 Y133.268 E2.9686
G1 X89.463 Y132.719 E2.99613
G1 X89.589 Y132.206 E3.02248
G1 X89.931 Y131.138 E3.07843
G1 X90.139 Y130.623 E3.10614
G1 X90.539 Y129.808 E3.15143
G1 X90.839 Y129.3 E3.18087
G1 X91.534 Y128.309 E3.24125
G1 X91.958 Y127.804 E3.27415
G1 X92.813 Y126.949 E3.33448
G1 X93.254 Y126.571 E3.36345
G0 F3600 X93.49 Y126.894
G1 F1500 X94.224 Y126.356 E3.40886
G1 X94.666 Y126.081 E3.43483
G1 X95.738 Y125.524 E3.4951
G1 X96.282 Y125.299 E3.52447
G1 X97.435 Y124.935 E3.58479
G1 X98.016 Y124.806 E3.61448
G1 X99.218 Y124.648 E3.67497
G1 X99.807 Y124.622 E3.70438
G1 X101.014 Y124.674 E3.76465
G1 X101.604 Y124.752 E3.79434
G1 X102.785 Y125.014 E3.8547
G1 X103.349 Y125.191 E3.88419
G1 X104.468 Y125.654 E3.94461
G1 X104.995 Y125.929 E3.97426
G1 X106.015 Y126.579 E4.03461
G1 X106.486 Y126.94 E4.06421
G1 X107.378 Y127.758 E4.12459
G1 X107.732 Y128.136 E4.15043
G1 X108.3 Y128.844 E4.19571
G1 X108.592 Y129.271 E4.22152
G1 X109.197 Y130.318 E4.28185
G1 X109.448 Y130.856 E4.31147
G1 X109.862 Y131.993 E4.37184
G1 X110.015 Y132.566 E4.40143
G1 X110.225 Y133.757 E4.46176
G1 X110.277 Y134.347 E4.49131
G1 X110.277 Y135.558 E4.55173
G1 X110.225 Y136.148 E4.58128
G1 X110.015 Y137.339 E4.64161
G1 X109.862 Y137.912 E4.6712
G1 X109.448 Y139.049 E4.73157
G1 X109.27 Y139.454 E4.75364
G1 X108.991 Y139.991 E4.78383
G1 X108.8 Y140.313 E4.80251
G1 X108.295 Y141.068 E4.84783
G1 X107.975 Y141.476 E4.8737
G1 X107.157 Y142.368 E4.93408
G1 X106.779 Y142.722 E4.95992
G1 X106.071 Y143.29 E5.0052
G1 X105.644 Y143.582 E5.03101
G1 X104.597 Y144.187 E5.09134
G1 X104.126 Y144.413 E5.1174
G1 X103.278 Y144.742 E5.16278
G1 X102.784 Y144.891 E5.18852
G1 X101.603 Y145.153 E5.24887
G1 X101.013 Y145.231 E5.27857
G1 X99.807 Y145.283 E5.33879
G1 X99.221 Y145.257 E5.36805
G1 X98.019 Y145.1 E5.42853
G1 X97.435 Y144.971 E5.45837
G1 X96.282 Y144.607 E5.51869
G1 X95.803 Y144.415 E5.54444
G1 X94.989 Y144.014 E5.58971
G1 X94.602 Y143.79 E5.61202
G1 X93.847 Y143.285 E5.65733
G1 X93.439 Y142.965 E5.6832
G1 X92.547 Y142.147 E5.74358
G1 X92.193 Y141.769 E5.76942
G1 X91.625 Y141.061 E5.8147
G1 X91.333 Y140.634 E5.84051
G1 X90.728 Y139.587 E5.90084
G1 X90.458 Y138.996 E5.93326
G1 X89.993 Y137.65 E6.0043
G1 X89.861 Y137.146 E6.0303
G1 X89.808 Y136.628 E6.05627
G1 X89.812 Y136.548 E6.06027
G1 X89.708 Y136.166 E6.08002
G1 X89.647 Y135.53 E6.1119
G1 X89.645 Y134.387 E6.16892
G1 X89.684 Y133.867 E6.19494
G1 X89.802 Y133.36 E6.22091
G1 X89.817 Y133.323 E6.2229
G1 X89.831 Y132.968 E6.24063
G1 X89.97 Y132.328 E6.2733
G1 X90.312 Y131.26 E6.32925
G1 X90.498 Y130.799 E6.35405
G1 X90.898 Y129.984 E6.39934
G1 X91.166 Y129.53 E6.42564
G1 X91.861 Y128.539 E6.48603
G1 X92.241 Y128.087 E6.51549
G1 X93.096 Y127.232 E6.57582
G1 X93.49 Y126.894 E6.60172
G0 F3600 X93.726 Y127.216
G1 F1500 X94.46 Y126.678 E6.64712
G1 X94.851 Y126.436 E6.67006
G1 X95.923 Y125.879 E6.73033
G1 X96.403 Y125.68 E6.75626
G1 X97.556 Y125.316 E6.81658
G1 X98.068 Y125.203 E6.84274
G1 X99.27 Y125.045 E6.90322
G1 X99.79 Y125.022 E6.92919
G1 X100.997 Y125.074 E6.98946
G1 X101.518 Y125.142 E7.01567
G1 X102.699 Y125.404 E7.07603
G1 X103.196 Y125.561 E7.10203
G1 X104.315 Y126.024 E7.16245
G1 X104.78 Y126.266 E7.1886
G1 X105.8 Y126.916 E7.24894
G1 X106.216 Y127.235 E7.2751
G1 X107.108 Y128.053 E7.33548
G1 X107.42 Y128.387 E7.35828
G1 X107.988 Y129.095 E7.40357
G1 X108.246 Y129.471 E7.42632
G1 X108.851 Y130.518 E7.48664
G1 X109.072 Y130.993 E7.51278
G1 X109.486 Y132.13 E7.57315
G1 X109.621 Y132.635 E7.59923
G1 X109.831 Y133.826 E7.65956
G1 X109.877 Y134.347 E7.68566
G1 X109.877 Y135.558 E7.74608
G1 X109.831 Y136.079 E7.77217
G1 X109.621 Y137.27 E7.83251
G1 X109.486 Y137.775 E7.85858
G1 X109.072 Y138.912 E7.91895
G1 X108.915 Y139.269 E7.93841
G1 X108.636 Y139.806 E7.9686
G1 X108.468 Y140.091 E7.98511
G1 X107.963 Y140.846 E8.03042
G1 X107.68 Y141.206 E8.05327
G1 X106.862 Y142.098 E8.11365
G1 X106.528 Y142.41 E8.13645
G1 X105.82 Y142.978 E8.18174
G1 X105.444 Y143.236 E8.20449
G1 X104.397 Y143.841 E8.26482
G1 X103.981 Y144.04 E8.28782
G1 X103.133 Y144.369 E8.3332
G1 X102.698 Y144.501 E8.35588
G1 X101.517 Y144.763 E8.41623
G1 X100.996 Y144.831 E8.44245
G1 X99.79 Y144.883 E8.50267
G1 X99.272 Y144.861 E8.52854
G1 X98.07 Y144.704 E8.58902
G1 X97.556 Y144.59 E8.61528
G1 X96.403 Y144.226 E8.6756
G1 X95.98 Y144.056 E8.69835
G1 X95.166 Y143.655 E8.74362
G1 X94.824 Y143.458 E8.76331
G1 X94.069 Y142.953 E8.80863
G1 X93.709 Y142.67 E8.83147
G1 X92.817 Y141.852 E8.89185
G1 X92.505 Y141.518 E8.91466
G1 X91.937 Y140.81 E8.95994
G1 X91.679 Y140.434 E8.98269
G1 X91.074 Y139.387 E9.04302
G1 X90.836 Y138.866 E9.0716
G1 X90.371 Y137.52 E9.14264
G1 X90.25 Y137.045 E9.1671
G1 X90.207 Y136.558 E9.19149
G1 X90.213 Y136.479 E9.19544
G1 X90.151 Y136.307 E9.20456
G1 X90.062 Y135.826 E9.22897
G1 X90.047 Y135.529 E9.2438
G1 X90.045 Y134.386 E9.30083
G1 X90.084 Y133.898 E9.32525
G1 X90.202 Y133.423 E9.34967
G1 X90.218 Y133.386 E9.35168
G1 X90.214 Y133.177 E9.36211
G1 X90.284 Y132.693 E9.38651
G1 X90.351 Y132.45 E9.39908
G1 X90.693 Y131.382 E9.45503
G1 X90.857 Y130.975 E9.47692
G1 X91.257 Y130.16 E9.52222
G1 X91.494 Y129.759 E9.54546
G1 X92.189 Y128.768 E9.60584
G1 X92.524 Y128.37 E9.6318
G1 X93.379 Y127.515 E9.69212
G1 X93.726 Y127.216 E9.71497
G0 F3600 X93.963 Y127.539
G1 F1500 X94.697 Y127.001 E9.76038
G1 X95.035 Y126.791 E9.78023
G1 X96.107 Y126.234 E9.8405
G1 X96.523 Y126.062 E9.86296
G1 X97.676 Y125.698 E9.92328
G1 X98.12 Y125.599 E9.94598
G1 X99.322 Y125.441 E10.00646
G1 X99.773 Y125.421 E10.02898
G1 X100.98 Y125.473 E10.08926
G1 X101.431 Y125.533 E10.11195
G1 X102.612 Y125.795 E10.17231
G1 X103.043 Y125.931 E10.19486
G1 X104.162 Y126.394 E10.25527
G1 X104.565 Y126.603 E10.27792
G1 X105.585 Y127.253 E10.33826
G1 X105.945 Y127.53 E10.36093
G1 X106.837 Y128.348 E10.42131
G1 X107.108 Y128.637 E10.44107
G1 X107.676 Y129.345 E10.48636
G1 X107.899 Y129.671 E10.50606
G1 X108.504 Y130.718 E10.56639
G1 X108.696 Y131.129 E10.58902
G1 X109.11 Y132.266 E10.64939
G1 X109.228 Y132.705 E10.67207
G1 X109.438 Y133.896 E10.73241
G1 X109.477 Y134.347 E10.75499
G1 X109.477 Y135.558 E10.81541
G1 X109.438 Y136.009 E10.83799
G1 X109.228 Y137.2 E10.89833
G1 X109.11 Y137.639 E10.92101
G1 X108.696 Y138.776 E10.98138
G1 X108.56 Y139.085 E10.99822
G1 X108.281 Y139.622 E11.02841
G1 X108.135 Y139.869 E11.04272
G1 X107.63 Y140.624 E11.08804
G1 X107.385 Y140.935 E11.10779
G1 X106.567 Y141.827 E11.16817
G1 X106.278 Y142.098 E11.18794
G1 X105.57 Y142.666 E11.23322
G1 X105.244 Y142.889 E11.25293
G1 X104.197 Y143.494 E11.31326
G1 X103.836 Y143.667 E11.33323
G1 X102.988 Y143.996 E11.37861
G1 X102.611 Y144.11 E11.39826
G1 X101.43 Y144.372 E11.45861
G1 X100.979 Y144.432 E11.48131
G1 X99.773 Y144.484 E11.54153
G1 X99.324 Y144.464 E11.56396
G1 X98.122 Y144.307 E11.62443
G1 X97.676 Y144.208 E11.64723
G1 X96.523 Y143.844 E11.70755
G1 X96.157 Y143.697 E11.72723
G1 X95.343 Y143.296 E11.7725
G1 X95.046 Y143.125 E11.7896
G1 X94.291 Y142.62 E11.83491
G1 X93.98 Y142.375 E11.85466
G1 X93.088 Y141.557 E11.91505
G1 X92.817 Y141.268 E11.93481
G1 X92.249 Y140.56 E11.9801
G1 X92.026 Y140.234 E11.9998
G1 X91.421 Y139.187 E12.06013
G1 X91.215 Y138.735 E12.08491
G1 X90.75 Y137.389 E12.15596
G1 X90.639 Y136.947 E12.17869
G1 X90.607 Y136.492 E12.20145
G1 X90.614 Y136.431 E12.20451
G1 X90.598 Y136.397 E12.20639
G1 X90.483 Y135.956 E12.22913
G1 X90.447 Y135.529 E12.2505
G1 X90.445 Y134.386 E12.30753
G1 X90.484 Y133.932 E12.33026
G1 X90.602 Y133.491 E12.35304
G1 X90.617 Y133.459 E12.3548
G1 X90.608 Y133.343 E12.36061
G1 X90.652 Y132.89 E12.38331
G1 X90.732 Y132.572 E12.39967
G1 X91.074 Y131.504 E12.45562
G1 X91.216 Y131.151 E12.4746
G1 X91.616 Y130.336 E12.5199
G1 X91.821 Y129.989 E12.54
G1 X92.516 Y128.998 E12.60039
G1 X92.807 Y128.653 E12.62291
G1 X93.662 Y127.798 E12.68323
G1 X93.963 Y127.539 E12.70305
G0 F3600 X94.199 Y127.862
G1 F1500 X94.933 Y127.324 E12.74845
G1 X95.22 Y127.146 E12.7653
G1 X96.292 Y126.589 E12.82557
G1 X96.644 Y126.443 E12.84458
G1 X97.797 Y126.079 E12.9049
G1 X98.172 Y125.996 E12.92406
G1 X99.374 Y125.838 E12.98455
G1 X99.756 Y125.821 E13.00362
G1 X100.963 Y125.873 E13.0639
G1 X101.344 Y125.923 E13.08307
G1 X102.525 Y126.185 E13.14342
G1 X102.89 Y126.3 E13.16251
G1 X104.009 Y126.763 E13.22293
G1 X104.35 Y126.941 E13.24212
G1 X105.37 Y127.591 E13.30246
G1 X105.675 Y127.825 E13.32164
G1 X106.567 Y128.643 E13.38202
G1 X106.796 Y128.887 E13.39872
G1 X107.364 Y129.595 E13.444
G1 X107.553 Y129.871 E13.46069
G1 X108.158 Y130.918 E13.52102
G1 X108.32 Y131.266 E13.54017
G1 X108.734 Y132.403 E13.60054
G1 X108.834 Y132.774 E13.61971
G1 X109.044 Y133.965 E13.68005
G1 X109.077 Y134.347 E13.69918
G1 X109.077 Y135.558 E13.75959
G1 X109.044 Y135.94 E13.77872
G1 X108.834 Y137.131 E13.83906
G1 X108.734 Y137.502 E13.85823
G1 X108.32 Y138.639 E13.9186
G1 X108.205 Y138.9 E13.93282
G1 X107.926 Y139.437 E13.96302
G1 X107.803 Y139.646 E13.97511
G1 X107.298 Y140.401 E14.02043
G1 X107.09 Y140.665 E14.0372
G1 X106.272 Y141.557 E14.09758
G1 X106.028 Y141.786 E14.11427
G1 X105.32 Y142.354 E14.15956
G1 X105.044 Y142.543 E14.17625
G1 X103.997 Y143.148 E14.23658
G1 X103.692 Y143.294 E14.25345
G1 X102.844 Y143.623 E14.29883
G1 X102.524 Y143.72 E14.31551
G1 X101.343 Y143.982 E14.37586
G1 X100.962 Y144.032 E14.39503
G1 X99.756 Y144.084 E14.45526
G1 X99.376 Y144.067 E14.47423
G1 X98.174 Y143.91 E14.53471
G1 X97.797 Y143.827 E14.55397
G1 X96.644 Y143.463 E14.61429
G1 X96.334 Y143.339 E14.63095
G1 X95.52 Y142.938 E14.67622
G1 X95.269 Y142.793 E14.69068
G1 X94.514 Y142.288 E14.736
G1 X94.25 Y142.08 E14.75277
G1 X93.358 Y141.262 E14.81315
G1 X93.129 Y141.018 E14.82984
G1 X92.561 Y140.31 E14.87513
G1 X92.372 Y140.034 E14.89182
G1 X91.767 Y138.987 E14.95214
G1 X91.593 Y138.604 E14.97313
G1 X91.128 Y137.258 E15.04418
G1 X91.029 Y136.851 E15.06508
G1 X91.01 Y136.432 E15.086
G1 X91.02 Y136.364 E15.08943
G1 X90.908 Y136.037 E15.10667
G1 X90.847 Y135.528 E15.13225
G1 X90.845 Y134.385 E15.18927
G1 X90.884 Y133.968 E15.21017
G1 X91.002 Y133.565 E15.23112
G1 X91.02 Y133.531 E15.23304
G1 X91.01 Y133.463 E15.23647
G1 X91.031 Y133.045 E15.25735
G1 X91.113 Y132.694 E15.27533
G1 X91.455 Y131.626 E15.33128
G1 X91.575 Y131.328 E15.34731
G1 X91.975 Y130.513 E15.3926
G1 X92.149 Y130.219 E15.40964
G1 X92.844 Y129.228 E15.47003
G1 X93.089 Y128.935 E15.48909
G1 X93.944 Y128.08 E15.54941
G1 X94.199 Y127.862 E15.56615
G0 F3600 X94.436 Y128.184
G1 F1500 X95.17 Y127.646 E15.61155
G1 X95.404 Y127.501 E15.62529
G1 X96.476 Y126.944 E15.68556
G1 X96.764 Y126.825 E15.7011
G1 X97.917 Y126.461 E15.76143
G1 X98.224 Y126.392 E15.77712
G1 X99.426 Y126.234 E15.83761
G1 X99.738 Y126.221 E15.85319
G1 X100.945 Y126.273 E15.91346
G1 X101.258 Y126.314 E15.92921
G1 X102.439 Y126.576 E15.98956
G1 X102.737 Y126.67 E16.00515
G1 X103.856 Y127.133 E16.06557
G1 X104.135 Y127.278 E16.08126
G1 X105.155 Y127.928 E16.1416
G1 X105.405 Y128.119 E16.15729
G1 X106.297 Y128.937 E16.21768
G1 X106.484 Y129.138 E16.23137
G1 X107.052 Y129.846 E16.27666
G1 X107.207 Y130.071 E16.29029
G1 X107.812 Y131.118 E16.35062
G1 X107.944 Y131.403 E16.36629
G1 X108.358 Y132.54 E16.42665
G1 X108.44 Y132.843 E16.44232
G1 X108.65 Y134.034 E16.50265
G1 X108.677 Y134.347 E16.51832
G1 X108.677 Y135.558 E16.57874
G1 X108.65 Y135.871 E16.59442
G1 X108.44 Y137.062 E16.65475
G1 X108.358 Y137.365 E16.67041
G1 X107.944 Y138.502 E16.73078
G1 X107.85 Y138.716 E16.74244
G1 X107.571 Y139.253 E16.77263
G1 X107.47 Y139.424 E16.78254
G1 X106.965 Y140.179 E16.82786
G1 X106.796 Y140.395 E16.84154
G1 X105.978 Y141.287 E16.90192
G1 X105.777 Y141.474 E16.91562
G1 X105.069 Y142.042 E16.9609
G1 X104.844 Y142.197 E16.97453
G1 X103.797 Y142.802 E17.03486
G1 X103.547 Y142.921 E17.04868
G1 X102.699 Y143.25 E17.09405
G1 X102.438 Y143.329 E17.10766
G1 X101.257 Y143.591 E17.16801
G1 X100.945 Y143.632 E17.18371
G1 X99.739 Y143.684 E17.24394
G1 X99.428 Y143.671 E17.25946
G1 X98.226 Y143.514 E17.31994
G1 X97.917 Y143.445 E17.33574
G1 X96.764 Y143.081 E17.39606
G1 X96.511 Y142.98 E17.40965
G1 X95.697 Y142.579 E17.45492
G1 X95.491 Y142.46 E17.46679
G1 X94.736 Y141.955 E17.51211
G1 X94.52 Y141.786 E17.52579
G1 X93.628 Y140.968 E17.58617
G1 X93.441 Y140.767 E17.59987
G1 X92.873 Y140.059 E17.64515
G1 X92.718 Y139.834 E17.65878
G1 X92.113 Y138.787 E17.71911
G1 X91.971 Y138.474 E17.73626
G1 X91.506 Y137.128 E17.80731
G1 X91.42 Y136.759 E17.82621
G1 X91.414 Y136.38 E17.84512
G1 X91.431 Y136.295 E17.84944
G1 X91.33 Y136.065 E17.86198
G1 X91.247 Y135.527 E17.88913
G1 X91.245 Y134.384 E17.94616
G1 X91.284 Y134.007 E17.96507
G1 X91.402 Y133.647 E17.98397
G1 X91.429 Y133.6 E17.98667
G1 X91.416 Y133.535 E17.98998
G1 X91.42 Y133.156 E18.00889
G1 X91.494 Y132.816 E18.02625
G1 X91.836 Y131.748 E18.0822
G1 X91.934 Y131.504 E18.09532
G1 X92.334 Y130.689 E18.14061
G1 X92.476 Y130.448 E18.15457
