;FLAVOR:Marlin
;TIME:3965
;Filament used: 3.46143m
;Layer height: 0.2
;Generated with Cura_SteamEngine 2.7.0
M190 S65
M104 S210
M109 S210
G21 ;metric values
G90 ;absolute positioning
M82 ;set extruder to absolute mode
M107 ;start with the fan off
G28 X0 Y0 ;move X/Y to min endstops
G28 Z0 ;move Z to min endstops
G1 Z15.0 F9000 ;move the platform down 15mm
G92 E0 ;zero the extruded length
G1 F200 E3 ;extrude 3mm of feed stock
G92 E0 ;zero the extruded length again
G1 F9000
;Put printing message on LCD screen
M117 Printing...
;LAYER_COUNT:17
;LAYER:0
M107
G0 F3600 X50.197 Y81.767 Z0.3
;TYPE:SKIRT
G1 F1500 X51.097 Y81.246 E0.05188
G1 X51.593 Y81.006 E0.07937
G1 X52.341 Y80.793 E0.11817
G1 X53.368 Y80.612 E0.1702
G1 X54.029 Y80.554 E0.2033
G1 X133.345 Y80.58 E4.1604
G1 X133.895 Y80.62 E4.18791
G1 X134.483 Y80.755 E4.21801
G1 X135.476 Y81.067 E4.26994
G1 X135.988 Y81.27 E4.29741
G1 X136.649 Y81.676 E4.33612
G1 X137.476 Y82.31 E4.3881
G1 X137.888 Y82.676 E4.4156
G1 X138.371 Y83.287 E4.45445
G1 X138.93 Y84.166 E4.50643
G1 X139.191 Y84.651 E4.5339
G1 X139.433 Y85.381 E4.57227
G1 X139.659 Y86.398 E4.62425
G1 X139.739 Y86.943 E4.65173
G1 X139.749 Y87.223 E4.66571
G1 X139.741 Y137.615 E7.17977
G1 X139.701 Y138.164 E7.20724
G1 X139.611 Y138.598 E7.22935
G1 X139.341 Y139.605 E7.28136
G1 X139.16 Y140.126 E7.30888
G1 X138.784 Y140.8 E7.34739
G1 X138.187 Y141.653 E7.39933
G1 X137.839 Y142.08 E7.42681
G1 X137.254 Y142.586 E7.4654
G1 X136.399 Y143.185 E7.51748
G1 X135.926 Y143.468 E7.54498
G1 X135.204 Y143.743 E7.58353
G1 X134.198 Y144.013 E7.63549
G1 X133.657 Y144.117 E7.66298
G1 X133.213 Y144.143 E7.68517
G1 X53.899 Y144.151 E11.64216
G1 X53.35 Y144.111 E11.66962
G1 X53.077 Y144.061 E11.68347
G1 X52.057 Y143.835 E11.73559
G1 X51.529 Y143.677 E11.76309
G1 X50.84 Y143.332 E11.80153
G1 X49.961 Y142.773 E11.8535
G1 X49.519 Y142.444 E11.88099
G1 X48.983 Y141.876 E11.91995
G1 X48.349 Y141.048 E11.97198
G1 X48.047 Y140.588 E11.99943
G1 X47.741 Y139.878 E12.038
G1 X47.429 Y138.886 E12.08989
G1 X47.302 Y138.35 E12.11737
G1 X47.254 Y137.745 E12.14765
G1 X47.274 Y86.833 E14.68766
G1 X47.314 Y86.283 E14.71517
G1 X47.503 Y85.535 E14.75366
G1 X47.859 Y84.556 E14.80563
G1 X48.084 Y84.054 E14.83308
G1 X48.52 Y83.411 E14.87183
G1 X49.191 Y82.612 E14.92389
G1 X49.575 Y82.217 E14.95137
G1 X50.197 Y81.767 E14.98967
G0 F3600 X50.398 Y82.113
G1 F1500 X51.298 Y81.592 E15.04156
G1 X51.767 Y81.367 E15.06751
G1 X52.411 Y81.187 E15.10087
G1 X53.438 Y81.006 E15.1529
G1 X54.029 Y80.954 E15.18249
G1 X133.345 Y80.98 E19.13959
G1 X133.865 Y81.02 E19.16561
G1 X134.363 Y81.136 E19.19112
G1 X135.356 Y81.448 E19.24304
G1 X135.84 Y81.642 E19.26906
G1 X136.406 Y81.994 E19.30231
G1 X137.233 Y82.628 E19.3543
G1 X137.621 Y82.976 E19.3803
G1 X138.033 Y83.501 E19.4136
G1 X138.592 Y84.38 E19.46557
G1 X138.837 Y84.84 E19.49157
G1 X139.042 Y85.467 E19.52448
G1 X139.268 Y86.484 E19.57646
G1 X139.349 Y87.223 E19.61355
G1 X139.341 Y137.615 E22.12761
G1 X139.301 Y138.134 E22.15358
G1 X139.225 Y138.495 E22.17199
G1 X138.955 Y139.502 E22.224
G1 X138.782 Y139.993 E22.24997
G1 X138.457 Y140.571 E22.28306
G1 X137.86 Y141.424 E22.335
G1 X137.529 Y141.826 E22.36098
G1 X137.025 Y142.259 E22.39413
G1 X136.17 Y142.858 E22.44621
G1 X135.721 Y143.123 E22.47222
G1 X135.1 Y143.357 E22.50533
G1 X134.094 Y143.627 E22.5573
G1 X133.582 Y143.723 E22.58329
G1 X133.213 Y143.743 E22.60172
G1 X53.899 Y143.751 E26.55872
G1 X53.164 Y143.67 E26.59561
G1 X52.144 Y143.444 E26.64773
G1 X51.645 Y143.293 E26.67374
G1 X51.054 Y142.994 E26.70678
G1 X50.175 Y142.435 E26.75875
G1 X49.758 Y142.122 E26.78477
G1 X49.3 Y141.633 E26.81819
G1 X48.666 Y140.805 E26.87022
G1 X48.382 Y140.368 E26.89622
G1 X48.123 Y139.758 E26.92928
G1 X47.811 Y138.766 E26.98117
G1 X47.693 Y138.258 E27.00718
G1 X47.654 Y137.745 E27.03285
G1 X47.674 Y86.833 E29.57286
G1 X47.714 Y86.313 E29.59888
G1 X47.879 Y85.672 E29.6319
G1 X48.235 Y84.693 E29.68388
G1 X48.45 Y84.218 E29.70989
G1 X48.826 Y83.668 E29.74313
G1 X49.497 Y82.869 E29.79518
G1 X49.862 Y82.497 E29.82118
G1 X50.398 Y82.113 E29.85408
G0 F3600 X50.598 Y82.46
G1 F1500 X51.498 Y81.939 E29.90596
G1 X51.94 Y81.729 E29.93037
G1 X52.48 Y81.581 E29.95831
G1 X53.507 Y81.4 E30.01033
G1 X54.029 Y81.354 E30.03648
G1 X133.345 Y81.38 E33.99357
G1 X133.833 Y81.42 E34.018
G1 X134.243 Y81.518 E34.03903
G1 X135.236 Y81.83 E34.09096
G1 X135.69 Y82.014 E34.1154
G1 X136.162 Y82.311 E34.14322
G1 X136.989 Y82.945 E34.19521
G1 X137.352 Y83.274 E34.21965
G1 X137.695 Y83.716 E34.24756
G1 X138.254 Y84.595 E34.29953
G1 X138.483 Y85.028 E34.32397
G1 X138.652 Y85.554 E34.35153
G1 X138.878 Y86.571 E34.40351
G1 X138.949 Y87.222 E34.43618
G1 X138.941 Y137.614 E36.95025
G1 X138.901 Y138.102 E36.97468
G1 X138.839 Y138.391 E36.98942
G1 X138.569 Y139.398 E37.04144
G1 X138.404 Y139.859 E37.06586
G1 X138.129 Y140.341 E37.09355
G1 X137.532 Y141.194 E37.14549
G1 X137.219 Y141.571 E37.16994
G1 X136.795 Y141.931 E37.19769
G1 X135.94 Y142.53 E37.24977
G1 X135.518 Y142.777 E37.27417
G1 X134.997 Y142.97 E37.30189
G1 X133.991 Y143.24 E37.35385
G1 X133.509 Y143.328 E37.3783
G1 X133.213 Y143.343 E37.39308
G1 X53.899 Y143.351 E41.35007
G1 X53.25 Y143.28 E41.38265
G1 X52.23 Y143.054 E41.43477
G1 X51.762 Y142.909 E41.45921
G1 X51.269 Y142.656 E41.48686
G1 X50.39 Y142.097 E41.53883
G1 X50 Y141.802 E41.56322
G1 X49.618 Y141.39 E41.59125
G1 X48.984 Y140.562 E41.64328
G1 X48.719 Y140.15 E41.66772
G1 X48.504 Y139.638 E41.69543
G1 X48.192 Y138.646 E41.74731
G1 X48.084 Y138.169 E41.77171
G1 X48.054 Y137.745 E41.79291
G1 X48.074 Y86.833 E44.33292
G1 X48.114 Y86.345 E44.35735
G1 X48.255 Y85.809 E44.385
G1 X48.611 Y84.83 E44.43697
G1 X48.815 Y84.385 E44.4614
G1 X49.133 Y83.926 E44.48926
G1 X49.804 Y83.127 E44.54131
G1 X50.148 Y82.779 E44.56572
G1 X50.598 Y82.46 E44.59324
G0 F3600 X50.798 Y82.806
G1 F1500 X51.698 Y82.285 E44.64512
G1 X52.111 Y82.092 E44.66787
G1 X52.55 Y81.974 E44.69055
G1 X53.577 Y81.793 E44.74257
G1 X54.029 Y81.754 E44.76521
G1 X133.345 Y81.78 E48.7223
G1 X133.799 Y81.82 E48.74504
G1 X134.123 Y81.9 E48.76169
G1 X135.116 Y82.212 E48.81362
G1 X135.537 Y82.386 E48.83634
G1 X135.919 Y82.629 E48.85893
G1 X136.746 Y83.263 E48.91092
G1 X137.082 Y83.57 E48.93363
G1 X137.358 Y83.931 E48.9563
G1 X137.917 Y84.81 E49.00827
G1 X138.127 Y85.214 E49.03098
G1 X138.261 Y85.641 E49.05331
G1 X138.487 Y86.658 E49.10529
G1 X138.549 Y87.222 E49.13359
G1 X138.541 Y137.614 E51.64766
G1 X138.452 Y138.287 E51.68153
G1 X138.182 Y139.294 E51.73354
G1 X138.026 Y139.722 E51.75627
G1 X137.801 Y140.112 E51.77873
G1 X137.204 Y140.965 E51.83068
G1 X136.911 Y141.314 E51.85341
G1 X136.566 Y141.603 E51.87586
G1 X135.711 Y142.202 E51.92795
G1 X135.316 Y142.43 E51.9507
G1 X134.893 Y142.584 E51.97316
G1 X133.887 Y142.854 E52.02513
G1 X133.213 Y142.943 E52.05904
G1 X53.899 Y142.951 E56.01604
G1 X53.337 Y142.889 E56.04424
G1 X52.317 Y142.663 E56.09637
G1 X51.882 Y142.526 E56.11912
G1 X51.484 Y142.319 E56.1415
G1 X50.605 Y141.76 E56.19347
G1 X50.243 Y141.483 E56.21621
G1 X49.936 Y141.147 E56.23892
G1 X49.302 Y140.319 E56.29095
G1 X49.057 Y139.934 E56.31371
G1 X48.886 Y139.518 E56.33615
G1 X48.574 Y138.526 E56.38803
G1 X48.476 Y138.081 E56.41077
G1 X48.454 Y137.745 E56.42757
G1 X48.474 Y86.833 E58.96758
G1 X48.514 Y86.379 E58.99031
G1 X48.631 Y85.945 E59.01274
G1 X48.987 Y84.966 E59.06471
G1 X49.179 Y84.554 E59.08739
G1 X49.439 Y84.183 E59.10999
G1 X50.11 Y83.384 E59.16204
G1 X50.432 Y83.062 E59.18476
G1 X50.798 Y82.806 E59.20705
G0 F3600 X50.999 Y83.152
G1 F1500 X51.899 Y82.631 E59.25893
G1 X52.28 Y82.457 E59.27983
G1 X52.619 Y82.368 E59.29731
G1 X53.646 Y82.187 E59.34934
G1 X54.029 Y82.154 E59.36852
G1 X133.345 Y82.18 E63.32561
G1 X133.762 Y82.22 E63.34651
G1 X134.003 Y82.281 E63.35891
G1 X134.996 Y82.593 E63.41084
G1 X135.382 Y82.756 E63.43174
G1 X135.676 Y82.946 E63.44921
G1 X136.503 Y83.58 E63.5012
G1 X136.809 Y83.865 E63.52206
G1 X137.02 Y84.145 E63.53955
G1 X137.579 Y85.024 E63.59152
G1 X137.77 Y85.398 E63.61247
G1 X137.871 Y85.728 E63.62969
G1 X138.097 Y86.745 E63.68167
G1 X138.149 Y87.222 E63.7056
G1 X138.141 Y137.614 E66.21967
G1 X138.066 Y138.184 E66.24835
G1 X137.796 Y139.191 E66.30037
G1 X137.649 Y139.583 E66.32125
G1 X137.473 Y139.882 E66.33856
G1 X136.876 Y140.735 E66.39051
G1 X136.605 Y141.054 E66.41139
G1 X136.336 Y141.276 E66.42879
G1 X135.481 Y141.875 E66.48087
G1 X135.117 Y142.081 E66.50174
G1 X134.789 Y142.198 E66.51911
G1 X133.783 Y142.468 E66.57108
G1 X133.213 Y142.543 E66.59976
G1 X53.899 Y142.551 E70.55675
G1 X53.423 Y142.499 E70.58064
G1 X52.403 Y142.273 E70.63277
G1 X52.004 Y142.144 E70.65369
G1 X51.698 Y141.981 E70.67098
G1 X50.819 Y141.422 E70.72295
G1 X50.489 Y141.165 E70.74382
G1 X50.253 Y140.903 E70.76141
G1 X49.619 Y140.075 E70.81344
G1 X49.397 Y139.72 E70.83433
G1 X49.267 Y139.398 E70.85165
G1 X48.955 Y138.406 E70.90354
G1 X48.868 Y137.996 E70.92445
G1 X48.854 Y137.745 E70.93699
G1 X48.874 Y86.833 E73.477
G1 X48.914 Y86.416 E73.4979
G1 X49.006 Y86.082 E73.51518
G1 X49.362 Y85.103 E73.56715
G1 X49.543 Y84.725 E73.58806
G1 X49.745 Y84.44 E73.60549
G1 X50.416 Y83.641 E73.65754
G1 X50.715 Y83.347 E73.67847
G1 X50.999 Y83.152 E73.69565
G0 F3600 X51.199 Y83.498
G1 F1500 X52.099 Y82.977 E73.74753
G1 X52.445 Y82.823 E73.76643
G1 X52.689 Y82.762 E73.77898
G1 X53.716 Y82.581 E73.831
G1 X54.029 Y82.554 E73.84668
G1 X133.345 Y82.58 E77.80377
G1 X133.884 Y82.663 E77.83098
G1 X134.877 Y82.975 E77.88291
G1 X135.224 Y83.126 E77.90179
G1 X135.432 Y83.263 E77.91421
G1 X136.259 Y83.897 E77.9662
G1 X136.534 Y84.158 E77.98512
G1 X136.683 Y84.36 E77.99764
G1 X137.242 Y85.239 E78.04961
G1 X137.41 Y85.578 E78.06848
G1 X137.48 Y85.815 E78.08081
G1 X137.706 Y86.832 E78.13279
G1 X137.749 Y87.222 E78.15236
G1 X137.741 Y137.614 E80.66643
G1 X137.68 Y138.08 E80.68988
G1 X137.41 Y139.087 E80.74189
G1 X137.273 Y139.441 E80.76083
G1 X137.146 Y139.653 E80.77316
G1 X136.549 Y140.506 E80.8251
G1 X136.3 Y140.792 E80.84402
G1 X136.107 Y140.948 E80.8564
G1 X135.252 Y141.547 E80.90849
G1 X134.92 Y141.731 E80.92742
G1 X134.686 Y141.811 E80.93976
G1 X133.68 Y142.081 E80.99173
G1 X133.213 Y142.143 E81.01523
G1 X53.899 Y142.151 E84.97222
G1 X53.51 Y142.108 E84.99175
G1 X52.49 Y141.882 E85.04387
G1 X52.13 Y141.762 E85.0628
G1 X51.913 Y141.644 E85.07512
G1 X51.034 Y141.085 E85.12709
G1 X50.737 Y140.849 E85.14602
G1 X50.571 Y140.66 E85.15857
G1 X49.937 Y139.832 E85.2106
G1 X49.739 Y139.509 E85.2295
G1 X49.649 Y139.278 E85.24187
G1 X49.337 Y138.286 E85.29375
G1 X49.254 Y137.745 E85.32106
G1 X49.274 Y86.833 E87.86107
G1 X49.314 Y86.456 E87.87998
G1 X49.382 Y86.219 E87.89228
G1 X49.738 Y85.24 E87.94425
G1 X49.905 Y84.899 E87.9632
G1 X50.052 Y84.697 E87.97566
G1 X50.723 Y83.898 E88.02771
G1 X50.995 Y83.635 E88.04659
G1 X51.199 Y83.498 E88.05885
G0 F3600 X51.4 Y83.844
G1 F1500 X52.3 Y83.323 E88.11073
G1 X52.758 Y83.156 E88.13505
G1 X53.785 Y82.975 E88.18708
G1 X54.028 Y82.954 E88.19925
G1 X133.344 Y82.98 E92.15634
G1 X133.764 Y83.044 E92.17754
G1 X134.757 Y83.356 E92.22946
G1 X135.189 Y83.581 E92.25376
G1 X136.016 Y84.215 E92.30575
G1 X136.345 Y84.575 E92.33008
G1 X136.904 Y85.454 E92.38205
G1 X137.09 Y85.901 E92.40621
G1 X137.316 Y86.918 E92.45818
G1 X137.349 Y87.222 E92.47344
G1 X137.341 Y137.614 E94.98751
G1 X137.293 Y137.977 E95.00578
G1 X137.023 Y138.984 E95.05779
G1 X136.818 Y139.424 E95.08201
G1 X136.221 Y140.277 E95.13395
G1 X135.877 Y140.621 E95.15822
G1 X135.022 Y141.22 E95.2103
G1 X134.582 Y141.425 E95.23452
G1 X133.576 Y141.695 E95.28649
G1 X133.213 Y141.743 E95.30476
G1 X53.899 Y141.751 E99.26175
G1 X53.596 Y141.718 E99.27695
G1 X52.576 Y141.492 E99.32908
G1 X52.128 Y141.306 E99.35328
G1 X51.249 Y140.747 E99.40525
G1 X50.888 Y140.417 E99.42965
G1 X50.254 Y139.589 E99.48168
G1 X50.03 Y139.158 E99.50591
G1 X49.718 Y138.166 E99.55779
G1 X49.654 Y137.745 E99.57904
G1 X49.674 Y86.833 E102.11905
G1 X49.758 Y86.356 E102.14321
G1 X50.114 Y85.377 E102.19518
G1 X50.358 Y84.955 E102.2195
G1 X51.029 Y84.156 E102.27155
G1 X51.4 Y83.844 E102.29574
G0 F3600 X51.6 Y84.191
G1 F1500 X52.5 Y83.67 E102.34762
G1 X52.827 Y83.55 E102.365
G1 X53.854 Y83.369 E102.41703
G1 X54.028 Y83.354 E102.42574
G1 X133.344 Y83.38 E106.38283
G1 X133.644 Y83.426 E106.39797
G1 X134.637 Y83.738 E106.4499
G1 X134.945 Y83.898 E106.46722
G1 X135.772 Y84.532 E106.51921
G1 X136.008 Y84.789 E106.53661
G1 X136.567 Y85.668 E106.58858
G1 X136.699 Y85.988 E106.60585
G1 X136.925 Y87.005 E106.65783
G1 X136.949 Y87.222 E106.66872
G1 X136.941 Y137.614 E109.18279
G1 X136.907 Y137.873 E109.19582
G1 X136.637 Y138.88 E109.24784
G1 X136.49 Y139.194 E109.26513
G1 X135.893 Y140.047 E109.31708
G1 X135.648 Y140.293 E109.3344
G1 X134.793 Y140.892 E109.38648
G1 X134.478 Y141.039 E109.40382
G1 X133.472 Y141.309 E109.45579
G1 X133.213 Y141.343 E109.46882
G1 X53.899 Y141.351 E113.42581
G1 X53.683 Y141.327 E113.43665
G1 X52.663 Y141.101 E113.48878
G1 X52.342 Y140.969 E113.50609
G1 X51.463 Y140.41 E113.55806
G1 X51.206 Y140.174 E113.57547
G1 X50.572 Y139.346 E113.6275
G1 X50.412 Y139.038 E113.64481
G1 X50.1 Y138.046 E113.6967
G1 X50.054 Y137.746 E113.71184
G1 X50.074 Y86.834 E116.25185
G1 X50.134 Y86.492 E116.26917
G1 X50.49 Y85.513 E116.32114
G1 X50.664 Y85.212 E116.33849
G1 X51.335 Y84.413 E116.39054
G1 X51.6 Y84.191 E116.40779
G0 F3600 X51.8 Y84.537
G1 F1500 X52.7 Y84.016 E116.45967
G1 X52.897 Y83.944 E116.47014
G1 X53.924 Y83.763 E116.52216
G1 X54.028 Y83.754 E116.52737
G1 X133.344 Y83.78 E120.48446
G1 X133.524 Y83.808 E120.49355
G1 X134.517 Y84.12 E120.54548
G1 X134.702 Y84.216 E120.55588
G1 X135.529 Y84.85 E120.60787
G1 X135.67 Y85.004 E120.61828
G1 X136.229 Y85.883 E120.67025
G1 X136.309 Y86.075 E120.68063
G1 X136.535 Y87.092 E120.73261
G1 X136.549 Y87.222 E120.73913
G1 X136.541 Y137.614 E123.2532
G1 X136.521 Y137.769 E123.26099
G1 X136.251 Y138.776 E123.31301
G1 X136.163 Y138.965 E123.32341
G1 X135.566 Y139.818 E123.37535
G1 X135.418 Y139.965 E123.38576
G1 X134.563 Y140.564 E123.43784
G1 X134.375 Y140.652 E123.4482
G1 X133.369 Y140.922 E123.50016
G1 X133.213 Y140.943 E123.50802
G1 X53.899 Y140.951 E127.46501
G1 X53.769 Y140.937 E127.47153
G1 X52.749 Y140.711 E127.52365
G1 X52.557 Y140.631 E127.53403
G1 X51.678 Y140.072 E127.586
G1 X51.524 Y139.931 E127.59642
G1 X50.89 Y139.103 E127.64845
G1 X50.794 Y138.918 E127.65885
G1 X50.482 Y137.926 E127.71073
G1 X50.454 Y137.746 E127.71982
G1 X50.474 Y86.834 E130.25983
G1 X50.51 Y86.629 E130.27021
G1 X50.866 Y85.65 E130.32218
G1 X50.971 Y85.469 E130.33262
G1 X51.642 Y84.67 E130.38467
G1 X51.8 Y84.537 E130.39498
G0 F3600 X52.001 Y84.883
G1 F1500 X52.901 Y84.362 E130.44686
G1 X52.966 Y84.338 E130.45032
G1 X53.993 Y84.157 E130.50234
G1 X54.028 Y84.154 E130.5041
G1 X133.344 Y84.18 E134.46119
G1 X133.404 Y84.189 E134.46422
G1 X134.397 Y84.501 E134.51614
G1 X134.459 Y84.533 E134.51962
G1 X135.286 Y85.167 E134.57161
G1 X135.333 Y85.219 E134.57511
G1 X135.892 Y86.098 E134.62708
G1 X135.918 Y86.162 E134.63053
G1 X136.144 Y87.179 E134.6825
G1 X136.149 Y87.222 E134.68466
G1 X136.141 Y137.614 E137.19873
G1 X136.134 Y137.666 E137.20135
G1 X135.864 Y138.673 E137.25336
G1 X135.835 Y138.736 E137.25682
G1 X135.238 Y139.589 E137.30877
G1 X135.189 Y139.638 E137.31222
G1 X134.334 Y140.237 E137.36431
G1 X134.271 Y140.266 E137.36777
G1 X133.265 Y140.536 E137.41973
G1 X133.213 Y140.543 E137.42235
G1 X53.899 Y140.551 E141.37934
G1 X53.856 Y140.546 E141.3815
G1 X52.836 Y140.32 E141.43362
G1 X52.772 Y140.294 E141.43707
G1 X51.893 Y139.735 E141.48904
G1 X51.841 Y139.688 E141.49254
G1 X51.207 Y138.86 E141.54456
G1 X51.175 Y138.798 E141.54804
G1 X50.863 Y137.806 E141.59993
