;FLAVOR:Marlin
;TIME:937
;Filament used: 0.862045m
;Layer height: 0.2
;Generated with Cura_SteamEngine 2.7.0
M190 S65
M104 S210
M109 S210
G21 ;metric values
G90 ;absolute positioning
M82 ;set extruder to absolute mode
M107 ;start with the fan off
G28 X0 Y0 ;move X/Y to min endstops
G28 Z0 ;move Z to min endstops
G1 Z15.0 F9000 ;move the platform down 15mm
G92 E0 ;zero the extruded length
G1 F200 E3 ;extrude 3mm of feed stock
G92 E0 ;zero the extruded length again
G1 F9000
;Put printing message on LCD screen
M117 Printing...
;LAYER_COUNT:88
;LAYER:0
M107
G0 F3600 X85.105 Y122.756 Z0.3
;TYPE:SKIRT
G1 F1500 X85.599 Y122.48 E0.02823
G1 X86.126 Y122.276 E0.05642
G1 X86.677 Y122.149 E0.08464
G1 X87.301 Y122.1 E0.11586
G1 X112.682 Y122.101 E1.38213
G1 X113.246 Y122.141 E1.41033
G1 X113.799 Y122.26 E1.43856
G1 X114.329 Y122.456 E1.46675
G1 X114.827 Y122.724 E1.49496
G1 X115.281 Y123.061 E1.52317
G1 X115.684 Y123.457 E1.55136
G1 X116.027 Y123.907 E1.57959
G1 X116.302 Y124.4 E1.60775
G1 X116.506 Y124.928 E1.63599
G1 X116.633 Y125.479 E1.6642
G1 X116.682 Y126.114 E1.69597
G1 X116.631 Y141.851 E2.4811
G1 X116.589 Y142.415 E2.50932
G1 X116.388 Y143.21 E2.55023
G1 X116.131 Y143.914 E2.58762
G1 X115.901 Y144.43 E2.6158
G1 X115.663 Y144.819 E2.63855
G1 X115.366 Y145.248 E2.66459
G1 X115.012 Y145.689 E2.6928
G1 X114.758 Y145.94 E2.71061
G1 X114.273 Y146.378 E2.74322
G1 X113.828 Y146.726 E2.7714
G1 X113.395 Y146.98 E2.79645
G1 X112.773 Y147.294 E2.83121
G1 X112.251 Y147.512 E2.85943
G1 X111.784 Y147.639 E2.88358
G1 X111.173 Y147.766 E2.91471
G1 X110.361 Y147.85 E2.95544
G1 X89.742 Y147.86 E3.98412
G1 X89.253 Y147.83 E4.00857
G1 X88.837 Y147.779 E4.02948
G1 X88.282 Y147.671 E4.05768
G1 X87.983 Y147.578 E4.07331
G1 X87.314 Y147.34 E4.10873
G1 X86.796 Y147.113 E4.13695
G1 X86.488 Y146.933 E4.15475
G1 X86.114 Y146.692 E4.17694
G1 X85.484 Y146.19 E4.21713
G1 X85.076 Y145.791 E4.2456
G1 X84.701 Y145.368 E4.2738
G1 X84.475 Y145.041 E4.29364
G1 X84.136 Y144.495 E4.3257
G1 X83.872 Y143.995 E4.35391
G1 X83.65 Y143.342 E4.38832
G1 X83.423 Y142.421 E4.43564
G1 X83.327 Y141.864 E4.46384
G1 X83.307 Y141.466 E4.48372
G1 X83.301 Y126.102 E5.25023
G1 X83.341 Y125.538 E5.27844
G1 X83.46 Y124.985 E5.30666
G1 X83.655 Y124.455 E5.33484
G1 X83.924 Y123.957 E5.36308
G1 X84.259 Y123.502 E5.39127
G1 X84.656 Y123.099 E5.41949
G1 X85.105 Y122.756 E5.44768
G0 F3600 X85.489 Y122.989
G1 F1500 X85.971 Y122.755 E5.47441
G1 X86.483 Y122.594 E5.50119
G1 X87.013 Y122.512 E5.52794
G1 X87.301 Y122.5 E5.54232
G1 X112.682 Y122.501 E6.80859
G1 X113.217 Y122.541 E6.83535
G1 X113.74 Y122.66 E6.86211
G1 X114.239 Y122.855 E6.88884
G1 X114.704 Y123.123 E6.91562
G1 X115.124 Y123.456 E6.94236
G1 X115.49 Y123.848 E6.96911
G1 X115.794 Y124.29 E6.99588
G1 X116.028 Y124.773 E7.02265
G1 X116.188 Y125.284 E7.04937
G1 X116.271 Y125.814 E7.07613
G1 X116.282 Y126.113 E7.09106
G1 X116.231 Y141.85 E7.87619
G1 X116.189 Y142.384 E7.90291
G1 X116.013 Y143.073 E7.93839
G1 X115.756 Y143.777 E7.97578
G1 X115.535 Y144.265 E8.0025
G1 X115.334 Y144.591 E8.02161
G1 X115.037 Y145.02 E8.04764
G1 X114.7 Y145.437 E8.07439
G1 X114.49 Y145.643 E8.08907
G1 X114.005 Y146.081 E8.12167
G1 X113.581 Y146.41 E8.14845
G1 X113.214 Y146.623 E8.16962
G1 X112.592 Y146.937 E8.20438
G1 X112.097 Y147.142 E8.23111
G1 X111.703 Y147.248 E8.25146
G1 X111.092 Y147.375 E8.2826
G1 X110.361 Y147.45 E8.31926
G1 X89.742 Y147.46 E9.34794
G1 X89.302 Y147.433 E9.36994
G1 X88.886 Y147.382 E9.39085
G1 X88.117 Y147.201 E9.43026
G1 X87.448 Y146.963 E9.46569
G1 X86.958 Y146.746 E9.49242
G1 X86.705 Y146.597 E9.50707
G1 X86.331 Y146.356 E9.52927
G1 X85.764 Y145.904 E9.56544
G1 X85.356 Y145.505 E9.59392
G1 X85.002 Y145.102 E9.62068
G1 X84.815 Y144.83 E9.63714
G1 X84.476 Y144.284 E9.66921
G1 X84.227 Y143.809 E9.69596
G1 X84.039 Y143.247 E9.72553
G1 X83.812 Y142.326 E9.77285
G1 X83.722 Y141.797 E9.79963
G1 X83.707 Y141.465 E9.81621
G1 X83.701 Y126.101 E10.58272
G1 X83.741 Y125.567 E10.60943
G1 X83.859 Y125.044 E10.63618
G1 X84.055 Y124.544 E10.66298
G1 X84.322 Y124.079 E10.68973
G1 X84.655 Y123.659 E10.71647
G1 X85.047 Y123.293 E10.74322
G1 X85.489 Y122.989 E10.76999
G0 F3600 X85.869 Y123.238
G1 F1500 X86.337 Y123.049 E10.79517
G1 X86.83 Y122.935 E10.82041
G1 X87.301 Y122.9 E10.84398
G1 X112.682 Y122.901 E12.11024
G1 X113.186 Y122.941 E12.13546
G1 X113.678 Y123.06 E12.16072
G1 X114.144 Y123.255 E12.18592
G1 X114.574 Y123.52 E12.21112
G1 X114.957 Y123.851 E12.23637
G1 X115.283 Y124.237 E12.26158
G1 X115.544 Y124.67 E12.2868
G1 X115.734 Y125.138 E12.312
G1 X115.847 Y125.631 E12.33724
G1 X115.882 Y126.111 E12.36125
G1 X115.831 Y141.848 E13.14637
G1 X115.789 Y142.352 E13.17161
G1 X115.637 Y142.935 E13.20167
G1 X115.38 Y143.639 E13.23905
G1 X115.17 Y144.099 E13.26428
G1 X115.005 Y144.363 E13.27981
G1 X114.708 Y144.792 E13.30585
G1 X114.222 Y145.346 E13.34261
G1 X113.737 Y145.784 E13.37522
G1 X113.336 Y146.092 E13.40044
G1 X113.034 Y146.266 E13.41783
G1 X112.412 Y146.58 E13.45259
G1 X111.944 Y146.771 E13.47781
G1 X111.621 Y146.856 E13.49447
G1 X111.01 Y146.983 E13.52561
G1 X110.361 Y147.05 E13.55816
G1 X89.742 Y147.06 E14.58685
G1 X89.351 Y147.036 E14.60639
G1 X88.935 Y146.985 E14.6273
G1 X88.251 Y146.824 E14.66236
G1 X87.582 Y146.586 E14.69778
G1 X86.922 Y146.261 E14.73449
G1 X86.548 Y146.02 E14.75668
G1 X86.044 Y145.618 E14.78885
G1 X85.636 Y145.219 E14.81732
G1 X85.303 Y144.838 E14.84256
G1 X85.154 Y144.619 E14.85578
G1 X84.815 Y144.073 E14.88784
G1 X84.583 Y143.624 E14.91306
G1 X84.427 Y143.151 E14.9379
G1 X84.2 Y142.23 E14.98523
G1 X84.118 Y141.731 E15.01046
G1 X84.107 Y141.465 E15.02374
G1 X84.101 Y126.101 E15.79025
G1 X84.141 Y125.597 E15.81548
G1 X84.259 Y125.106 E15.84067
G1 X84.454 Y124.639 E15.86592
G1 X84.72 Y124.209 E15.89114
G1 X85.05 Y123.826 E15.91637
G1 X85.436 Y123.5 E15.94157
G1 X85.869 Y123.238 E15.96682
G1 F1500 E9.46682
G0 F3600 X87.905 Y125.426
G0 X87.905 Y126.705
G0 X87.961 Y126.761
G0 X87.891 Y126.691
;TYPE:WALL-INNER
G1 F1500 E15.96682
G1 X111.891 Y126.691 E17.16419
G1 X112.091 Y126.691 E17.17417
G1 X112.091 Y126.891 E17.18063
G1 X112.09 Y141.419 E17.90543
G1 X112.077 Y141.574 E17.91319
G1 X112.05 Y141.732 E17.92119
G1 X112.002 Y141.913 E17.93053
G1 X111.948 Y142.062 E17.93844
G1 X111.877 Y142.216 E17.9469
G1 X111.793 Y142.363 E17.95534
G1 X111.701 Y142.496 E17.96341
G1 X111.586 Y142.635 E17.97241
G1 X111.468 Y142.754 E17.98077
G1 X111.326 Y142.874 E17.99005
G1 X111.206 Y142.959 E17.99739
G1 X111.058 Y143.045 E18.00593
G1 X110.907 Y143.116 E18.01425
G1 X110.735 Y143.18 E18.02341
G1 X110.584 Y143.221 E18.03121
G1 X110.405 Y143.253 E18.04028
G1 X110.252 Y143.267 E18.04795
G1 X89.758 Y143.27 E19.0704
G1 X89.576 Y143.254 E19.07951
G1 X89.433 Y143.23 E19.08675
G1 X89.247 Y143.181 E19.09634
G1 X89.1 Y143.128 E19.10414
G1 X88.942 Y143.054 E19.11284
G1 X88.795 Y142.97 E19.12129
G1 X88.655 Y142.874 E19.12976
G1 X88.531 Y142.77 E19.13783
G1 X88.401 Y142.641 E19.14697
G1 X88.299 Y142.52 E19.15487
G1 X88.198 Y142.377 E19.1636
G1 X88.117 Y142.238 E19.17163
G1 X88.046 Y142.087 E19.17995
G1 X87.985 Y141.921 E19.18878
G1 X87.939 Y141.753 E19.19747
G1 X87.91 Y141.59 E19.20573
G1 X87.896 Y141.431 E19.21369
G1 X87.891 Y140.205 E19.27485
G1 X87.891 Y126.691 E19.94907
G0 F3600 X87.961 Y126.761
G0 X93.856 Y134.753
G0 X93.913 Y134.834
G1 F1500 X93.683 Y135.03 E19.96415
G1 X93.49 Y135.26 E19.97913
G1 X93.346 Y135.51 E19.99352
G1 X93.278 Y135.675 E20.00242
G1 X93.208 Y135.941 E20.01615
G1 X93.185 Y136.116 E20.02495
G1 X93.185 Y136.406 E20.03942
G1 X93.238 Y136.704 E20.05452
G1 X93.342 Y136.986 E20.06952
G1 X93.485 Y137.234 E20.0838
G1 X93.596 Y137.379 E20.09291
G1 X93.802 Y137.58 E20.10727
G1 X94.034 Y137.744 E20.12144
G1 X94.193 Y137.827 E20.13039
G1 X94.468 Y137.926 E20.14497
G1 X94.764 Y137.977 E20.15996
G1 X95.066 Y137.977 E20.17502
G1 X95.362 Y137.924 E20.19003
G1 X95.646 Y137.821 E20.2051
G1 X95.894 Y137.676 E20.21943
G1 X96.037 Y137.568 E20.22837
G1 X96.241 Y137.36 E20.24291
G1 X96.404 Y137.127 E20.25709
G1 X96.487 Y136.97 E20.26595
G1 X96.586 Y136.696 E20.28049
G1 X96.637 Y136.399 E20.29552
G1 X96.637 Y136.097 E20.31059
G1 X96.584 Y135.801 E20.32559
G1 X96.481 Y135.516 E20.34071
G1 X96.328 Y135.253 E20.35589
G1 X96.132 Y135.023 E20.37097
G1 X95.902 Y134.83 E20.38595
G1 X95.653 Y134.686 E20.4003
G1 X95.5 Y134.623 E20.40855
G1 X95.343 Y134.574 E20.41676
G1 X95.06 Y134.525 E20.43108
G1 X94.757 Y134.525 E20.4462
G1 X94.46 Y134.578 E20.46125
G1 X94.176 Y134.682 E20.47634
G1 X93.913 Y134.834 E20.4915
G0 F3600 X93.856 Y134.753
G0 X94.754 Y134.486
G0 X95.352 Y134.536
G0 X103.246 Y136.11
G0 X103.345 Y136.116
G1 F1500 X103.345 Y136.406 E20.50597
G1 X103.398 Y136.704 E20.52107
G1 X103.502 Y136.986 E20.53606
G1 X103.645 Y137.234 E20.55034
G1 X103.756 Y137.379 E20.55945
G1 X103.962 Y137.58 E20.57381
G1 X104.194 Y137.744 E20.58799
G1 X104.353 Y137.827 E20.59694
G1 X104.628 Y137.926 E20.61152
G1 X104.924 Y137.977 E20.6265
G1 X105.226 Y137.977 E20.64157
G1 X105.522 Y137.924 E20.65657
G1 X105.806 Y137.821 E20.67164
G1 X106.054 Y137.676 E20.68598
G1 X106.197 Y137.568 E20.69492
G1 X106.401 Y137.36 E20.70945
G1 X106.564 Y137.127 E20.72364
G1 X106.647 Y136.97 E20.7325
G1 X106.746 Y136.696 E20.74703
G1 X106.797 Y136.399 E20.76207
G1 X106.797 Y136.097 E20.77713
G1 X106.744 Y135.801 E20.79214
G1 X106.641 Y135.516 E20.80725
G1 X106.488 Y135.253 E20.82243
G1 X106.292 Y135.023 E20.83751
G1 X106.062 Y134.83 E20.85249
G1 X105.813 Y134.686 E20.86684
G1 X105.66 Y134.623 E20.8751
G1 X105.503 Y134.574 E20.8833
G1 X105.22 Y134.525 E20.89763
G1 X104.917 Y134.525 E20.91275
G1 X104.62 Y134.578 E20.9278
G1 X104.336 Y134.682 E20.94289
G1 X104.073 Y134.834 E20.95804
G1 X103.843 Y135.03 E20.97312
G1 X103.65 Y135.26 E20.9881
G1 X103.506 Y135.51 E21.00249
G1 X103.438 Y135.675 E21.01139
G1 X103.368 Y135.941 E21.02512
G1 X103.345 Y136.116 E21.03392
G0 F3600 X103.745 Y136.37
;TYPE:WALL-OUTER
G1 F1500 X103.786 Y136.599 E21.04553
G1 X103.866 Y136.816 E21.05707
G1 X103.979 Y137.012 E21.06836
G1 X104.056 Y137.113 E21.07469
G1 X104.219 Y137.272 E21.08605
G1 X104.403 Y137.402 E21.09729
G1 X104.514 Y137.46 E21.10354
G1 X104.73 Y137.538 E21.115
G1 X104.958 Y137.577 E21.12654
G1 X105.19 Y137.577 E21.13811
G1 X105.418 Y137.536 E21.14967
G1 X105.636 Y137.457 E21.16124
G1 X105.832 Y137.343 E21.17255
G1 X105.932 Y137.267 E21.17882
G1 X106.092 Y137.104 E21.19021
G1 X106.222 Y136.918 E21.20153
G1 X106.28 Y136.808 E21.20774
G1 X106.358 Y136.593 E21.21915
G1 X106.397 Y136.365 E21.23069
G1 X106.397 Y136.133 E21.24226
G1 X106.356 Y135.905 E21.25382
G1 X106.277 Y135.686 E21.26543
G1 X106.16 Y135.485 E21.27704
G1 X106.009 Y135.308 E21.28865
G1 X105.832 Y135.159 E21.30019
G1 X105.636 Y135.046 E21.31148
G1 X105.524 Y135 E21.31752
G1 X105.409 Y134.964 E21.32353
G1 X105.185 Y134.925 E21.33487
G1 X104.953 Y134.925 E21.34645
G1 X104.725 Y134.966 E21.358
G1 X104.506 Y135.046 E21.36964
G1 X104.305 Y135.162 E21.38121
G1 X104.128 Y135.313 E21.39282
G1 X103.979 Y135.49 E21.40436
G1 X103.866 Y135.687 E21.41569
G1 X103.818 Y135.803 E21.42196
G1 X103.761 Y136.018 E21.43305
G1 X103.745 Y136.142 E21.43929
G1 X103.745 Y136.37 E21.45067
G0 F3600 X103.78 Y136.567
G0 X103.288 Y136.654
G0 X96.737 Y136.133
G0 X96.237 Y136.133
G1 F1500 X96.196 Y135.905 E21.46222
G1 X96.117 Y135.686 E21.47384
G1 X96 Y135.485 E21.48544
G1 X95.849 Y135.308 E21.49705
G1 X95.672 Y135.159 E21.50859
G1 X95.476 Y135.046 E21.51988
G1 X95.364 Y135 E21.52592
G1 X95.249 Y134.964 E21.53193
G1 X95.025 Y134.925 E21.54328
G1 X94.793 Y134.925 E21.55485
G1 X94.565 Y134.966 E21.56641
G1 X94.346 Y135.046 E21.57804
G1 X94.145 Y135.162 E21.58962
G1 X93.968 Y135.313 E21.60123
G1 X93.819 Y135.49 E21.61277
G1 X93.706 Y135.687 E21.6241
G1 X93.658 Y135.803 E21.63036
G1 X93.601 Y136.018 E21.64146
G1 X93.585 Y136.142 E21.6477
G1 X93.585 Y136.37 E21.65907
G1 X93.626 Y136.599 E21.67068
G1 X93.706 Y136.816 E21.68222
G1 X93.819 Y137.012 E21.6935
G1 X93.896 Y137.113 E21.69984
G1 X94.059 Y137.272 E21.7112
G1 X94.243 Y137.402 E21.72244
G1 X94.354 Y137.46 E21.72869
G1 X94.57 Y137.538 E21.74015
G1 X94.798 Y137.577 E21.75169
G1 X95.03 Y137.577 E21.76326
G1 X95.258 Y137.536 E21.77482
G1 X95.476 Y137.457 E21.78639
G1 X95.672 Y137.343 E21.7977
G1 X95.772 Y137.267 E21.80396
G1 X95.932 Y137.104 E21.81536
G1 X96.062 Y136.918 E21.82668
G1 X96.12 Y136.808 E21.83289
G1 X96.198 Y136.593 E21.8443
G1 X96.237 Y136.365 E21.85584
G1 X96.237 Y136.133 E21.86741
G0 F3600 X96.202 Y135.936
G0 X96.694 Y135.849
G0 X96.624 Y136.706
G0 X96.438 Y137.147
G0 X96.063 Y137.598
G0 X95.662 Y137.857
G0 X87.991 Y140.205
G0 X87.491 Y140.205
G1 F1500 X87.491 Y126.291 E22.56158
G1 X112.291 Y126.291 E23.79886
G1 X112.491 Y126.291 E23.80884
G1 X112.491 Y126.491 E23.8153
G1 X112.49 Y141.431 E24.56066
G1 X112.473 Y141.626 E24.57042
G1 X112.44 Y141.82 E24.58024
G1 X112.385 Y142.03 E24.59107
G1 X112.318 Y142.216 E24.60094
G1 X112.235 Y142.395 E24.61078
G1 X112.127 Y142.584 E24.62164
G1 X112.019 Y142.74 E24.63111
G1 X111.882 Y142.905 E24.6418
G1 X111.739 Y143.049 E24.65193
G1 X111.578 Y143.185 E24.66244
G1 X111.42 Y143.297 E24.67211
G1 X111.242 Y143.4 E24.68237
G1 X111.059 Y143.487 E24.69248
G1 X110.863 Y143.56 E24.70291
G1 X110.667 Y143.613 E24.71304
G1 X110.464 Y143.649 E24.72333
G1 X110.266 Y143.667 E24.73324
G1 X89.736 Y143.67 E25.75749
G1 X89.537 Y143.653 E25.76745
G1 X89.341 Y143.62 E25.77737
G1 X89.132 Y143.565 E25.78815
G1 X88.946 Y143.498 E25.79802
G1 X88.763 Y143.412 E25.8081
G1 X88.578 Y143.307 E25.81872
G1 X88.418 Y143.196 E25.82843
G1 X88.257 Y143.062 E25.83888
G1 X88.113 Y142.919 E25.84901
G1 X87.976 Y142.757 E25.85959
G1 X87.865 Y142.6 E25.86918
G1 X87.762 Y142.422 E25.87944
G1 X87.675 Y142.239 E25.88955
G1 X87.603 Y142.042 E25.90002
G1 X87.549 Y141.846 E25.91016
G1 X87.514 Y141.647 E25.92024
G1 X87.496 Y141.446 E25.93031
G1 X87.491 Y140.205 E25.99222
G0 F3600 X87.491 Y140.005
G0 X87.991 Y140.005
G0 X88.174 Y141.914
;TYPE:SKIN
G1 F1500 X89.248 Y142.989 E26.06804
G1 X89.318 Y143.059
G0 F3600 X89.914 Y143.088
G1 F1500 X88.075 Y141.249 E26.19779
G1 X88.005 Y141.179
G0 F3600 X88.072 Y140.681
G1 F1500 X90.479 Y143.088 E26.36761
G1 X90.549 Y143.158
G0 F3600 X91.045 Y143.088
G1 F1500 X88.07 Y140.113 E26.57752
G1 X88 Y140.043
G0 F3600 X88.07 Y139.548
G1 F1500 X91.611 Y143.088 E26.82732
G1 X91.681 Y143.158
G0 F3600 X92.177 Y143.088
G1 F1500 X88.07 Y138.982 E27.11705
G1 X88 Y138.912
G0 F3600 X88.07 Y138.416
G1 F1500 X92.742 Y143.088 E27.44669
G1 X92.812 Y143.158
G0 F3600 X93.308 Y143.088
G1 F1500 X88.07 Y137.851 E27.81622
G1 X88 Y137.781
G0 F3600 X88.07 Y137.285
G1 F1500 X93.874 Y143.088 E28.22569
G1 X93.944 Y143.158
G0 F3600 X94.439 Y143.088
G1 F1500 X88.07 Y136.719 E28.67506
G1 X88 Y136.649
G0 F3600 X88.07 Y136.154
G1 F1500 X95.004 Y143.088 E29.16429
G1 X95.074 Y143.158
G0 F3600 X95.57 Y143.088
G1 F1500 X88.07 Y135.588 E29.69345
G1 X88 Y135.518
G0 F3600 X88.07 Y135.022
G1 F1500 X96.136 Y143.088 E30.26255
G1 X96.206 Y143.158
G0 F3600 X96.701 Y143.088
G1 F1500 X88.07 Y134.457 E30.87152
G1 X88 Y134.387
G0 F3600 X88.07 Y133.891
G1 F1500 X97.267 Y143.088 E31.52042
G1 X97.337 Y143.158
G0 F3600 X97.833 Y143.088
G1 F1500 X88.07 Y133.325 E32.20925
G1 X88 Y133.255
G0 F3600 X88.07 Y132.76
G1 F1500 X98.398 Y143.088 E32.93794
G1 X98.468 Y143.158
G0 F3600 X98.964 Y143.088
G1 F1500 X88.07 Y132.194 E33.70657
G1 X88 Y132.124
G0 F3600 X88.07 Y131.628
G1 F1500 X93.036 Y136.593 E34.05692
G1 X93.106 Y136.663
G0 F3600 X93.017 Y136.009
G1 F1500 X88.07 Y131.062 E34.40596
G1 X88 Y130.992
G0 F3600 X88.07 Y130.497
G1 F1500 X93.13 Y135.557 E34.76297
G1 X93.2 Y135.627
