;FLAVOR:Marlin
;TIME:1420
;Filament used: 0.788473m
;Layer height: 0.2
;Generated with Cura_SteamEngine master
M190 S65
M104 S210
M109 S210
G21 ;metric values
G90 ;absolute positioning
M82 ;set extruder to absolute mode
M107 ;start with the fan off
G28 X0 Y0 ;move X/Y to min endstops
G28 Z0 ;move Z to min endstops
G1 Z15.0 F9000 ;move the platform down 15mm
G92 E0 ;zero the extruded length
G1 F200 E3 ;extrude 3mm of feed stock
G92 E0 ;zero the extruded length again
G1 F9000
;Put printing message on LCD screen
M117 Printing...
;LAYER_COUNT:207
;LAYER:0
M107
G0 F3600 X94.213 Y124.735 Z0.3
;TYPE:SKIRT
G1 F1500 X94.756 Y124.354 E0.03309
G1 X95.636 Y123.846 E0.08379
G1 X96.238 Y123.565 E0.11693
G1 X97.193 Y123.218 E0.16762
G1 X97.749 Y123.063 E0.19642
G1 X98.497 Y122.914 E0.23447
G1 X99.071 Y122.845 E0.26332
G1 X100.086 Y122.8 E0.314
G1 X100.751 Y122.829 E0.34721
G1 X101.759 Y122.962 E0.39794
G1 X102.484 Y123.131 E0.43508
G1 X103.685 Y123.539 E0.49836
G1 X104.36 Y123.844 E0.53531
G1 X105.24 Y124.351 E0.58598
G1 X105.787 Y124.734 E0.6193
G1 X106.567 Y125.389 E0.67011
G1 X107.034 Y125.856 E0.70306
G1 X107.687 Y126.634 E0.75374
G1 X108.067 Y127.177 E0.7868
G1 X108.575 Y128.057 E0.83749
G1 X108.854 Y128.656 E0.87046
G1 X109.202 Y129.611 E0.92117
G1 X109.375 Y130.254 E0.95439
G1 X109.551 Y131.255 E1.0051
G1 X109.607 Y131.994 E1.04207
G1 X109.58 Y133.262 E1.10535
G1 X109.529 Y133.81 E1.13281
G1 X109.451 Y134.166 E1.15099
G1 X109.056 Y135.638 E1.22702
G1 X108.875 Y136.158 E1.25449
G1 X108.756 Y136.409 E1.26835
G1 X108.287 Y137.309 E1.31898
G1 X107.932 Y137.866 E1.35194
G1 X107.313 Y138.673 E1.40268
G1 X106.93 Y139.101 E1.43133
G1 X106.38 Y139.629 E1.46937
G1 X105.927 Y140.001 E1.49861
G1 X105.094 Y140.584 E1.54934
G1 X104.444 Y140.95 E1.58656
G1 X103.281 Y141.461 E1.64993
G1 X102.575 Y141.692 E1.68699
G1 X101.583 Y141.912 E1.73769
G1 X100.925 Y141.998 E1.77079
G1 X99.912 Y142.042 E1.82138
G1 X99.167 Y142.002 E1.8586
G1 X97.91 Y141.808 E1.92205
G1 X97.116 Y141.595 E1.96307
G1 X95.935 Y141.137 E2.02626
G1 X95.335 Y140.841 E2.05964
G1 X94.682 Y140.444 E2.09777
G1 X94.215 Y140.109 E2.12644
G1 X93.436 Y139.456 E2.17716
G1 X92.965 Y138.985 E2.21039
G1 X92.312 Y138.206 E2.2611
G1 X91.933 Y137.665 E2.29405
G1 X91.425 Y136.785 E2.34475
G1 X91.146 Y136.186 E2.37772
G1 X90.798 Y135.231 E2.42843
G1 X90.625 Y134.588 E2.46165
G1 X90.449 Y133.587 E2.51235
G1 X90.392 Y132.929 E2.5453
G1 X90.392 Y131.913 E2.59599
G1 X90.465 Y131.174 E2.63304
G1 X90.712 Y129.929 E2.69636
G1 X90.929 Y129.212 E2.73374
G1 X91.318 Y128.274 E2.7844
G1 X91.623 Y127.688 E2.81736
G1 X92.169 Y126.831 E2.86805
G1 X92.516 Y126.369 E2.89688
G1 X93.019 Y125.795 E2.93496
G1 X93.434 Y125.389 E2.96392
G1 X94.213 Y124.735 E3.01467
G0 F3600 X94.47 Y125.041
G1 F1500 X94.956 Y124.7 E3.04429
G1 X95.836 Y124.192 E3.09498
G1 X96.375 Y123.941 E3.12464
G1 X97.33 Y123.594 E3.17534
G1 X97.827 Y123.456 E3.20107
G1 X98.575 Y123.307 E3.23912
G1 X99.088 Y123.244 E3.26491
G1 X100.103 Y123.199 E3.31559
G1 X100.699 Y123.225 E3.34536
G1 X101.707 Y123.358 E3.39608
G1 X102.356 Y123.51 E3.42934
G1 X103.557 Y123.918 E3.49262
G1 X104.16 Y124.191 E3.52564
G1 X105.04 Y124.698 E3.57631
G1 X105.529 Y125.04 E3.60608
G1 X106.309 Y125.695 E3.6569
G1 X106.727 Y126.113 E3.68639
G1 X107.38 Y126.891 E3.73706
G1 X107.721 Y127.377 E3.76668
G1 X108.229 Y128.257 E3.81738
G1 X108.479 Y128.793 E3.84688
G1 X108.827 Y129.748 E3.89759
G1 X108.981 Y130.323 E3.92729
G1 X109.157 Y131.324 E3.978
G1 X109.207 Y131.985 E4.01107
G1 X109.18 Y133.253 E4.07434
G1 X109.129 Y133.772 E4.10036
G1 X109.065 Y134.062 E4.11518
G1 X108.67 Y135.534 E4.19121
G1 X108.401 Y136.224 E4.22816
G1 X107.932 Y137.124 E4.27879
G1 X107.615 Y137.622 E4.30825
G1 X106.996 Y138.429 E4.35899
G1 X106.653 Y138.813 E4.38467
G1 X106.103 Y139.341 E4.42271
G1 X105.698 Y139.674 E4.44887
G1 X104.865 Y140.257 E4.4996
G1 X104.283 Y140.584 E4.5329
G1 X103.12 Y141.095 E4.59628
G1 X102.488 Y141.301 E4.62944
G1 X101.496 Y141.521 E4.68013
G1 X100.908 Y141.599 E4.70973
G1 X99.895 Y141.643 E4.76031
G1 X99.228 Y141.606 E4.79364
G1 X97.971 Y141.412 E4.8571
G1 X97.261 Y141.222 E4.89376
G1 X96.08 Y140.764 E4.95696
G1 X95.543 Y140.499 E4.98684
G1 X94.89 Y140.102 E5.02496
G1 X94.472 Y139.803 E5.0506
G1 X93.693 Y139.15 E5.10132
G1 X93.271 Y138.728 E5.13109
G1 X92.618 Y137.949 E5.1818
G1 X92.279 Y137.465 E5.21128
G1 X91.771 Y136.585 E5.26198
G1 X91.521 Y136.049 E5.29148
G1 X91.173 Y135.094 E5.34219
G1 X91.019 Y134.519 E5.37189
G1 X90.843 Y133.518 E5.4226
G1 X90.792 Y132.929 E5.45209
G1 X90.792 Y131.913 E5.50278
G1 X90.857 Y131.251 E5.53597
G1 X91.104 Y130.006 E5.59929
G1 X91.298 Y129.366 E5.63266
G1 X91.687 Y128.428 E5.68332
G1 X91.961 Y127.903 E5.71286
G1 X92.507 Y127.046 E5.76356
G1 X92.817 Y126.632 E5.78936
G1 X93.32 Y126.058 E5.82744
G1 X93.691 Y125.695 E5.85333
G1 X94.47 Y125.041 E5.90408
G0 F3600 X94.727 Y125.347
G1 F1500 X95.156 Y125.047 E5.9302
G1 X96.036 Y124.539 E5.98089
G1 X96.511 Y124.317 E6.00705
G1 X97.466 Y123.97 E6.05774
G1 X97.905 Y123.848 E6.08047
G1 X98.653 Y123.699 E6.11852
G1 X99.106 Y123.644 E6.14129
G1 X100.121 Y123.599 E6.19198
G1 X100.646 Y123.622 E6.2182
G1 X101.654 Y123.755 E6.26892
G1 X102.227 Y123.888 E6.29827
G1 X103.428 Y124.296 E6.36155
G1 X103.961 Y124.538 E6.39075
G1 X104.841 Y125.045 E6.44142
G1 X105.272 Y125.347 E6.46768
G1 X106.052 Y126.002 E6.51849
G1 X106.421 Y126.37 E6.54449
G1 X107.074 Y127.148 E6.59517
G1 X107.374 Y127.577 E6.62128
G1 X107.882 Y128.457 E6.67198
G1 X108.103 Y128.93 E6.69802
G1 X108.451 Y129.885 E6.74873
G1 X108.587 Y130.392 E6.77492
G1 X108.763 Y131.393 E6.82563
G1 X108.807 Y131.977 E6.85485
G1 X108.78 Y133.245 E6.91812
G1 X108.678 Y133.959 E6.95411
G1 X108.283 Y135.431 E7.03014
G1 X108.046 Y136.039 E7.0627
G1 X107.577 Y136.939 E7.11333
G1 X107.297 Y137.379 E7.13935
G1 X106.678 Y138.186 E7.19009
G1 X106.376 Y138.524 E7.2127
G1 X105.826 Y139.052 E7.25074
G1 X105.468 Y139.346 E7.27385
G1 X104.635 Y139.929 E7.32458
G1 X104.122 Y140.218 E7.35395
G1 X102.959 Y140.729 E7.41733
G1 X102.402 Y140.911 E7.44657
G1 X101.41 Y141.131 E7.49726
G1 X100.89 Y141.199 E7.52342
G1 X99.877 Y141.243 E7.57401
G1 X99.289 Y141.211 E7.60339
G1 X98.032 Y141.017 E7.66684
G1 X97.405 Y140.849 E7.69923
G1 X96.224 Y140.391 E7.76242
G1 X95.751 Y140.157 E7.78875
G1 X95.098 Y139.76 E7.82688
G1 X94.729 Y139.496 E7.84951
G1 X93.95 Y138.843 E7.90023
G1 X93.578 Y138.471 E7.92647
G1 X92.925 Y137.692 E7.97719
G1 X92.626 Y137.265 E8.00319
G1 X92.118 Y136.385 E8.05389
G1 X91.897 Y135.912 E8.07993
G1 X91.549 Y134.957 E8.13064
G1 X91.413 Y134.45 E8.15683
G1 X91.237 Y133.449 E8.20754
G1 X91.192 Y132.929 E8.23358
G1 X91.192 Y131.913 E8.28427
G1 X91.249 Y131.329 E8.31354
G1 X91.496 Y130.084 E8.37686
G1 X91.668 Y129.519 E8.40633
G1 X92.057 Y128.581 E8.45699
G1 X92.298 Y128.118 E8.48303
G1 X92.844 Y127.261 E8.53373
G1 X93.118 Y126.896 E8.5565
G1 X93.621 Y126.322 E8.59457
G1 X93.948 Y126.001 E8.61744
G1 X94.727 Y125.347 E8.66818
G0 F3600 X94.984 Y125.654
G1 F1500 X95.356 Y125.393 E8.69085
G1 X96.236 Y124.885 E8.74155
G1 X96.648 Y124.693 E8.76422
G1 X97.603 Y124.346 E8.81492
G1 X97.983 Y124.24 E8.8346
G1 X98.731 Y124.091 E8.87265
G1 X99.124 Y124.044 E8.89239
G1 X100.139 Y123.999 E8.94308
G1 X100.594 Y124.018 E8.9658
G1 X101.602 Y124.151 E9.01653
G1 X102.098 Y124.267 E9.04194
G1 X103.299 Y124.675 E9.10522
G1 X103.761 Y124.884 E9.13052
G1 X104.641 Y125.391 E9.18119
G1 X105.015 Y125.653 E9.20397
G1 X105.795 Y126.308 E9.25479
G1 X106.114 Y126.627 E9.27729
G1 X106.767 Y127.405 E9.32797
G1 X107.028 Y127.777 E9.35064
G1 X107.536 Y128.657 E9.40133
G1 X107.727 Y129.067 E9.4239
G1 X108.075 Y130.022 E9.47461
G1 X108.193 Y130.462 E9.49734
G1 X108.369 Y131.463 E9.54804
G1 X108.407 Y131.968 E9.57331
G1 X108.38 Y133.236 E9.63658
G1 X108.292 Y133.855 E9.66778
G1 X107.897 Y135.327 E9.74381
G1 X107.692 Y135.855 E9.77207
G1 X107.223 Y136.755 E9.8227
G1 X106.98 Y137.135 E9.84521
G1 X106.361 Y137.942 E9.89595
G1 X106.099 Y138.236 E9.91559
G1 X105.549 Y138.764 E9.95363
G1 X105.239 Y139.018 E9.97363
G1 X104.406 Y139.601 E10.02435
G1 X103.961 Y139.851 E10.04982
G1 X102.798 Y140.362 E10.11319
G1 X102.315 Y140.52 E10.13855
G1 X101.323 Y140.74 E10.18924
G1 X100.873 Y140.8 E10.21189
G1 X99.86 Y140.844 E10.26247
G1 X99.35 Y140.816 E10.28796
G1 X98.093 Y140.622 E10.35141
G1 X97.55 Y140.476 E10.37946
G1 X96.369 Y140.018 E10.44266
G1 X95.958 Y139.816 E10.46551
G1 X95.305 Y139.419 E10.50363
G1 X94.986 Y139.19 E10.52323
G1 X94.207 Y138.537 E10.57394
G1 X93.884 Y138.214 E10.59673
G1 X93.231 Y137.435 E10.64744
G1 X92.972 Y137.065 E10.66997
G1 X92.464 Y136.185 E10.72067
G1 X92.273 Y135.775 E10.74323
G1 X91.925 Y134.82 E10.79394
G1 X91.807 Y134.38 E10.81667
G1 X91.631 Y133.379 E10.86738
G1 X91.592 Y132.929 E10.88991
G1 X91.592 Y131.913 E10.9406
G1 X91.642 Y131.407 E10.96597
G1 X91.889 Y130.162 E11.02929
G1 X92.037 Y129.672 E11.05483
G1 X92.426 Y128.734 E11.10549
G1 X92.635 Y128.333 E11.12805
G1 X93.181 Y127.476 E11.17874
G1 X93.419 Y127.159 E11.19852
G1 X93.922 Y126.585 E11.2366
G1 X94.205 Y126.308 E11.25635
G1 X94.984 Y125.654 E11.3071
G0 F3600 X95.241 Y125.96
G1 F1500 X95.556 Y125.74 E11.32627
G1 X96.436 Y125.232 E11.37696
G1 X96.785 Y125.069 E11.39618
G1 X97.74 Y124.722 E11.44687
G1 X98.061 Y124.632 E11.4635
G1 X98.809 Y124.483 E11.50155
G1 X99.142 Y124.443 E11.51829
G1 X100.157 Y124.398 E11.56898
G1 X100.542 Y124.415 E11.5882
G1 X101.55 Y124.548 E11.63893
G1 X101.97 Y124.646 E11.66044
G1 X103.171 Y125.054 E11.72373
G1 X103.561 Y125.231 E11.74509
G1 X104.441 Y125.738 E11.79576
G1 X104.758 Y125.959 E11.81504
G1 X105.538 Y126.614 E11.86586
G1 X105.808 Y126.885 E11.88494
G1 X106.461 Y127.663 E11.93562
G1 X106.681 Y127.977 E11.95474
G1 X107.189 Y128.857 E12.00544
G1 X107.351 Y129.204 E12.02454
G1 X107.699 Y130.159 E12.07525
G1 X107.799 Y130.531 E12.09447
G1 X107.975 Y131.532 E12.14518
G1 X108.008 Y131.96 E12.16659
G1 X107.981 Y133.228 E12.22987
G1 X107.906 Y133.751 E12.25623
G1 X107.511 Y135.223 E12.33226
G1 X107.337 Y135.67 E12.3562
G1 X106.868 Y136.57 E12.40683
G1 X106.663 Y136.892 E12.42587
G1 X106.044 Y137.699 E12.47661
G1 X105.822 Y137.947 E12.49322
G1 X105.272 Y138.475 E12.53126
G1 X105.009 Y138.69 E12.5482
G1 X104.176 Y139.273 E12.59893
G1 X103.8 Y139.485 E12.62046
G1 X102.637 Y139.996 E12.68384
G1 X102.228 Y140.13 E12.70531
G1 X101.236 Y140.35 E12.75601
G1 X100.855 Y140.4 E12.77518
G1 X99.842 Y140.444 E12.82576
G1 X99.411 Y140.42 E12.8473
G1 X98.154 Y140.226 E12.91075
G1 X97.695 Y140.103 E12.93446
G1 X96.514 Y139.645 E12.99766
G1 X96.166 Y139.474 E13.017
G1 X95.513 Y139.077 E13.05513
G1 X95.243 Y138.883 E13.07172
G1 X94.464 Y138.23 E13.12243
G1 X94.191 Y137.957 E13.14169
G1 X93.538 Y137.178 E13.1924
G1 X93.319 Y136.865 E13.21146
G1 X92.811 Y135.985 E13.26216
G1 X92.649 Y135.638 E13.28126
G1 X92.301 Y134.683 E13.33197
G1 X92.201 Y134.311 E13.35119
G1 X92.025 Y133.31 E13.40189
G1 X91.992 Y132.929 E13.42097
G1 X91.992 Y131.913 E13.47166
G1 X92.034 Y131.485 E13.49312
G1 X92.281 Y130.24 E13.55644
G1 X92.407 Y129.825 E13.57808
G1 X92.796 Y128.887 E13.62874
G1 X92.973 Y128.548 E13.64782
G1 X93.519 Y127.691 E13.69852
G1 X93.719 Y127.423 E13.7152
G1 X94.222 Y126.849 E13.75328
G1 X94.462 Y126.614 E13.77003
G1 X95.241 Y125.96 E13.82078
G0 F3600 X95.499 Y126.266
G1 F1500 X95.756 Y126.086 E13.83643
G1 X96.636 Y125.578 E13.88713
G1 X96.921 Y125.445 E13.90282
G1 X97.876 Y125.098 E13.95351
G1 X98.139 Y125.025 E13.96713
G1 X98.887 Y124.876 E14.00518
G1 X99.159 Y124.843 E14.01885
G1 X100.174 Y124.798 E14.06954
G1 X100.489 Y124.811 E14.08527
G1 X101.497 Y124.944 E14.13599
G1 X101.841 Y125.025 E14.15362
G1 X103.042 Y125.433 E14.2169
G1 X103.362 Y125.577 E14.23441
G1 X104.242 Y126.084 E14.28508
G1 X104.501 Y126.266 E14.30087
G1 X105.281 Y126.921 E14.35169
G1 X105.502 Y127.142 E14.36728
G1 X106.155 Y127.92 E14.41795
G1 X106.335 Y128.177 E14.43361
G1 X106.843 Y129.057 E14.4843
G1 X106.975 Y129.341 E14.49993
G1 X107.323 Y130.296 E14.55064
G1 X107.405 Y130.6 E14.56634
G1 X107.581 Y131.601 E14.61705
G1 X107.608 Y131.951 E14.63456
G1 X107.581 Y133.219 E14.69784
G1 X107.519 Y133.648 E14.71946
G1 X107.124 Y135.12 E14.7955
G1 X106.982 Y135.485 E14.81504
G1 X106.513 Y136.385 E14.86567
G1 X106.345 Y136.649 E14.88128
G1 X105.726 Y137.456 E14.93203
G1 X105.545 Y137.658 E14.94556
G1 X104.995 Y138.186 E14.98359
G1 X104.78 Y138.363 E14.99749
G1 X103.947 Y138.946 E15.04821
G1 X103.639 Y139.119 E15.06584
G1 X102.476 Y139.63 E15.12921
G1 X102.142 Y139.739 E15.14674
G1 X101.15 Y139.959 E15.19744
G1 X100.838 Y140 E15.21314
G1 X99.825 Y140.044 E15.26372
G1 X99.472 Y140.025 E15.28136
G1 X98.215 Y139.831 E15.34481
G1 X97.839 Y139.73 E15.36424
G1 X96.658 Y139.272 E15.42743
G1 X96.374 Y139.132 E15.44323
G1 X95.721 Y138.735 E15.48136
G1 X95.5 Y138.576 E15.49494
G1 X94.721 Y137.923 E15.54565
G1 X94.498 Y137.7 E15.56139
G1 X93.845 Y136.921 E15.6121
G1 X93.665 Y136.665 E15.62771
G1 X93.157 Y135.785 E15.67841
G1 X93.025 Y135.501 E15.69403
G1 X92.677 Y134.546 E15.74474
G1 X92.595 Y134.242 E15.76045
G1 X92.419 Y133.241 E15.81115
G1 X92.392 Y132.929 E15.82678
G1 X92.392 Y131.913 E15.87747
G1 X92.426 Y131.563 E15.89501
G1 X92.673 Y130.318 E15.95833
G1 X92.776 Y129.978 E15.97606
G1 X93.165 Y129.04 E16.02672
G1 X93.31 Y128.763 E16.04232
G1 X93.856 Y127.906 E16.09301
G1 X94.02 Y127.687 E16.10666
G1 X94.523 Y127.113 E16.14474
G1 X94.72 Y126.92 E16.1585
G1 X95.499 Y126.266 E16.20925
G0 F3600 X95.756 Y126.573
G1 F1500 X95.956 Y126.433 E16.22142
G1 X96.836 Y125.925 E16.27212
G1 X97.058 Y125.821 E16.28435
G1 X98.013 Y125.474 E16.33504
G1 X98.217 Y125.417 E16.34561
G1 X98.965 Y125.268 E16.38366
G1 X99.177 Y125.242 E16.39432
G1 X100.192 Y125.197 E16.445
G1 X100.437 Y125.208 E16.45724
G1 X101.445 Y125.341 E16.50797
G1 X101.712 Y125.403 E16.52164
G1 X102.913 Y125.811 E16.58492
G1 X103.162 Y125.924 E16.59856
G1 X104.042 Y126.431 E16.64923
G1 X104.243 Y126.572 E16.66148
G1 X105.023 Y127.227 E16.7123
G1 X105.195 Y127.399 E16.72443
G1 X105.848 Y128.177 E16.77511
G1 X105.988 Y128.377 E16.78729
G1 X106.496 Y129.257 E16.83798
G1 X106.599 Y129.478 E16.85014
G1 X106.947 Y130.433 E16.90085
G1 X107.011 Y130.67 E16.9131
G1 X107.187 Y131.671 E16.96381
G1 X107.208 Y131.943 E16.97742
G1 X107.181 Y133.211 E17.04069
G1 X107.133 Y133.544 E17.05748
G1 X106.738 Y135.016 E17.13352
G1 X106.628 Y135.3 E17.14871
G1 X106.159 Y136.2 E17.19934
G1 X106.028 Y136.405 E17.21148
G1 X105.409 Y137.212 E17.26222
G1 X105.268 Y137.37 E17.27279
G1 X104.718 Y137.898 E17.31082
G1 X104.551 Y138.035 E17.3216
G1 X103.718 Y138.618 E17.37233
G1 X103.478 Y138.753 E17.38606
G1 X102.315 Y139.264 E17.44944
G1 X102.055 Y139.349 E17.46309
G1 X101.063 Y139.569 E17.51378
G1 X100.821 Y139.601 E17.52596
G1 X99.808 Y139.645 E17.57654
G1 X99.533 Y139.63 E17.59029
G1 X98.276 Y139.436 E17.65374
G1 X97.984 Y139.357 E17.66883
G1 X96.803 Y138.899 E17.73203
G1 X96.582 Y138.79 E17.74432
G1 X95.929 Y138.393 E17.78245
G1 X95.757 Y138.27 E17.793
G1 X94.978 Y137.617 E17.84371
G1 X94.804 Y137.443 E17.85599
G1 X94.151 Y136.664 E17.9067
G1 X94.012 Y136.465 E17.91881
G1 X93.504 Y135.585 E17.9695
G1 X93.401 Y135.364 E17.98167
G1 X93.053 Y134.409 E18.03238
G1 X92.989 Y134.172 E18.04463
G1 X92.813 Y133.171 E18.09533
G1 X92.792 Y132.929 E18.10745
G1 X92.792 Y131.913 E18.15814
G1 X92.819 Y131.641 E18.17178
G1 X93.066 Y130.396 E18.2351
G1 X93.146 Y130.132 E18.24886
G1 X93.535 Y129.194 E18.29952
G1 X93.647 Y128.978 E18.31166
G1 X94.193 Y128.121 E18.36236
G1 X94.321 Y127.95 E18.37301
G1 X94.824 Y127.376 E18.41109
G1 X94.977 Y127.227 E18.42175
G1 X95.756 Y126.573 E18.47249
G0 F3600 X96.013 Y126.879
G1 F1500 X96.156 Y126.779 E18.4812
G1 X97.036 Y126.271 E18.53189
G1 X97.194 Y126.197 E18.54059
G1 X98.149 Y125.85 E18.59129
G1 X98.296 Y125.809 E18.5989
G1 X99.044 Y125.66 E18.63695
G1 X99.195 Y125.642 E18.64454
G1 X100.21 Y125.597 E18.69523
G1 X100.385 Y125.605 E18.70397
G1 X101.393 Y125.738 E18.75469
G1 X101.584 Y125.782 E18.76447
G1 X102.785 Y126.19 E18.82775
G1 X102.962 Y126.271 E18.83746
G1 X103.842 Y126.778 E18.88813
G1 X103.986 Y126.878 E18.89688
G1 X104.766 Y127.533 E18.94769
G1 X104.889 Y127.656 E18.95637
