;FLAVOR:Marlin
;TIME:1187
;Filament used: 0.657964m
;Layer height: 0.2
;Generated with Cura_SteamEngine master
M190 S65
M104 S210
M109 S210
G21 ;metric values
G90 ;absolute positioning
M82 ;set extruder to absolute mode
M107 ;start with the fan off
G28 X0 Y0 ;move X/Y to min endstops
G28 Z0 ;move Z to min endstops
G1 Z15.0 F9000 ;move the platform down 15mm
G92 E0 ;zero the extruded length
G1 F200 E3 ;extrude 3mm of feed stock
G92 E0 ;zero the extruded length again
G1 F9000
;Put printing message on LCD screen
M117 Printing...
;LAYER_COUNT:207
;LAYER:0
M107
G0 F3600 X93.947 Y124.381 Z0.3
;TYPE:SKIRT
G1 F1500 X94.551 Y123.928 E0.03767
G1 X95.638 Y123.271 E0.10103
G1 X96.308 Y122.951 E0.13808
G1 X97.256 Y122.607 E0.18839
G1 X97.894 Y122.436 E0.22134
G1 X98.89 Y122.261 E0.2718
G1 X99.629 Y122.205 E0.30877
G1 X100.899 Y122.232 E0.37215
G1 X101.643 Y122.322 E0.40953
G1 X102.641 Y122.544 E0.46054
G1 X103.419 Y122.808 E0.50153
G1 X104.788 Y123.445 E0.57686
G1 X105.27 Y123.713 E0.60438
G1 X105.561 Y123.924 E0.62231
G1 X106.552 Y124.718 E0.68566
G1 X107.085 Y125.238 E0.72281
G1 X107.74 Y126.017 E0.77359
G1 X108.161 Y126.633 E0.81081
G1 X108.776 Y127.752 E0.87452
G1 X109.071 Y128.443 E0.912
G1 X109.373 Y129.404 E0.96226
G1 X109.515 Y130.042 E0.99487
G1 X109.65 Y131.057 E1.04595
G1 X109.68 Y131.72 E1.07906
G1 X109.637 Y132.728 E1.1294
G1 X109.55 Y133.388 E1.16261
G1 X109.327 Y134.395 E1.21406
G1 X109.169 Y134.923 E1.24156
G1 X109.059 Y135.183 E1.25565
G1 X108.42 Y136.549 E1.33088
G1 X107.999 Y137.244 E1.37142
G1 X107.385 Y138.049 E1.42193
G1 X106.931 Y138.546 E1.45552
G1 X106.178 Y139.236 E1.50647
G1 X105.653 Y139.639 E1.53949
G1 X104.796 Y140.185 E1.59019
G1 X104.293 Y140.454 E1.61864
G1 X103.591 Y140.765 E1.65695
G1 X103.031 Y140.963 E1.68658
G1 X102.052 Y141.224 E1.73713
G1 X101.407 Y141.337 E1.7698
G1 X100.387 Y141.427 E1.82089
G1 X99.644 Y141.42 E1.85796
G1 X98.389 Y141.284 E1.92094
G1 X97.847 Y141.185 E1.94842
G1 X97.492 Y141.074 E1.96698
G1 X96.055 Y140.548 E2.04332
G1 X95.552 Y140.322 E2.07084
G1 X95.25 Y140.14 E2.08843
G1 X94.196 Y139.436 E2.15166
G1 X93.614 Y138.957 E2.18927
G1 X92.897 Y138.237 E2.23996
G1 X92.431 Y137.668 E2.27666
G1 X91.731 Y136.621 E2.33949
G1 X91.379 Y135.962 E2.37676
G1 X90.986 Y135.012 E2.42805
G1 X90.787 Y134.381 E2.46106
G1 X90.567 Y133.388 E2.51181
G1 X90.481 Y132.732 E2.54481
G1 X90.437 Y131.725 E2.5951
G1 X90.456 Y131.142 E2.6242
G1 X90.541 Y130.373 E2.6628
G1 X90.649 Y129.803 E2.69175
G1 X90.913 Y128.822 E2.74243
G1 X91.176 Y128.124 E2.77964
G1 X91.732 Y127 E2.8422
G1 X92.125 Y126.37 E2.87925
G1 X92.749 Y125.558 E2.93034
G1 X93.192 Y125.074 E2.96307
G1 X93.947 Y124.381 E3.0142
G0 F3600 X94.218 Y124.675
G1 F1500 X94.758 Y124.27 E3.04788
G1 X95.845 Y123.613 E3.11125
G1 X96.444 Y123.327 E3.14436
G1 X97.392 Y122.983 E3.19468
G1 X97.964 Y122.83 E3.22422
G1 X98.96 Y122.655 E3.27467
G1 X99.62 Y122.605 E3.30769
G1 X100.89 Y122.632 E3.37106
G1 X101.556 Y122.712 E3.40453
G1 X102.554 Y122.934 E3.45554
G1 X103.25 Y123.17 E3.4922
G1 X104.619 Y123.807 E3.56753
G1 X105.074 Y124.063 E3.59358
G1 X105.311 Y124.237 E3.60825
G1 X106.302 Y125.031 E3.6716
G1 X106.778 Y125.496 E3.7048
G1 X107.433 Y126.275 E3.75558
G1 X107.811 Y126.825 E3.78887
G1 X108.426 Y127.944 E3.85258
G1 X108.69 Y128.563 E3.88615
G1 X108.992 Y129.524 E3.93641
G1 X109.118 Y130.095 E3.96558
G1 X109.253 Y131.11 E4.01666
G1 X109.28 Y131.703 E4.04628
G1 X109.237 Y132.711 E4.09661
G1 X109.16 Y133.301 E4.1263
G1 X108.937 Y134.308 E4.17776
G1 X108.697 Y135.014 E4.21496
G1 X108.058 Y136.38 E4.2902
G1 X107.681 Y137.001 E4.32644
G1 X107.067 Y137.806 E4.37695
G1 X106.661 Y138.251 E4.407
G1 X105.908 Y138.941 E4.45796
G1 X105.438 Y139.301 E4.48749
G1 X104.581 Y139.847 E4.53819
G1 X104.131 Y140.089 E4.56368
G1 X103.429 Y140.4 E4.60199
G1 X102.928 Y140.576 E4.62848
G1 X101.949 Y140.837 E4.67903
G1 X101.372 Y140.939 E4.70826
G1 X100.352 Y141.029 E4.75935
G1 X99.687 Y141.022 E4.79252
G1 X98.432 Y140.886 E4.8555
G1 X97.919 Y140.791 E4.88153
G1 X97.629 Y140.699 E4.89671
G1 X96.192 Y140.173 E4.97306
G1 X95.718 Y139.957 E4.99904
G1 X95.473 Y139.807 E5.01337
G1 X94.419 Y139.103 E5.07661
G1 X93.898 Y138.675 E5.11025
G1 X93.181 Y137.955 E5.16094
G1 X92.764 Y137.446 E5.19377
G1 X92.064 Y136.399 E5.25661
G1 X91.748 Y135.809 E5.29
G1 X91.355 Y134.859 E5.34129
G1 X91.177 Y134.294 E5.37084
G1 X90.957 Y133.301 E5.42158
G1 X90.88 Y132.714 E5.45112
G1 X90.836 Y131.707 E5.50141
G1 X90.854 Y131.185 E5.52747
G1 X90.939 Y130.416 E5.56607
G1 X91.035 Y129.906 E5.59196
G1 X91.299 Y128.925 E5.64264
G1 X91.534 Y128.302 E5.67586
G1 X92.09 Y127.178 E5.73842
G1 X92.442 Y126.613 E5.77163
G1 X93.066 Y125.801 E5.82272
G1 X93.463 Y125.368 E5.85203
G1 X94.218 Y124.675 E5.90316
G0 F3600 X94.488 Y124.97
G1 F1500 X94.965 Y124.613 E5.93288
G1 X96.052 Y123.956 E5.99625
G1 X96.581 Y123.703 E6.02551
G1 X97.529 Y123.359 E6.07582
G1 X98.033 Y123.224 E6.10185
G1 X99.029 Y123.049 E6.1523
G1 X99.612 Y123.005 E6.18147
G1 X100.882 Y123.032 E6.24485
G1 X101.469 Y123.103 E6.27435
G1 X102.467 Y123.325 E6.32535
G1 X103.082 Y123.533 E6.35774
G1 X104.451 Y124.17 E6.43307
G1 X105.061 Y124.549 E6.4689
G1 X106.052 Y125.343 E6.53226
G1 X106.472 Y125.753 E6.56154
G1 X107.127 Y126.532 E6.61232
G1 X107.46 Y127.018 E6.64171
G1 X108.075 Y128.137 E6.70541
G1 X108.308 Y128.683 E6.73503
G1 X108.61 Y129.644 E6.78528
G1 X108.722 Y130.147 E6.81099
G1 X108.857 Y131.162 E6.86208
G1 X108.88 Y131.686 E6.88824
G1 X108.837 Y132.694 E6.93858
G1 X108.769 Y133.215 E6.96479
G1 X108.546 Y134.222 E7.01625
G1 X108.334 Y134.844 E7.04903
G1 X107.695 Y136.21 E7.12427
G1 X107.363 Y136.758 E7.15624
G1 X106.749 Y137.563 E7.20675
G1 X106.391 Y137.956 E7.23327
G1 X105.638 Y138.646 E7.28423
G1 X105.223 Y138.964 E7.31031
G1 X104.366 Y139.51 E7.36101
G1 X103.969 Y139.723 E7.38348
G1 X103.267 Y140.034 E7.42179
G1 X102.825 Y140.19 E7.44517
G1 X101.846 Y140.451 E7.49572
G1 X101.337 Y140.54 E7.5215
G1 X100.317 Y140.63 E7.57259
G1 X99.73 Y140.625 E7.60187
G1 X98.475 Y140.489 E7.66485
G1 X97.767 Y140.323 E7.70113
G1 X96.33 Y139.797 E7.77748
G1 X95.695 Y139.475 E7.813
G1 X94.641 Y138.771 E7.87623
G1 X94.181 Y138.393 E7.90594
G1 X93.464 Y137.673 E7.95663
G1 X93.096 Y137.223 E7.98563
G1 X92.396 Y136.176 E8.04847
G1 X92.118 Y135.656 E8.07788
G1 X91.725 Y134.706 E8.12917
G1 X91.568 Y134.208 E8.15523
G1 X91.348 Y133.215 E8.20597
G1 X91.28 Y132.697 E8.23203
G1 X91.236 Y131.69 E8.28232
G1 X91.251 Y131.229 E8.30533
G1 X91.336 Y130.46 E8.34393
G1 X91.421 Y130.01 E8.36678
G1 X91.685 Y129.029 E8.41746
G1 X91.893 Y128.479 E8.4468
G1 X92.449 Y127.355 E8.50936
G1 X92.759 Y126.857 E8.53863
G1 X93.383 Y126.045 E8.58972
G1 X93.733 Y125.663 E8.61557
G1 X94.488 Y124.97 E8.66669
G0 F3600 X94.759 Y125.265
G1 F1500 X95.172 Y124.955 E8.69246
G1 X96.259 Y124.298 E8.75582
G1 X96.717 Y124.079 E8.78115
G1 X97.665 Y123.735 E8.83147
G1 X98.102 Y123.618 E8.85404
G1 X99.098 Y123.443 E8.90449
G1 X99.603 Y123.405 E8.92975
G1 X100.873 Y123.432 E8.99313
G1 X101.383 Y123.493 E9.01875
G1 X102.381 Y123.715 E9.06976
G1 X102.913 Y123.896 E9.0978
G1 X104.282 Y124.533 E9.17313
G1 X104.811 Y124.861 E9.20418
G1 X105.802 Y125.655 E9.26753
G1 X106.166 Y126.011 E9.29294
G1 X106.821 Y126.79 E9.34371
G1 X107.11 Y127.211 E9.36919
G1 X107.725 Y128.33 E9.43289
G1 X107.926 Y128.803 E9.45853
G1 X108.228 Y129.764 E9.50879
G1 X108.325 Y130.2 E9.53107
G1 X108.46 Y131.215 E9.58216
G1 X108.481 Y131.669 E9.60483
G1 X108.438 Y132.677 E9.65517
G1 X108.379 Y133.128 E9.67786
G1 X108.156 Y134.135 E9.72932
G1 X107.972 Y134.675 E9.75778
G1 X107.333 Y136.041 E9.83301
G1 X107.045 Y136.516 E9.86073
G1 X106.431 Y137.321 E9.91124
G1 X106.121 Y137.661 E9.93419
G1 X105.368 Y138.351 E9.98515
G1 X105.008 Y138.627 E10.00778
G1 X104.151 Y139.173 E10.05848
G1 X103.807 Y139.357 E10.07794
G1 X103.105 Y139.668 E10.11624
G1 X102.722 Y139.803 E10.1365
G1 X101.743 Y140.064 E10.18705
G1 X101.302 Y140.142 E10.2094
G1 X100.282 Y140.232 E10.26048
G1 X99.773 Y140.227 E10.28588
G1 X98.518 Y140.091 E10.34886
G1 X97.904 Y139.948 E10.38031
G1 X96.467 Y139.422 E10.45665
G1 X95.917 Y139.142 E10.48744
G1 X94.863 Y138.438 E10.55068
G1 X94.465 Y138.111 E10.57638
G1 X93.748 Y137.391 E10.62707
G1 X93.429 Y137.001 E10.65221
G1 X92.729 Y135.954 E10.71504
G1 X92.487 Y135.503 E10.74058
G1 X92.094 Y134.553 E10.79187
G1 X91.959 Y134.121 E10.81445
G1 X91.739 Y133.128 E10.86519
G1 X91.679 Y132.679 E10.88779
G1 X91.635 Y131.672 E10.93808
G1 X91.649 Y131.273 E10.958
G1 X91.734 Y130.504 E10.9966
G1 X91.807 Y130.114 E11.01639
G1 X92.071 Y129.133 E11.06708
G1 X92.252 Y128.656 E11.09253
G1 X92.808 Y127.532 E11.15509
G1 X93.076 Y127.101 E11.18041
G1 X93.7 Y126.289 E11.2315
G1 X94.004 Y125.958 E11.25392
G1 X94.759 Y125.265 E11.30505
G0 F3600 X95.029 Y125.559
G1 F1500 X95.379 Y125.297 E11.32686
G1 X96.466 Y124.64 E11.39023
G1 X96.854 Y124.455 E11.41168
G1 X97.802 Y124.111 E11.46199
G1 X98.171 Y124.012 E11.48105
G1 X99.167 Y123.837 E11.5315
G1 X99.595 Y123.804 E11.55292
G1 X100.865 Y123.831 E11.61629
G1 X101.296 Y123.883 E11.63795
G1 X102.294 Y124.105 E11.68896
G1 X102.744 Y124.258 E11.71267
G1 X104.113 Y124.895 E11.788
G1 X104.561 Y125.173 E11.81431
G1 X105.552 Y125.967 E11.87766
G1 X105.86 Y126.268 E11.89915
G1 X106.515 Y127.047 E11.94992
G1 X106.759 Y127.403 E11.97146
G1 X107.374 Y128.522 E12.03516
G1 X107.545 Y128.922 E12.05686
G1 X107.847 Y129.883 E12.10712
G1 X107.929 Y130.253 E12.12603
G1 X108.064 Y131.268 E12.17711
G1 X108.081 Y131.652 E12.19629
G1 X108.038 Y132.66 E12.24662
G1 X107.988 Y133.042 E12.26584
G1 X107.765 Y134.049 E12.3173
G1 X107.61 Y134.505 E12.34133
G1 X106.971 Y135.871 E12.41657
G1 X106.727 Y136.273 E12.44003
G1 X106.113 Y137.078 E12.49054
G1 X105.85 Y137.366 E12.51
G1 X105.097 Y138.056 E12.56095
G1 X104.793 Y138.289 E12.58006
G1 X103.936 Y138.835 E12.63075
G1 X103.645 Y138.991 E12.64723
G1 X102.943 Y139.302 E12.68553
G1 X102.619 Y139.417 E12.70269
G1 X101.64 Y139.678 E12.75323
G1 X101.266 Y139.743 E12.77217
G1 X100.246 Y139.833 E12.82326
G1 X99.816 Y139.829 E12.84471
G1 X98.561 Y139.693 E12.90769
G1 X98.042 Y139.572 E12.93428
G1 X96.605 Y139.046 E13.01062
G1 X96.139 Y138.809 E13.03671
G1 X95.085 Y138.105 E13.09994
G1 X94.748 Y137.828 E13.1217
G1 X94.031 Y137.108 E13.1724
G1 X93.761 Y136.779 E13.19363
G1 X93.061 Y135.732 E13.25647
G1 X92.857 Y135.35 E13.27807
G1 X92.464 Y134.4 E13.32936
G1 X92.349 Y134.035 E13.34846
G1 X92.129 Y133.042 E13.3992
G1 X92.079 Y132.662 E13.41832
G1 X92.035 Y131.655 E13.46861
G1 X92.046 Y131.317 E13.48548
G1 X92.131 Y130.548 E13.52408
G1 X92.194 Y130.218 E13.54084
G1 X92.458 Y129.237 E13.59152
G1 X92.61 Y128.834 E13.61301
G1 X93.166 Y127.71 E13.67557
G1 X93.394 Y127.344 E13.69709
G1 X94.018 Y126.532 E13.74818
G1 X94.274 Y126.252 E13.7671
G1 X95.029 Y125.559 E13.81823
G0 F3600 X95.3 Y125.854
G1 F1500 X95.586 Y125.64 E13.83605
G1 X96.673 Y124.983 E13.89942
G1 X96.99 Y124.831 E13.91696
G1 X97.938 Y124.487 E13.96727
G1 X98.241 Y124.406 E13.98292
G1 X99.237 Y124.231 E14.03337
G1 X99.586 Y124.204 E14.05084
G1 X100.856 Y124.231 E14.11421
G1 X101.209 Y124.274 E14.13195
G1 X102.207 Y124.496 E14.18296
G1 X102.575 Y124.621 E14.20235
G1 X103.944 Y125.258 E14.27768
G1 X104.31 Y125.485 E14.29917
G1 X105.301 Y126.279 E14.36252
G1 X105.554 Y126.526 E14.38016
G1 X106.209 Y127.305 E14.43094
G1 X106.408 Y127.596 E14.44853
G1 X107.023 Y128.715 E14.51223
G1 X107.163 Y129.042 E14.52998
G1 X107.465 Y130.003 E14.58023
G1 X107.532 Y130.306 E14.59571
G1 X107.667 Y131.321 E14.6468
G1 X107.681 Y131.635 E14.66248
G1 X107.638 Y132.643 E14.71282
G1 X107.597 Y132.955 E14.72851
G1 X107.374 Y133.962 E14.77997
G1 X107.247 Y134.336 E14.79968
G1 X106.608 Y135.702 E14.87491
G1 X106.409 Y136.031 E14.8941
G1 X105.795 Y136.836 E14.94461
G1 X105.58 Y137.071 E14.9605
G1 X104.827 Y137.761 E15.01145
G1 X104.578 Y137.952 E15.02711
G1 X103.721 Y138.498 E15.07781
G1 X103.483 Y138.626 E15.09129
G1 X102.781 Y138.937 E15.12959
G1 X102.516 Y139.03 E15.1436
G1 X101.537 Y139.291 E15.19415
G1 X101.231 Y139.345 E15.20966
G1 X100.211 Y139.435 E15.26074
G1 X99.859 Y139.432 E15.2783
G1 X98.604 Y139.296 E15.34128
G1 X98.179 Y139.196 E15.36306
G1 X96.742 Y138.67 E15.43941
G1 X96.361 Y138.477 E15.46072
G1 X95.307 Y137.773 E15.52395
G1 X95.032 Y137.546 E15.54174
G1 X94.315 Y136.826 E15.59244
G1 X94.094 Y136.556 E15.60984
G1 X93.394 Y135.509 E15.67268
G1 X93.227 Y135.197 E15.69033
G1 X92.834 Y134.247 E15.74162
G1 X92.74 Y133.948 E15.75726
G1 X92.52 Y132.955 E15.808
G1 X92.479 Y132.645 E15.8236
G1 X92.435 Y131.638 E15.87389
G1 X92.444 Y131.361 E15.88772
G1 X92.529 Y130.592 E15.92632
G1 X92.58 Y130.322 E15.94003
G1 X92.844 Y129.341 E15.99071
G1 X92.969 Y129.011 E16.00831
G1 X93.525 Y127.887 E16.07088
G1 X93.711 Y127.588 E16.08844
G1 X94.335 Y126.776 E16.13954
G1 X94.545 Y126.547 E16.15504
G1 X95.3 Y125.854 E16.20617
G0 F3600 X95.57 Y126.149
G1 F1500 X95.793 Y125.982 E16.22007
G1 X96.88 Y125.325 E16.28343
G1 X97.126 Y125.207 E16.29704
G1 X98.074 Y124.863 E16.34736
G1 X98.31 Y124.8 E16.35954
G1 X99.306 Y124.625 E16.41
G1 X99.578 Y124.604 E16.42361
G1 X100.848 Y124.631 E16.48698
G1 X101.122 Y124.664 E16.50075
G1 X102.12 Y124.886 E16.55176
G1 X102.407 Y124.984 E16.56689
G1 X103.776 Y125.621 E16.64222
G1 X104.06 Y125.797 E16.65889
G1 X105.051 Y126.591 E16.72224
G1 X105.248 Y126.783 E16.73597
G1 X105.903 Y127.562 E16.78674
G1 X106.058 Y127.789 E16.80046
G1 X106.673 Y128.908 E16.86416
G1 X106.782 Y129.162 E16.87795
G1 X107.084 Y130.123 E16.9282
G1 X107.136 Y130.358 E16.94021
G1 X107.271 Y131.373 E16.9913
G1 X107.282 Y131.618 E17.00353
G1 X107.239 Y132.626 E17.05387
G1 X107.207 Y132.869 E17.0661
G1 X106.984 Y133.876 E17.11755
G1 X106.885 Y134.166 E17.13284
G1 X106.246 Y135.532 E17.20808
G1 X106.091 Y135.788 E17.22301
G1 X105.477 Y136.593 E17.27352
G1 X105.31 Y136.776 E17.28588
G1 X104.557 Y137.466 E17.33683
G1 X104.363 Y137.615 E17.34904
G1 X103.506 Y138.161 E17.39973
G1 X103.321 Y138.26 E17.4102
G1 X102.619 Y138.571 E17.44851
G1 X102.413 Y138.644 E17.45941
G1 X101.434 Y138.905 E17.50996
G1 X101.196 Y138.947 E17.52202
G1 X100.176 Y139.037 E17.5731
G1 X99.902 Y139.034 E17.58677
G1 X98.647 Y138.898 E17.64975
G1 X98.317 Y138.821 E17.66666
G1 X96.88 Y138.295 E17.743
G1 X96.583 Y138.144 E17.75962
G1 X95.529 Y137.44 E17.82286
G1 X95.315 Y137.264 E17.83668
G1 X94.598 Y136.544 E17.88738
G1 X94.426 Y136.334 E17.90092
G1 X93.726 Y135.287 E17.96375
G1 X93.596 Y135.044 E17.9775
G1 X93.203 Y134.094 E18.02879
G1 X93.13 Y133.862 E18.04093
G1 X92.91 Y132.869 E18.09167
G1 X92.878 Y132.627 E18.10385
G1 X92.834 Y131.62 E18.15414
G1 X92.841 Y131.405 E18.16487
G1 X92.926 Y130.636 E18.20347
G1 X92.966 Y130.426 E18.21413
G1 X93.23 Y129.445 E18.26482
G1 X93.327 Y129.188 E18.27852
G1 X93.883 Y128.064 E18.34108
G1 X94.028 Y127.832 E18.35473
G1 X94.652 Y127.02 E18.40582
G1 X94.815 Y126.842 E18.41787
G1 X95.57 Y126.149 E18.46899
G0 F3600 X95.841 Y126.443
G1 F1500 X96 Y126.324 E18.4789
G1 X97.087 Y125.667 E18.54227
G1 X97.263 Y125.583 E18.552
G1 X98.211 Y125.239 E18.60231
G1 X98.379 Y125.194 E18.61099
G1 X99.375 Y125.019 E18.66144
G1 X99.569 Y125.004 E18.67115
G1 X100.839 Y125.031 E18.73452
G1 X101.035 Y125.055 E18.74438
G1 X102.033 Y125.277 E18.79538
G1 X102.238 Y125.346 E18.80617
G1 X103.607 Y125.983 E18.88151
G1 X103.81 Y126.11 E18.89345
G1 X104.801 Y126.904 E18.9568
G1 X104.941 Y127.04 E18.96654
G1 X105.596 Y127.819 E19.01732
G1 X105.707 Y127.981 E19.02712
G1 X106.322 Y129.1 E19.09082
G1 X106.4 Y129.282 E19.1007
G1 X106.702 Y130.243 E19.15095
G1 X106.739 Y130.411 E19.15954
G1 X106.874 Y131.426 E19.21062
G1 X106.882 Y131.601 E19.21936
G1 X106.839 Y132.609 E19.2697
G1 X106.816 Y132.782 E19.2784
G1 X106.593 Y133.789 E19.32986
G1 X106.523 Y133.997 E19.34081
G1 X105.884 Y135.363 E19.41605
G1 X105.773 Y135.545 E19.42668
G1 X105.159 Y136.35 E19.47719
G1 X105.04 Y136.481 E19.48602
G1 X104.287 Y137.171 E19.53698
G1 X104.148 Y137.277 E19.5457
G1 X103.291 Y137.823 E19.59639
G1 X103.159 Y137.894 E19.60387
G1 X102.457 Y138.205 E19.64218
G1 X102.31 Y138.257 E19.64996
G1 X101.331 Y138.518 E19.70051
G1 X101.161 Y138.548 E19.70912
G1 X100.141 Y138.638 E19.7602
G1 X99.945 Y138.636 E19.76998
