;FLAVOR:Marlin
;TIME:2670
;Filament used: 2.54027m
;Layer height: 0.2
;Generated with Cura_SteamEngine master
M190 S65
M104 S210
M109 S210
G21 ;metric values
G90 ;absolute positioning
M82 ;set extruder to absolute mode
M107 ;start with the fan off
G28 X0 Y0 ;move X/Y to min endstops
G28 Z0 ;move Z to min endstops
G1 Z15.0 F9000 ;move the platform down 15mm
G92 E0 ;zero the extruded length
G1 F200 E3 ;extrude 3mm of feed stock
G92 E0 ;zero the extruded length again
G1 F9000
;Put printing message on LCD screen
M117 Printing...
;LAYER_COUNT:30
;LAYER:0
M107
G0 F3600 X80.3 Y106.319 Z0.3
;TYPE:SKIRT
G1 F1500 X80.641 Y106.088 E0.02055
G1 X83.509 Y104.362 E0.18755
G1 X83.872 Y104.169 E0.20806
G1 X86.925 Y102.756 E0.37589
G1 X87.307 Y102.604 E0.39641
G1 X90.495 Y101.529 E0.56425
G1 X90.891 Y101.419 E0.58476
G1 X94.168 Y100.697 E0.75217
G1 X94.576 Y100.63 E0.7728
G1 X97.921 Y100.267 E0.94066
G1 X98.332 Y100.245 E0.9612
G1 X101.682 Y100.246 E1.12833
G1 X102.092 Y100.268 E1.14881
G1 X105.436 Y100.632 E1.31663
G1 X105.843 Y100.699 E1.33721
G1 X109.109 Y101.419 E1.50406
G1 X109.505 Y101.529 E1.52457
G1 X112.693 Y102.604 E1.69242
G1 X113.075 Y102.756 E1.71293
G1 X116.128 Y104.169 E1.88076
G1 X116.491 Y104.362 E1.90128
G1 X119.359 Y106.088 E2.06827
G1 X119.7 Y106.319 E2.08882
G1 X122.37 Y108.349 E2.25616
G1 X122.683 Y108.615 E2.27665
G1 X125.131 Y110.934 E2.44488
G1 X125.415 Y111.234 E2.46549
G1 X127.572 Y113.776 E2.63182
G1 X127.821 Y114.103 E2.65232
G1 X129.71 Y116.89 E2.82029
G1 X129.921 Y117.242 E2.84077
G1 X131.494 Y120.209 E3.00831
G1 X131.668 Y120.584 E3.02893
G1 X132.908 Y123.699 E3.1962
G1 X133.039 Y124.088 E3.21668
G1 X133.94 Y127.335 E3.3848
G1 X134.028 Y127.737 E3.40533
G1 X134.567 Y131.029 E3.57175
G1 X134.611 Y131.438 E3.59227
G1 X134.793 Y134.8 E3.76025
G1 X134.793 Y135.212 E3.78081
G1 X134.61 Y138.57 E3.94859
G1 X134.566 Y138.977 E3.96901
G1 X134.026 Y142.273 E4.13564
G1 X133.937 Y142.677 E4.15628
G1 X133.035 Y145.922 E4.32431
G1 X132.904 Y146.31 E4.34474
G1 X131.663 Y149.426 E4.51208
G1 X131.49 Y149.801 E4.53268
G1 X129.916 Y152.768 E4.70024
G1 X129.704 Y153.12 E4.72074
G1 X127.816 Y155.903 E4.88852
G1 X127.567 Y156.23 E4.90903
G1 X125.405 Y158.775 E5.07563
G1 X125.122 Y159.074 E5.09617
G1 X122.675 Y161.392 E5.26433
G1 X122.361 Y161.659 E5.28489
G1 X119.691 Y163.688 E5.4522
G1 X119.351 Y163.918 E5.47268
G1 X116.483 Y165.643 E5.63965
G1 X116.119 Y165.836 E5.6602
G1 X113.065 Y167.248 E5.82807
G1 X112.682 Y167.4 E5.84862
G1 X109.492 Y168.474 E6.01655
G1 X109.098 Y168.584 E6.03696
G1 X105.844 Y169.301 E6.2032
G1 X105.437 Y169.368 E6.22377
G1 X102.092 Y169.732 E6.39164
G1 X101.682 Y169.754 E6.41213
G1 X98.332 Y169.755 E6.57926
G1 X97.921 Y169.733 E6.59979
G1 X94.576 Y169.37 E6.76766
G1 X94.169 Y169.303 E6.78823
G1 X90.903 Y168.584 E6.95508
G1 X90.508 Y168.474 E6.97553
G1 X87.318 Y167.4 E7.14346
G1 X86.935 Y167.248 E7.16402
G1 X83.881 Y165.836 E7.33188
G1 X83.517 Y165.643 E7.35244
G1 X80.65 Y163.918 E7.51937
G1 X80.31 Y163.688 E7.53984
G1 X77.639 Y161.659 E7.70719
G1 X77.325 Y161.392 E7.72775
G1 X74.878 Y159.074 E7.89591
G1 X74.595 Y158.775 E7.91645
G1 X72.432 Y156.229 E8.08312
G1 X72.184 Y155.903 E8.10356
G1 X70.296 Y153.121 E8.2713
G1 X70.083 Y152.767 E8.29191
G1 X68.51 Y149.8 E8.45945
G1 X68.337 Y149.426 E8.48001
G1 X67.096 Y146.311 E8.64729
G1 X66.965 Y145.922 E8.66777
G1 X66.063 Y142.675 E8.8359
G1 X65.974 Y142.273 E8.85644
G1 X65.434 Y138.979 E9.02297
G1 X65.39 Y138.571 E9.04345
G1 X65.207 Y135.213 E9.21123
G1 X65.207 Y134.801 E9.23178
G1 X65.389 Y131.438 E9.39981
G1 X65.433 Y131.029 E9.42033
G1 X65.972 Y127.738 E9.58671
G1 X66.06 Y127.336 E9.60724
G1 X66.961 Y124.089 E9.77535
G1 X67.092 Y123.7 E9.79583
G1 X68.332 Y120.584 E9.96315
G1 X68.506 Y120.209 E9.98377
G1 X70.079 Y117.242 E10.15131
G1 X70.29 Y116.89 E10.17179
G1 X72.178 Y114.104 E10.33969
G1 X72.427 Y113.777 E10.3602
G1 X74.585 Y111.234 E10.52659
G1 X74.868 Y110.935 E10.54713
G1 X77.314 Y108.617 E10.71525
G1 X77.628 Y108.35 E10.73582
G1 X80.3 Y106.319 E10.90326
G0 F3600 X80.543 Y106.637
G1 F1500 X80.847 Y106.431 E10.92158
G1 X83.715 Y104.705 E11.08858
G1 X84.04 Y104.532 E11.10695
G1 X87.093 Y103.119 E11.27479
G1 X87.435 Y102.983 E11.29315
G1 X90.623 Y101.908 E11.461
G1 X90.977 Y101.81 E11.47932
G1 X94.254 Y101.088 E11.64673
G1 X94.619 Y101.028 E11.66519
G1 X97.964 Y100.665 E11.83305
G1 X98.332 Y100.645 E11.85144
G1 X101.682 Y100.646 E12.01857
G1 X102.049 Y100.666 E12.03691
G1 X105.393 Y101.03 E12.20473
G1 X105.757 Y101.09 E12.22313
G1 X109.023 Y101.81 E12.38998
G1 X109.377 Y101.908 E12.40831
G1 X112.565 Y102.983 E12.57616
G1 X112.907 Y103.119 E12.59452
G1 X115.96 Y104.532 E12.76236
G1 X116.285 Y104.705 E12.78073
G1 X119.153 Y106.431 E12.94772
G1 X119.458 Y106.637 E12.96609
G1 X122.128 Y108.667 E13.13342
G1 X122.408 Y108.906 E13.15179
G1 X124.856 Y111.225 E13.32002
G1 X125.11 Y111.493 E13.33844
G1 X127.267 Y114.035 E13.50477
G1 X127.489 Y114.327 E13.52307
G1 X129.378 Y117.114 E13.69104
G1 X129.568 Y117.429 E13.70939
G1 X131.141 Y120.396 E13.87693
G1 X131.296 Y120.732 E13.89539
G1 X132.536 Y123.847 E14.06266
G1 X132.653 Y124.195 E14.08098
G1 X133.554 Y127.442 E14.24909
G1 X133.633 Y127.802 E14.26748
G1 X134.172 Y131.094 E14.43391
G1 X134.212 Y131.459 E14.45222
G1 X134.394 Y134.821 E14.6202
G1 X134.394 Y135.19 E14.63861
G1 X134.211 Y138.548 E14.80639
G1 X134.171 Y138.913 E14.82471
G1 X133.631 Y142.209 E14.99134
G1 X133.552 Y142.57 E15.00978
G1 X132.65 Y145.815 E15.17781
G1 X132.533 Y146.162 E15.19608
G1 X131.292 Y149.278 E15.36341
G1 X131.137 Y149.613 E15.38183
G1 X129.563 Y152.58 E15.54939
G1 X129.373 Y152.896 E15.56779
G1 X127.485 Y155.679 E15.73557
G1 X127.262 Y155.971 E15.7539
G1 X125.1 Y158.516 E15.9205
G1 X124.847 Y158.783 E15.93885
G1 X122.4 Y161.101 E16.10701
G1 X122.119 Y161.34 E16.12541
G1 X119.449 Y163.369 E16.29272
G1 X119.144 Y163.576 E16.31111
G1 X116.276 Y165.301 E16.47808
G1 X115.951 Y165.473 E16.49642
G1 X112.897 Y166.885 E16.66429
G1 X112.555 Y167.021 E16.68265
G1 X109.365 Y168.095 E16.85058
G1 X109.012 Y168.193 E16.86885
G1 X105.758 Y168.91 E17.03509
G1 X105.394 Y168.97 E17.0535
G1 X102.049 Y169.334 E17.22136
G1 X101.682 Y169.354 E17.2397
G1 X98.332 Y169.355 E17.40683
G1 X97.964 Y169.335 E17.42522
G1 X94.619 Y168.972 E17.59308
G1 X94.255 Y168.912 E17.61149
G1 X90.989 Y168.193 E17.77833
G1 X90.635 Y168.095 E17.79665
G1 X87.445 Y167.021 E17.96458
G1 X87.103 Y166.885 E17.98294
G1 X84.049 Y165.473 E18.15081
G1 X83.723 Y165.3 E18.16922
G1 X80.856 Y163.575 E18.33615
G1 X80.552 Y163.369 E18.35447
G1 X77.881 Y161.34 E18.52181
G1 X77.6 Y161.101 E18.54022
G1 X75.153 Y158.783 E18.70838
G1 X74.9 Y158.516 E18.72673
G1 X72.737 Y155.97 E18.8934
G1 X72.515 Y155.678 E18.9117
G1 X70.627 Y152.896 E19.07944
G1 X70.436 Y152.58 E19.09786
G1 X68.863 Y149.613 E19.2654
G1 X68.708 Y149.278 E19.28382
G1 X67.467 Y146.163 E19.4511
G1 X67.35 Y145.815 E19.46942
G1 X66.448 Y142.568 E19.63755
G1 X66.369 Y142.208 E19.65594
G1 X65.829 Y138.914 E19.82247
G1 X65.789 Y138.549 E19.84079
G1 X65.606 Y135.191 E20.00857
G1 X65.606 Y134.822 E20.02698
G1 X65.788 Y131.459 E20.195
G1 X65.828 Y131.093 E20.21337
G1 X66.367 Y127.802 E20.37975
G1 X66.446 Y127.443 E20.39809
G1 X67.347 Y124.196 E20.5662
G1 X67.464 Y123.848 E20.58452
G1 X68.704 Y120.732 E20.75183
G1 X68.859 Y120.396 E20.77029
G1 X70.432 Y117.429 E20.93783
G1 X70.621 Y117.115 E20.95612
G1 X72.509 Y114.329 E21.12402
G1 X72.732 Y114.036 E21.14239
G1 X74.89 Y111.493 E21.30879
G1 X75.143 Y111.225 E21.32717
G1 X77.589 Y108.907 E21.4953
G1 X77.871 Y108.668 E21.51374
G1 X80.543 Y106.637 E21.68119
G0 F3600 X80.785 Y106.956
G1 F1500 X81.053 Y106.774 E21.69735
G1 X83.921 Y105.048 E21.86435
G1 X84.208 Y104.895 E21.88057
G1 X87.261 Y103.482 E22.04841
G1 X87.562 Y103.362 E22.06458
G1 X90.75 Y102.287 E22.23242
G1 X91.064 Y102.2 E22.24868
G1 X94.341 Y101.478 E22.41609
G1 X94.662 Y101.426 E22.43231
G1 X98.007 Y101.063 E22.60018
G1 X98.332 Y101.045 E22.61642
G1 X101.682 Y101.046 E22.78355
G1 X102.006 Y101.064 E22.79974
G1 X105.35 Y101.428 E22.96756
G1 X105.671 Y101.48 E22.98378
G1 X108.937 Y102.2 E23.15063
G1 X109.25 Y102.287 E23.16684
G1 X112.438 Y103.362 E23.33469
G1 X112.739 Y103.482 E23.35086
G1 X115.792 Y104.895 E23.51869
G1 X116.079 Y105.048 E23.53492
G1 X118.947 Y106.774 E23.70192
G1 X119.216 Y106.956 E23.71812
G1 X121.886 Y108.986 E23.88546
G1 X122.133 Y109.196 E23.90163
G1 X124.581 Y111.515 E24.06986
G1 X124.805 Y111.752 E24.08613
G1 X126.962 Y114.294 E24.25246
G1 X127.158 Y114.552 E24.26862
G1 X129.047 Y117.339 E24.43659
G1 X129.215 Y117.617 E24.4528
G1 X130.788 Y120.584 E24.62034
G1 X130.924 Y120.879 E24.63655
G1 X132.164 Y123.994 E24.80382
G1 X132.268 Y124.302 E24.82003
G1 X133.169 Y127.549 E24.98815
G1 X133.239 Y127.866 E25.00434
G1 X133.778 Y131.158 E25.17077
G1 X133.813 Y131.481 E25.18698
G1 X133.995 Y134.843 E25.35496
G1 X133.995 Y135.168 E25.37117
G1 X133.812 Y138.526 E25.53895
G1 X133.777 Y138.848 E25.55511
G1 X133.237 Y142.144 E25.72174
G1 X133.166 Y142.462 E25.73799
G1 X132.264 Y145.707 E25.90603
G1 X132.161 Y146.014 E25.92218
G1 X130.92 Y149.13 E26.08952
G1 X130.783 Y149.426 E26.10579
G1 X129.209 Y152.393 E26.27335
G1 X129.042 Y152.671 E26.28953
G1 X127.154 Y155.454 E26.45731
G1 X126.957 Y155.712 E26.47351
G1 X124.795 Y158.257 E26.64011
G1 X124.572 Y158.493 E26.65631
G1 X122.125 Y160.811 E26.82447
G1 X121.877 Y161.022 E26.84071
G1 X119.207 Y163.051 E27.00802
G1 X118.938 Y163.233 E27.02422
G1 X116.07 Y164.958 E27.19119
G1 X115.783 Y165.11 E27.20739
G1 X112.729 Y166.522 E27.37526
G1 X112.427 Y166.642 E27.39147
G1 X109.237 Y167.716 E27.5594
G1 X108.926 Y167.803 E27.57551
G1 X105.672 Y168.52 E27.74174
G1 X105.351 Y168.572 E27.75797
G1 X102.006 Y168.936 E27.92584
G1 X101.682 Y168.954 E27.94203
G1 X98.332 Y168.955 E28.10916
G1 X98.007 Y168.937 E28.1254
G1 X94.662 Y168.574 E28.29326
G1 X94.341 Y168.522 E28.30948
G1 X91.075 Y167.803 E28.47633
G1 X90.763 Y167.716 E28.49249
G1 X87.573 Y166.642 E28.66041
G1 X87.271 Y166.522 E28.67663
G1 X84.217 Y165.11 E28.84449
G1 X83.929 Y164.958 E28.86073
G1 X81.062 Y163.233 E29.02766
G1 X80.794 Y163.051 E29.04383
G1 X78.123 Y161.022 E29.21117
G1 X77.875 Y160.811 E29.22742
G1 X75.428 Y158.493 E29.39558
G1 X75.205 Y158.257 E29.41177
G1 X73.042 Y155.711 E29.57845
G1 X72.846 Y155.454 E29.59457
G1 X70.958 Y152.672 E29.76231
G1 X70.789 Y152.392 E29.77863
G1 X69.216 Y149.425 E29.94617
G1 X69.08 Y149.13 E29.96237
G1 X67.839 Y146.015 E30.12966
G1 X67.735 Y145.708 E30.14583
G1 X66.833 Y142.461 E30.31396
G1 X66.764 Y142.143 E30.33019
G1 X66.224 Y138.849 E30.49673
G1 X66.188 Y138.527 E30.51289
G1 X66.005 Y135.169 E30.68067
G1 X66.005 Y134.844 E30.69688
G1 X66.187 Y131.481 E30.86491
G1 X66.222 Y131.158 E30.88112
G1 X66.761 Y127.867 E31.0475
G1 X66.831 Y127.55 E31.06369
G1 X67.732 Y124.303 E31.23181
G1 X67.836 Y123.996 E31.24798
G1 X69.076 Y120.88 E31.41529
G1 X69.212 Y120.584 E31.43154
G1 X70.785 Y117.617 E31.59908
G1 X70.953 Y117.339 E31.61529
G1 X72.841 Y114.553 E31.78319
G1 X73.037 Y114.295 E31.79936
G1 X75.195 Y111.752 E31.96575
G1 X75.418 Y111.515 E31.98199
G1 X77.864 Y109.197 E32.15011
G1 X78.113 Y108.987 E32.16636
G1 X80.785 Y106.956 E32.33381
G0 F3600 X81.027 Y107.274
G1 F1500 X81.259 Y107.116 E32.34781
G1 X84.127 Y105.39 E32.51481
G1 X84.376 Y105.258 E32.52887
G1 X87.429 Y103.845 E32.69671
G1 X87.69 Y103.741 E32.71073
G1 X90.878 Y102.666 E32.87857
G1 X91.15 Y102.591 E32.89265
G1 X94.427 Y101.869 E33.06006
G1 X94.705 Y101.823 E33.07412
G1 X98.05 Y101.46 E33.24198
G1 X98.332 Y101.445 E33.25607
G1 X101.682 Y101.446 E33.4232
G1 X101.962 Y101.461 E33.43719
G1 X105.306 Y101.825 E33.60501
G1 X105.585 Y101.871 E33.61912
G1 X108.851 Y102.591 E33.78597
G1 X109.122 Y102.666 E33.8
G1 X112.31 Y103.741 E33.96785
G1 X112.571 Y103.845 E33.98187
G1 X115.624 Y105.258 E34.1497
G1 X115.873 Y105.39 E34.16376
G1 X118.741 Y107.116 E34.33076
G1 X118.974 Y107.274 E34.34481
G1 X121.644 Y109.304 E34.51214
G1 X121.858 Y109.486 E34.52616
G1 X124.306 Y111.805 E34.69439
G1 X124.5 Y112.011 E34.70851
G1 X126.657 Y114.553 E34.87483
G1 X126.827 Y114.776 E34.88882
G1 X128.716 Y117.563 E35.05679
G1 X128.861 Y117.804 E35.07083
G1 X130.434 Y120.771 E35.23837
G1 X130.553 Y121.027 E35.25245
G1 X131.793 Y124.142 E35.41972
G1 X131.882 Y124.409 E35.43376
G1 X132.783 Y127.656 E35.60188
G1 X132.844 Y127.931 E35.61593
G1 X133.383 Y131.223 E35.78235
G1 X133.413 Y131.502 E35.79635
G1 X133.595 Y134.864 E35.96433
G1 X133.595 Y135.146 E35.9784
G1 X133.412 Y138.504 E36.14618
G1 X133.382 Y138.783 E36.16018
G1 X132.842 Y142.079 E36.32681
G1 X132.781 Y142.355 E36.34091
G1 X131.879 Y145.6 E36.50894
G1 X131.789 Y145.866 E36.52295
G1 X130.548 Y148.982 E36.69029
G1 X130.43 Y149.238 E36.70435
G1 X128.856 Y152.205 E36.87191
G1 X128.711 Y152.447 E36.88599
G1 X126.823 Y155.23 E37.05377
G1 X126.653 Y155.453 E37.06776
G1 X124.491 Y157.998 E37.23436
G1 X124.297 Y158.203 E37.24844
G1 X121.85 Y160.521 E37.4166
G1 X121.635 Y160.703 E37.43065
G1 X118.965 Y162.732 E37.59796
G1 X118.732 Y162.89 E37.612
G1 X115.864 Y164.615 E37.77898
G1 X115.615 Y164.747 E37.79304
G1 X112.561 Y166.159 E37.9609
G1 X112.3 Y166.263 E37.97491
G1 X109.11 Y167.337 E38.14284
G1 X108.839 Y167.412 E38.15687
G1 X105.585 Y168.129 E38.32311
G1 X105.307 Y168.175 E38.33717
G1 X101.962 Y168.539 E38.50503
G1 X101.682 Y168.554 E38.51902
G1 X98.332 Y168.555 E38.68616
G1 X98.05 Y168.54 E38.70024
G1 X94.705 Y168.177 E38.86811
G1 X94.427 Y168.131 E38.88216
G1 X91.161 Y167.412 E39.04901
G1 X90.89 Y167.337 E39.06304
G1 X87.7 Y166.263 E39.23096
G1 X87.439 Y166.159 E39.24498
G1 X84.385 Y164.747 E39.41284
G1 X84.136 Y164.615 E39.4269
G1 X81.269 Y162.89 E39.59383
G1 X81.036 Y162.732 E39.60788
G1 X78.365 Y160.703 E39.77522
G1 X78.15 Y160.521 E39.78928
G1 X75.703 Y158.203 E39.95744
G1 X75.51 Y157.998 E39.97148
G1 X73.347 Y155.452 E40.13815
G1 X73.177 Y155.229 E40.15214
G1 X71.289 Y152.447 E40.31988
G1 X71.143 Y152.205 E40.33398
G1 X69.57 Y149.238 E40.50152
G1 X69.452 Y148.982 E40.51559
G1 X68.211 Y145.867 E40.68287
G1 X68.121 Y145.601 E40.69688
G1 X67.219 Y142.354 E40.86501
G1 X67.158 Y142.079 E40.87906
G1 X66.618 Y138.785 E41.0456
G1 X66.588 Y138.505 E41.05965
G1 X66.405 Y135.147 E41.22743
G1 X66.405 Y134.865 E41.24149
G1 X66.587 Y131.502 E41.40952
G1 X66.617 Y131.223 E41.42352
G1 X67.156 Y127.932 E41.5899
G1 X67.217 Y127.657 E41.60395
G1 X68.118 Y124.41 E41.77206
G1 X68.207 Y124.144 E41.78606
G1 X69.447 Y121.028 E41.95337
G1 X69.566 Y120.771 E41.9675
G1 X71.139 Y117.804 E42.13504
G1 X71.284 Y117.563 E42.14908
G1 X73.172 Y114.777 E42.31698
G1 X73.342 Y114.554 E42.33097
G1 X75.5 Y112.011 E42.49736
G1 X75.694 Y111.806 E42.51145
G1 X78.14 Y109.488 E42.67957
G1 X78.355 Y109.305 E42.69365
G1 X81.027 Y107.274 E42.8611
G0 F3600 X81.269 Y107.593
G1 F1500 X81.466 Y107.459 E42.87299
G1 X84.334 Y105.733 E43.03998
G1 X84.544 Y105.621 E43.05186
G1 X87.597 Y104.208 E43.2197
G1 X87.818 Y104.12 E43.23156
G1 X91.006 Y103.045 E43.39941
G1 X91.236 Y102.982 E43.41131
G1 X94.513 Y102.26 E43.57872
G1 X94.749 Y102.221 E43.59065
G1 X98.094 Y101.858 E43.75852
G1 X98.332 Y101.845 E43.77041
G1 X101.682 Y101.846 E43.93754
G1 X101.919 Y101.859 E43.94938
G1 X105.263 Y102.223 E44.1172
G1 X105.499 Y102.262 E44.12913
G1 X108.765 Y102.982 E44.29599
G1 X108.994 Y103.045 E44.30784
G1 X112.182 Y104.12 E44.47569
G1 X112.403 Y104.208 E44.48755
G1 X115.456 Y105.621 E44.65539
G1 X115.666 Y105.733 E44.66727
G1 X118.534 Y107.459 E44.83426
G1 X118.732 Y107.593 E44.84619
G1 X121.402 Y109.623 E45.01353
G1 X121.583 Y109.777 E45.02538
G1 X124.031 Y112.096 E45.19361
G1 X124.195 Y112.27 E45.20554
G1 X126.352 Y114.812 E45.37187
G1 X126.496 Y115.001 E45.38372
G1 X128.385 Y117.788 E45.5517
G1 X128.508 Y117.992 E45.56358
G1 X130.081 Y120.959 E45.73112
G1 X130.181 Y121.175 E45.743
G1 X131.421 Y124.29 E45.91026
G1 X131.497 Y124.516 E45.92216
G1 X132.398 Y127.763 E46.09027
G1 X132.449 Y127.996 E46.10217
G1 X132.988 Y131.288 E46.2686
G1 X133.014 Y131.524 E46.28044
G1 X133.196 Y134.886 E46.44842
G1 X133.196 Y135.125 E46.46034
G1 X133.013 Y138.483 E46.62812
G1 X132.987 Y138.719 E46.63997
G1 X132.447 Y142.015 E46.8066
G1 X132.396 Y142.248 E46.8185
