;FLAVOR:Marlin
;TIME:3075
;Filament used: 3.13776m
;Layer height: 0.2
;Generated with Cura_SteamEngine master
M190 S65
M104 S210
M109 S210
G21 ;metric values
G90 ;absolute positioning
M82 ;set extruder to absolute mode
M107 ;start with the fan off
G28 X0 Y0 ;move X/Y to min endstops
G28 Z0 ;move Z to min endstops
G1 Z15.0 F9000 ;move the platform down 15mm
G92 E0 ;zero the extruded length
G1 F200 E3 ;extrude 3mm of feed stock
G92 E0 ;zero the extruded length again
G1 F9000
;Put printing message on LCD screen
M117 Printing...
;LAYER_COUNT:95
;LAYER:0
M107
G0 F3600 X86.047 Y114.788 Z0.3
;TYPE:SKIRT
G1 F1500 X86.389 Y114.556 E0.02062
G1 X88.314 Y113.398 E0.13269
G1 X88.677 Y113.205 E0.15321
G1 X90.717 Y112.261 E0.26535
G1 X91.101 Y112.108 E0.28597
G1 X93.232 Y111.391 E0.39814
G1 X93.627 Y111.282 E0.41859
G1 X95.825 Y110.798 E0.53087
G1 X96.231 Y110.731 E0.5514
G1 X98.466 Y110.488 E0.66356
G1 X98.877 Y110.466 E0.6841
G1 X101.123 Y110.466 E0.79615
G1 X101.534 Y110.488 E0.81669
G1 X103.769 Y110.731 E0.92885
G1 X104.175 Y110.798 E0.94938
G1 X106.373 Y111.282 E1.06166
G1 X106.768 Y111.391 E1.08211
G1 X108.899 Y112.108 E1.19428
G1 X109.283 Y112.261 E1.2149
G1 X111.321 Y113.204 E1.32693
G1 X111.684 Y113.397 E1.34745
G1 X113.611 Y114.556 E1.45963
G1 X113.953 Y114.788 E1.48025
G1 X115.743 Y116.15 E1.59247
G1 X116.055 Y116.415 E1.61289
G1 X117.689 Y117.962 E1.72515
G1 X117.973 Y118.262 E1.74576
G1 X119.426 Y119.974 E1.85779
G1 X119.674 Y120.3 E1.87822
G1 X120.936 Y122.161 E1.9904
G1 X121.148 Y122.514 E2.01095
G1 X122.201 Y124.5 E2.12309
G1 X122.373 Y124.871 E2.1435
G1 X123.208 Y126.962 E2.25583
G1 X123.341 Y127.356 E2.27657
G1 X123.941 Y129.52 E2.38861
G1 X124.029 Y129.92 E2.40904
G1 X124.393 Y132.139 E2.52123
G1 X124.437 Y132.549 E2.5418
G1 X124.558 Y134.794 E2.65397
G1 X124.558 Y135.204 E2.67442
G1 X124.437 Y137.449 E2.78659
G1 X124.393 Y137.859 E2.80716
G1 X124.029 Y140.08 E2.91944
G1 X123.941 Y140.48 E2.93988
G1 X123.341 Y142.644 E3.05191
G1 X123.208 Y143.038 E3.07266
G1 X122.374 Y145.127 E3.18488
G1 X122.202 Y145.498 E3.20528
G1 X121.149 Y147.484 E3.31743
G1 X120.937 Y147.836 E3.33793
G1 X119.674 Y149.699 E3.45022
G1 X119.426 Y150.026 E3.47069
G1 X117.973 Y151.738 E3.58272
G1 X117.689 Y152.038 E3.60333
G1 X116.055 Y153.585 E3.71559
G1 X115.743 Y153.85 E3.73601
G1 X113.953 Y155.212 E3.84823
G1 X113.611 Y155.444 E3.86885
G1 X111.686 Y156.602 E3.98092
G1 X111.323 Y156.795 E4.00144
G1 X109.283 Y157.739 E4.11358
G1 X108.899 Y157.892 E4.1342
G1 X106.768 Y158.609 E4.24637
G1 X106.373 Y158.718 E4.26682
G1 X104.175 Y159.202 E4.3791
G1 X103.769 Y159.269 E4.39963
G1 X101.534 Y159.512 E4.51179
G1 X101.123 Y159.534 E4.53233
G1 X98.877 Y159.534 E4.64438
G1 X98.466 Y159.512 E4.66492
G1 X96.231 Y159.269 E4.77708
G1 X95.825 Y159.202 E4.79761
G1 X93.627 Y158.718 E4.90989
G1 X93.232 Y158.609 E4.93034
G1 X91.101 Y157.892 E5.04251
G1 X90.717 Y157.739 E5.06313
G1 X88.677 Y156.795 E5.17528
G1 X88.314 Y156.602 E5.19579
G1 X86.389 Y155.444 E5.30786
G1 X86.047 Y155.212 E5.32848
G1 X84.257 Y153.85 E5.4407
G1 X83.945 Y153.585 E5.46112
G1 X82.311 Y152.038 E5.57338
G1 X82.027 Y151.738 E5.59399
G1 X80.574 Y150.026 E5.70602
G1 X80.326 Y149.699 E5.72649
G1 X79.063 Y147.836 E5.83878
G1 X78.851 Y147.484 E5.85928
G1 X77.798 Y145.498 E5.97143
G1 X77.626 Y145.127 E5.99183
G1 X76.792 Y143.038 E6.10405
G1 X76.659 Y142.644 E6.1248
G1 X76.059 Y140.48 E6.23683
G1 X75.971 Y140.08 E6.25727
G1 X75.607 Y137.859 E6.36955
G1 X75.563 Y137.449 E6.39012
G1 X75.442 Y135.206 E6.50219
G1 X75.442 Y134.796 E6.52265
G1 X75.563 Y132.551 E6.63481
G1 X75.607 Y132.141 E6.65538
G1 X75.971 Y129.92 E6.76767
G1 X76.059 Y129.52 E6.7881
G1 X76.659 Y127.356 E6.90014
G1 X76.792 Y126.962 E6.92088
G1 X77.626 Y124.873 E7.0331
G1 X77.798 Y124.502 E7.05351
G1 X78.851 Y122.516 E7.16565
G1 X79.063 Y122.164 E7.18615
G1 X80.326 Y120.301 E7.29844
G1 X80.574 Y119.974 E7.31892
G1 X82.027 Y118.262 E7.43095
G1 X82.311 Y117.962 E7.45156
G1 X83.945 Y116.415 E7.56382
G1 X84.257 Y116.15 E7.58424
G1 X86.047 Y114.788 E7.69646
G0 F3600 X86.289 Y115.106
G1 F1500 X86.595 Y114.899 E7.71489
G1 X88.52 Y113.741 E7.82696
G1 X88.845 Y113.568 E7.84533
G1 X90.885 Y112.624 E7.95748
G1 X91.229 Y112.488 E7.97593
G1 X93.36 Y111.771 E8.0881
G1 X93.713 Y111.673 E8.10638
G1 X95.911 Y111.189 E8.21867
G1 X96.275 Y111.129 E8.23707
G1 X98.51 Y110.886 E8.34923
G1 X98.877 Y110.866 E8.36757
G1 X101.123 Y110.866 E8.47962
G1 X101.49 Y110.886 E8.49796
G1 X103.725 Y111.129 E8.61012
G1 X104.089 Y111.189 E8.62853
G1 X106.287 Y111.673 E8.74081
G1 X106.64 Y111.771 E8.75909
G1 X108.771 Y112.488 E8.87126
G1 X109.115 Y112.624 E8.88972
G1 X111.153 Y113.567 E9.00175
G1 X111.477 Y113.739 E9.02005
G1 X113.404 Y114.898 E9.13224
G1 X113.711 Y115.106 E9.15074
G1 X115.501 Y116.468 E9.26296
G1 X115.78 Y116.705 E9.28122
G1 X117.414 Y118.252 E9.39348
G1 X117.668 Y118.521 E9.41194
G1 X119.121 Y120.233 E9.52396
G1 X119.343 Y120.525 E9.54227
G1 X120.605 Y122.386 E9.65445
G1 X120.795 Y122.701 E9.6728
G1 X121.848 Y124.687 E9.78495
G1 X122.002 Y125.019 E9.8032
G1 X122.837 Y127.11 E9.91554
G1 X122.955 Y127.463 E9.9341
G1 X123.555 Y129.627 E10.04614
G1 X123.634 Y129.985 E10.06443
G1 X123.998 Y132.204 E10.17662
G1 X124.038 Y132.571 E10.19503
G1 X124.159 Y134.816 E10.3072
G1 X124.159 Y135.182 E10.32546
G1 X124.038 Y137.427 E10.43763
G1 X123.998 Y137.794 E10.45604
G1 X123.634 Y140.015 E10.56833
G1 X123.555 Y140.373 E10.58662
G1 X122.955 Y142.537 E10.69865
G1 X122.837 Y142.89 E10.71722
G1 X122.003 Y144.979 E10.82944
G1 X121.849 Y145.311 E10.8477
G1 X120.796 Y147.297 E10.95985
G1 X120.606 Y147.612 E10.9782
G1 X119.343 Y149.475 E11.09049
G1 X119.121 Y149.767 E11.10879
G1 X117.668 Y151.479 E11.22082
G1 X117.414 Y151.748 E11.23928
G1 X115.78 Y153.295 E11.35154
G1 X115.501 Y153.532 E11.3698
G1 X113.711 Y154.894 E11.48202
G1 X113.405 Y155.101 E11.50045
G1 X111.48 Y156.259 E11.61253
G1 X111.155 Y156.432 E11.63089
G1 X109.115 Y157.376 E11.74304
G1 X108.771 Y157.512 E11.76149
G1 X106.64 Y158.229 E11.87367
G1 X106.287 Y158.327 E11.89194
G1 X104.089 Y158.811 E12.00423
G1 X103.725 Y158.871 E12.02263
G1 X101.49 Y159.114 E12.1348
G1 X101.123 Y159.134 E12.15313
G1 X98.877 Y159.134 E12.26519
G1 X98.51 Y159.114 E12.28352
G1 X96.275 Y158.871 E12.39569
G1 X95.911 Y158.811 E12.41409
G1 X93.713 Y158.327 E12.52638
G1 X93.36 Y158.229 E12.54465
G1 X91.229 Y157.512 E12.65683
G1 X90.885 Y157.376 E12.67528
G1 X88.845 Y156.432 E12.78743
G1 X88.52 Y156.259 E12.80579
G1 X86.595 Y155.101 E12.91787
G1 X86.289 Y154.894 E12.9363
G1 X84.499 Y153.532 E13.04852
G1 X84.22 Y153.295 E13.06678
G1 X82.586 Y151.748 E13.17904
G1 X82.332 Y151.479 E13.1975
G1 X80.879 Y149.767 E13.30953
G1 X80.657 Y149.475 E13.32783
G1 X79.394 Y147.612 E13.44012
G1 X79.204 Y147.297 E13.45847
G1 X78.151 Y145.311 E13.57062
G1 X77.997 Y144.979 E13.58888
G1 X77.163 Y142.89 E13.7011
G1 X77.045 Y142.537 E13.71967
G1 X76.445 Y140.373 E13.8317
G1 X76.366 Y140.015 E13.84999
G1 X76.002 Y137.794 E13.96228
G1 X75.962 Y137.427 E13.98069
G1 X75.841 Y135.184 E14.09276
G1 X75.841 Y134.818 E14.11102
G1 X75.962 Y132.573 E14.22319
G1 X76.002 Y132.206 E14.2416
G1 X76.366 Y129.985 E14.35389
G1 X76.445 Y129.627 E14.37218
G1 X77.045 Y127.463 E14.48421
G1 X77.163 Y127.11 E14.50278
G1 X77.997 Y125.021 E14.615
G1 X78.151 Y124.689 E14.63326
G1 X79.204 Y122.703 E14.74541
G1 X79.394 Y122.388 E14.76376
G1 X80.657 Y120.525 E14.87605
G1 X80.879 Y120.233 E14.89435
G1 X82.332 Y118.521 E15.00638
G1 X82.586 Y118.252 E15.02484
G1 X84.22 Y116.705 E15.1371
G1 X84.499 Y116.468 E15.15536
G1 X86.289 Y115.106 E15.26758
G0 F3600 X86.531 Y115.425
G1 F1500 X86.802 Y115.241 E15.28392
G1 X88.727 Y114.083 E15.396
G1 X89.013 Y113.931 E15.41215
G1 X91.053 Y112.987 E15.5243
G1 X91.356 Y112.867 E15.54056
G1 X93.487 Y112.15 E15.65273
G1 X93.799 Y112.063 E15.66889
G1 X95.997 Y111.579 E15.78118
G1 X96.318 Y111.527 E15.7974
G1 X98.553 Y111.284 E15.90956
G1 X98.877 Y111.266 E15.92575
G1 X101.123 Y111.266 E16.0378
G1 X101.447 Y111.284 E16.05399
G1 X103.682 Y111.527 E16.16616
G1 X104.003 Y111.579 E16.18238
G1 X106.201 Y112.063 E16.29466
G1 X106.513 Y112.15 E16.31082
G1 X108.644 Y112.867 E16.423
G1 X108.947 Y112.987 E16.43926
G1 X110.985 Y113.93 E16.55129
G1 X111.271 Y114.082 E16.56745
G1 X113.198 Y115.241 E16.67964
G1 X113.469 Y115.425 E16.69598
G1 X115.259 Y116.787 E16.80819
G1 X115.505 Y116.995 E16.82427
G1 X117.139 Y118.542 E16.93653
G1 X117.363 Y118.78 E16.95283
G1 X118.816 Y120.492 E17.06486
G1 X119.012 Y120.749 E17.08098
G1 X120.274 Y122.61 E17.19316
G1 X120.441 Y122.889 E17.20939
G1 X121.494 Y124.875 E17.32153
G1 X121.63 Y125.167 E17.3376
G1 X122.465 Y127.258 E17.44994
G1 X122.57 Y127.569 E17.46631
G1 X123.17 Y129.733 E17.57835
G1 X123.239 Y130.049 E17.59448
G1 X123.603 Y132.268 E17.70667
G1 X123.639 Y132.593 E17.72298
G1 X123.76 Y134.838 E17.83515
G1 X123.76 Y135.16 E17.85121
G1 X123.639 Y137.405 E17.96338
G1 X123.604 Y137.729 E17.97964
G1 X123.24 Y139.95 E18.09192
G1 X123.17 Y140.267 E18.10812
G1 X122.57 Y142.431 E18.22015
G1 X122.465 Y142.741 E18.23648
G1 X121.631 Y144.83 E18.3487
G1 X121.495 Y145.123 E18.36482
G1 X120.442 Y147.109 E18.47697
G1 X120.275 Y147.387 E18.49315
G1 X119.012 Y149.25 E18.60544
G1 X118.816 Y149.508 E18.6216
G1 X117.363 Y151.22 E18.73363
G1 X117.139 Y151.458 E18.74993
G1 X115.505 Y153.005 E18.86219
G1 X115.259 Y153.213 E18.87827
G1 X113.469 Y154.575 E18.99048
G1 X113.198 Y154.759 E19.00682
G1 X111.273 Y155.917 E19.1189
G1 X110.987 Y156.069 E19.13506
G1 X108.947 Y157.013 E19.2472
G1 X108.644 Y157.133 E19.26346
G1 X106.513 Y157.85 E19.37564
G1 X106.201 Y157.937 E19.3918
G1 X104.003 Y158.421 E19.50408
G1 X103.682 Y158.473 E19.5203
G1 X101.447 Y158.716 E19.63247
G1 X101.123 Y158.734 E19.64866
G1 X98.877 Y158.734 E19.76071
G1 X98.553 Y158.716 E19.7769
G1 X96.318 Y158.473 E19.88906
G1 X95.997 Y158.421 E19.90528
G1 X93.799 Y157.937 E20.01757
G1 X93.487 Y157.85 E20.03373
G1 X91.356 Y157.133 E20.1459
G1 X91.053 Y157.013 E20.16216
G1 X89.013 Y156.069 E20.27431
G1 X88.727 Y155.917 E20.29046
G1 X86.802 Y154.759 E20.40254
G1 X86.531 Y154.575 E20.41888
G1 X84.741 Y153.213 E20.5311
G1 X84.495 Y153.005 E20.54717
G1 X82.861 Y151.458 E20.65943
G1 X82.637 Y151.22 E20.67574
G1 X81.184 Y149.508 E20.78776
G1 X80.988 Y149.25 E20.80393
G1 X79.725 Y147.387 E20.91622
G1 X79.558 Y147.109 E20.9324
G1 X78.505 Y145.123 E21.04455
G1 X78.369 Y144.83 E21.06066
G1 X77.535 Y142.741 E21.17288
G1 X77.43 Y142.431 E21.18921
G1 X76.83 Y140.267 E21.30125
G1 X76.76 Y139.95 E21.31744
G1 X76.396 Y137.729 E21.42973
G1 X76.361 Y137.406 E21.44594
G1 X76.24 Y135.163 E21.558
G1 X76.24 Y134.84 E21.57412
G1 X76.361 Y132.595 E21.68628
G1 X76.396 Y132.271 E21.70254
G1 X76.76 Y130.05 E21.81483
G1 X76.83 Y129.733 E21.83102
G1 X77.43 Y127.569 E21.94306
G1 X77.535 Y127.259 E21.95939
G1 X78.369 Y125.17 E22.07161
G1 X78.505 Y124.877 E22.08772
G1 X79.558 Y122.891 E22.19987
G1 X79.725 Y122.613 E22.21605
G1 X80.988 Y120.75 E22.32834
G1 X81.184 Y120.492 E22.3445
G1 X82.637 Y118.78 E22.45653
G1 X82.861 Y118.542 E22.47284
G1 X84.495 Y116.995 E22.5851
G1 X84.741 Y116.787 E22.60117
G1 X86.531 Y115.425 E22.71339
G0 F3600 X86.774 Y115.743
G1 F1500 X87.008 Y115.584 E22.7275
G1 X88.933 Y114.426 E22.83958
G1 X89.181 Y114.294 E22.85359
G1 X91.221 Y113.35 E22.96574
G1 X91.484 Y113.246 E22.97985
G1 X93.615 Y112.529 E23.09202
G1 X93.885 Y112.454 E23.106
G1 X96.083 Y111.97 E23.21829
G1 X96.361 Y111.924 E23.23234
G1 X98.596 Y111.681 E23.34451
G1 X98.877 Y111.666 E23.35854
G1 X101.123 Y111.666 E23.4706
G1 X101.404 Y111.681 E23.48464
G1 X103.639 Y111.924 E23.5968
G1 X103.917 Y111.97 E23.61086
G1 X106.115 Y112.454 E23.72314
G1 X106.385 Y112.529 E23.73712
G1 X108.516 Y113.246 E23.8493
G1 X108.779 Y113.35 E23.86341
G1 X110.817 Y114.293 E23.97544
G1 X111.065 Y114.425 E23.98945
G1 X112.992 Y115.584 E24.10164
G1 X113.226 Y115.743 E24.11576
G1 X115.016 Y117.105 E24.22797
G1 X115.23 Y117.286 E24.24196
G1 X116.864 Y118.833 E24.35422
G1 X117.058 Y119.039 E24.36833
G1 X118.511 Y120.751 E24.48036
G1 X118.681 Y120.974 E24.49435
G1 X119.943 Y122.835 E24.60653
G1 X120.088 Y123.076 E24.62056
G1 X121.141 Y125.062 E24.73271
G1 X121.259 Y125.316 E24.74668
G1 X122.094 Y127.407 E24.85901
G1 X122.184 Y127.676 E24.87317
G1 X122.784 Y129.84 E24.9852
G1 X122.845 Y130.114 E24.99921
G1 X123.209 Y132.333 E25.11139
G1 X123.239 Y132.614 E25.12549
G1 X123.36 Y134.859 E25.23766
G1 X123.36 Y135.139 E25.25163
G1 X123.239 Y137.384 E25.36379
G1 X123.209 Y137.665 E25.37789
G1 X122.845 Y139.886 E25.49018
G1 X122.784 Y140.16 E25.50418
G1 X122.184 Y142.324 E25.61621
G1 X122.094 Y142.593 E25.63037
G1 X121.26 Y144.682 E25.74259
G1 X121.142 Y144.936 E25.75656
G1 X120.089 Y146.922 E25.86871
G1 X119.944 Y147.163 E25.88274
G1 X118.681 Y149.026 E25.99503
G1 X118.511 Y149.249 E26.00902
G1 X117.058 Y150.961 E26.12105
G1 X116.864 Y151.167 E26.13516
G1 X115.23 Y152.714 E26.24742
G1 X115.016 Y152.895 E26.26141
G1 X113.226 Y154.257 E26.37362
G1 X112.992 Y154.416 E26.38774
G1 X111.067 Y155.574 E26.49981
G1 X110.819 Y155.706 E26.51383
G1 X108.779 Y156.65 E26.62597
G1 X108.516 Y156.754 E26.64008
G1 X106.385 Y157.471 E26.75226
G1 X106.115 Y157.546 E26.76624
G1 X103.917 Y158.03 E26.87852
G1 X103.639 Y158.076 E26.89258
G1 X101.404 Y158.319 E27.00474
G1 X101.123 Y158.334 E27.01878
G1 X98.877 Y158.334 E27.13084
G1 X98.596 Y158.319 E27.14487
G1 X96.361 Y158.076 E27.25704
G1 X96.083 Y158.03 E27.27109
G1 X93.885 Y157.546 E27.38338
G1 X93.615 Y157.471 E27.39736
G1 X91.484 Y156.754 E27.50953
G1 X91.221 Y156.65 E27.52364
G1 X89.181 Y155.706 E27.63579
G1 X88.933 Y155.574 E27.6498
G1 X87.008 Y154.416 E27.76188
G1 X86.774 Y154.257 E27.77599
G1 X84.984 Y152.895 E27.88821
G1 X84.77 Y152.714 E27.90219
G1 X83.136 Y151.167 E28.01445
G1 X82.942 Y150.961 E28.02857
G1 X81.489 Y149.249 E28.1406
G1 X81.319 Y149.026 E28.15459
G1 X80.056 Y147.163 E28.26688
G1 X79.911 Y146.922 E28.28091
G1 X78.858 Y144.936 E28.39306
G1 X78.74 Y144.682 E28.40703
G1 X77.906 Y142.593 E28.51925
G1 X77.816 Y142.324 E28.5334
G1 X77.216 Y140.16 E28.64544
G1 X77.155 Y139.886 E28.65944
G1 X76.791 Y137.665 E28.77173
G1 X76.761 Y137.384 E28.78583
G1 X76.64 Y135.141 E28.89789
G1 X76.64 Y134.861 E28.91186
G1 X76.761 Y132.616 E29.02403
G1 X76.791 Y132.335 E29.03813
G1 X77.155 Y130.114 E29.15041
G1 X77.216 Y129.84 E29.16442
G1 X77.816 Y127.676 E29.27645
G1 X77.906 Y127.407 E29.2906
G1 X78.74 Y125.318 E29.40282
G1 X78.858 Y125.064 E29.41679
G1 X79.911 Y123.078 E29.52894
G1 X80.056 Y122.837 E29.54297
G1 X81.319 Y120.974 E29.65527
G1 X81.489 Y120.751 E29.66926
G1 X82.942 Y119.039 E29.78128
G1 X83.136 Y118.833 E29.7954
G1 X84.77 Y117.286 E29.90766
G1 X84.984 Y117.105 E29.92164
G1 X86.774 Y115.743 E30.03386
G0 F3600 X87.016 Y116.061
G1 F1500 X87.214 Y115.927 E30.04579
G1 X89.139 Y114.769 E30.15786
G1 X89.349 Y114.657 E30.16974
G1 X91.389 Y113.713 E30.28188
G1 X91.611 Y113.625 E30.2938
G1 X93.742 Y112.908 E30.40597
G1 X93.971 Y112.844 E30.41783
G1 X96.169 Y112.36 E30.53012
G1 X96.404 Y112.322 E30.54199
G1 X98.639 Y112.079 E30.65416
G1 X98.877 Y112.066 E30.66605
G1 X101.123 Y112.066 E30.7781
G1 X101.361 Y112.079 E30.78999
G1 X103.596 Y112.322 E30.90215
G1 X103.831 Y112.36 E30.91403
G1 X106.029 Y112.844 E31.02632
G1 X106.258 Y112.908 E31.03818
G1 X108.389 Y113.625 E31.15035
G1 X108.611 Y113.713 E31.16226
G1 X110.649 Y114.656 E31.2743
G1 X110.859 Y114.768 E31.28617
G1 X112.786 Y115.927 E31.39836
G1 X112.984 Y116.061 E31.41029
G1 X114.774 Y117.423 E31.5225
G1 X114.955 Y117.576 E31.53433
G1 X116.589 Y119.123 E31.64659
G1 X116.753 Y119.297 E31.65852
G1 X118.206 Y121.009 E31.77054
G1 X118.35 Y121.198 E31.7824
G1 X119.612 Y123.059 E31.89458
G1 X119.735 Y123.263 E31.90646
G1 X120.788 Y125.249 E32.01861
G1 X120.887 Y125.464 E32.03042
G1 X121.722 Y127.555 E32.14275
G1 X121.799 Y127.783 E32.15476
G1 X122.399 Y129.947 E32.26679
G1 X122.45 Y130.179 E32.27864
G1 X122.814 Y132.398 E32.39083
G1 X122.84 Y132.636 E32.40277
G1 X122.961 Y134.881 E32.51494
G1 X122.961 Y135.117 E32.52671
G1 X122.84 Y137.362 E32.63888
G1 X122.814 Y137.6 E32.65082
G1 X122.45 Y139.821 E32.76311
G1 X122.399 Y140.053 E32.77496
G1 X121.799 Y142.217 E32.88699
