;FLAVOR:Marlin
;TIME:558
;Filament used: 0.370551m
;Layer height: 0.2
;Generated with Cura_SteamEngine master
M190 S65
M104 S210
M109 S210
G21 ;metric values
G90 ;absolute positioning
M82 ;set extruder to absolute mode
M107 ;start with the fan off
G28 X0 Y0 ;move X/Y to min endstops
G28 Z0 ;move Z to min endstops
G1 Z15.0 F9000 ;move the platform down 15mm
G92 E0 ;zero the extruded length
G1 F200 E3 ;extrude 3mm of feed stock
G92 E0 ;zero the extruded length again
G1 F9000
;Put printing message on LCD screen
M117 Printing...
;LAYER_COUNT:70
;LAYER:0
M107
G0 F3600 X94.555 Y127.067 Z0.3
;TYPE:SKIRT
G1 F1500 X95.115 Y126.711 E0.03311
G1 X96.015 Y126.243 E0.08372
G1 X96.627 Y125.989 E0.11677
G1 X97.596 Y125.684 E0.16745
G1 X98.237 Y125.542 E0.20021
G1 X99.247 Y125.408 E0.25104
G1 X99.912 Y125.379 E0.28425
G1 X100.926 Y125.423 E0.33489
G1 X101.666 Y125.528 E0.37217
G1 X102.898 Y125.83 E0.43546
G1 X103.599 Y126.077 E0.47254
G1 X104.521 Y126.507 E0.52329
G1 X105.092 Y126.837 E0.5562
G1 X105.926 Y127.42 E0.60696
G1 X106.438 Y127.849 E0.64029
G1 X107.155 Y128.567 E0.69091
G1 X107.579 Y129.073 E0.72385
G1 X108.162 Y129.906 E0.77457
G1 X108.492 Y130.477 E0.80748
G1 X108.922 Y131.398 E0.85819
G1 X109.15 Y132.023 E0.89138
G1 X109.413 Y133.005 E0.9421
G1 X109.528 Y133.659 E0.97523
G1 X109.616 Y134.671 E1.0259
G1 X109.616 Y135.329 E1.05873
G1 X109.528 Y136.341 E1.10941
G1 X109.39 Y137.076 E1.14672
G1 X109.034 Y138.296 E1.21013
G1 X108.756 Y138.988 E1.24733
G1 X108.287 Y139.888 E1.29796
G1 X107.934 Y140.442 E1.33074
G1 X107.317 Y141.248 E1.38138
G1 X106.869 Y141.738 E1.4145
G1 X106.119 Y142.426 E1.46528
G1 X105.592 Y142.831 E1.49844
G1 X104.735 Y143.377 E1.54913
G1 X104.145 Y143.684 E1.58232
G1 X103.204 Y144.073 E1.63312
G1 X102.575 Y144.271 E1.66601
G1 X101.583 Y144.491 E1.71671
G1 X100.925 Y144.577 E1.74981
G1 X99.912 Y144.621 E1.8004
G1 X99.167 Y144.581 E1.83762
G1 X97.91 Y144.387 E1.90108
G1 X97.116 Y144.174 E1.94209
G1 X95.935 Y143.716 E2.00529
G1 X95.335 Y143.42 E2.03867
G1 X94.682 Y143.023 E2.07679
G1 X94.215 Y142.688 E2.10547
G1 X93.436 Y142.035 E2.15618
G1 X92.965 Y141.564 E2.18941
G1 X92.312 Y140.785 E2.24012
G1 X91.933 Y140.244 E2.27308
G1 X91.425 Y139.364 E2.32377
G1 X91.146 Y138.765 E2.35674
G1 X90.798 Y137.81 E2.40745
G1 X90.625 Y137.167 E2.44067
G1 X90.449 Y136.166 E2.49137
G1 X90.392 Y135.508 E2.52432
G1 X90.392 Y134.492 E2.57501
G1 X90.465 Y133.753 E2.61206
G1 X90.712 Y132.508 E2.67539
G1 X90.929 Y131.791 E2.71276
G1 X91.318 Y130.853 E2.76342
G1 X91.622 Y130.269 E2.79627
G1 X92.168 Y129.411 E2.84701
G1 X92.572 Y128.884 E2.88013
G1 X93.258 Y128.135 E2.93081
G1 X93.747 Y127.687 E2.96389
G1 X94.555 Y127.067 E3.01471
G0 F3600 X94.798 Y127.385
G1 F1500 X95.299 Y127.065 E3.04436
G1 X96.199 Y126.597 E3.09497
G1 X96.747 Y126.371 E3.12455
G1 X97.716 Y126.066 E3.17523
G1 X98.29 Y125.939 E3.20456
G1 X99.3 Y125.805 E3.25539
G1 X99.894 Y125.778 E3.28505
G1 X100.908 Y125.822 E3.33569
G1 X101.57 Y125.917 E3.36906
G1 X102.802 Y126.219 E3.43234
G1 X103.43 Y126.44 E3.46555
G1 X104.352 Y126.87 E3.51631
G1 X104.863 Y127.164 E3.54572
G1 X105.697 Y127.747 E3.59649
G1 X106.155 Y128.132 E3.62634
G1 X106.872 Y128.85 E3.67696
G1 X107.252 Y129.302 E3.70642
G1 X107.835 Y130.135 E3.75715
G1 X108.13 Y130.647 E3.78663
G1 X108.56 Y131.568 E3.83734
G1 X108.763 Y132.126 E3.86696
G1 X109.026 Y133.108 E3.91768
G1 X109.129 Y133.693 E3.94732
G1 X109.217 Y134.705 E3.998
G1 X109.217 Y135.295 E4.02743
G1 X109.129 Y136.307 E4.07811
G1 X109.006 Y136.964 E4.11146
G1 X108.65 Y138.184 E4.17486
G1 X108.401 Y138.803 E4.20815
G1 X107.932 Y139.703 E4.25878
G1 X107.617 Y140.199 E4.2881
G1 X107 Y141.005 E4.33874
G1 X106.598 Y141.443 E4.3684
G1 X105.848 Y142.131 E4.41917
G1 X105.377 Y142.493 E4.44881
G1 X104.52 Y143.039 E4.49951
G1 X103.992 Y143.314 E4.52921
G1 X103.051 Y143.703 E4.58001
G1 X102.488 Y143.88 E4.60945
G1 X101.496 Y144.1 E4.66014
G1 X100.908 Y144.178 E4.68974
G1 X99.895 Y144.222 E4.74032
G1 X99.228 Y144.185 E4.77365
G1 X97.971 Y143.991 E4.83711
G1 X97.261 Y143.801 E4.87377
G1 X96.08 Y143.343 E4.93697
G1 X95.543 Y143.078 E4.96685
G1 X94.89 Y142.681 E5.00497
G1 X94.472 Y142.382 E5.03061
G1 X93.693 Y141.729 E5.08133
G1 X93.271 Y141.307 E5.1111
G1 X92.618 Y140.528 E5.16181
G1 X92.279 Y140.044 E5.19129
G1 X91.771 Y139.164 E5.24199
G1 X91.521 Y138.628 E5.27149
G1 X91.173 Y137.673 E5.3222
G1 X91.019 Y137.098 E5.3519
G1 X90.843 Y136.097 E5.40261
G1 X90.792 Y135.508 E5.4321
G1 X90.792 Y134.492 E5.48279
G1 X90.857 Y133.83 E5.51598
G1 X91.104 Y132.585 E5.5793
G1 X91.298 Y131.945 E5.61267
G1 X91.687 Y131.007 E5.66333
G1 X91.96 Y130.484 E5.69276
G1 X92.506 Y129.626 E5.7435
G1 X92.867 Y129.155 E5.77311
G1 X93.553 Y128.406 E5.82378
G1 X93.99 Y128.005 E5.85337
G1 X94.798 Y127.385 E5.90418
G0 F3600 X95.042 Y127.702
G1 F1500 X95.484 Y127.42 E5.93034
G1 X96.384 Y126.952 E5.98095
G1 X96.867 Y126.752 E6.00703
G1 X97.836 Y126.447 E6.05771
G1 X98.342 Y126.335 E6.08356
G1 X99.352 Y126.201 E6.13439
G1 X99.877 Y126.178 E6.16061
G1 X100.891 Y126.222 E6.21125
G1 X101.475 Y126.305 E6.24068
G1 X102.707 Y126.607 E6.30396
G1 X103.261 Y126.802 E6.33326
G1 X104.183 Y127.232 E6.38402
G1 X104.634 Y127.492 E6.40999
G1 X105.468 Y128.075 E6.46076
G1 X105.872 Y128.414 E6.48707
G1 X106.589 Y129.132 E6.53769
G1 X106.924 Y129.532 E6.56372
G1 X107.507 Y130.365 E6.61445
G1 X107.767 Y130.816 E6.64042
G1 X108.197 Y131.737 E6.69113
G1 X108.377 Y132.23 E6.71731
G1 X108.64 Y133.212 E6.76803
G1 X108.731 Y133.728 E6.79417
G1 X108.819 Y134.74 E6.84485
G1 X108.819 Y135.26 E6.8708
G1 X108.731 Y136.272 E6.92147
G1 X108.622 Y136.852 E6.95092
G1 X108.266 Y138.072 E7.01432
G1 X108.046 Y138.618 E7.04369
G1 X107.577 Y139.518 E7.09432
G1 X107.299 Y139.956 E7.1202
G1 X106.682 Y140.762 E7.17085
G1 X106.328 Y141.149 E7.19701
G1 X105.578 Y141.837 E7.24779
G1 X105.162 Y142.156 E7.27394
G1 X104.305 Y142.702 E7.32464
G1 X103.839 Y142.944 E7.35084
G1 X102.898 Y143.333 E7.40163
G1 X102.402 Y143.49 E7.42759
G1 X101.41 Y143.71 E7.47828
G1 X100.89 Y143.778 E7.50445
G1 X99.877 Y143.822 E7.55503
G1 X99.289 Y143.79 E7.58441
G1 X98.032 Y143.596 E7.64787
G1 X97.405 Y143.428 E7.68025
G1 X96.224 Y142.97 E7.74345
G1 X95.751 Y142.736 E7.76978
G1 X95.098 Y142.339 E7.8079
G1 X94.729 Y142.075 E7.83054
G1 X93.95 Y141.422 E7.88125
G1 X93.578 Y141.05 E7.9075
G1 X92.925 Y140.271 E7.95821
G1 X92.626 Y139.844 E7.98422
G1 X92.118 Y138.964 E8.03491
G1 X91.897 Y138.491 E8.06096
G1 X91.549 Y137.536 E8.11167
G1 X91.413 Y137.029 E8.13786
G1 X91.237 Y136.028 E8.18856
G1 X91.192 Y135.508 E8.2146
G1 X91.192 Y134.492 E8.26529
G1 X91.249 Y133.908 E8.29457
G1 X91.496 Y132.663 E8.35789
G1 X91.668 Y132.098 E8.38735
G1 X92.057 Y131.16 E8.43802
G1 X92.297 Y130.698 E8.46399
G1 X92.843 Y129.84 E8.51473
G1 X93.162 Y129.425 E8.54084
G1 X93.848 Y128.676 E8.59151
G1 X94.234 Y128.322 E8.61764
G1 X95.042 Y127.702 E8.66846
G0 F3600 X95.285 Y128.019
G1 F1500 X95.668 Y127.775 E8.69111
G1 X96.568 Y127.307 E8.74172
G1 X96.987 Y127.134 E8.76434
G1 X97.956 Y126.829 E8.81502
G1 X98.395 Y126.732 E8.83745
G1 X99.405 Y126.598 E8.88828
G1 X99.86 Y126.577 E8.911
G1 X100.874 Y126.621 E8.96164
G1 X101.38 Y126.694 E8.98715
G1 X102.612 Y126.996 E9.05043
G1 X103.092 Y127.165 E9.07582
G1 X104.014 Y127.595 E9.12657
G1 X104.405 Y127.82 E9.14908
G1 X105.239 Y128.403 E9.19985
G1 X105.589 Y128.697 E9.22265
G1 X106.306 Y129.415 E9.27327
G1 X106.596 Y129.761 E9.2958
G1 X107.179 Y130.594 E9.34652
G1 X107.405 Y130.985 E9.36905
G1 X107.835 Y131.906 E9.41976
G1 X107.99 Y132.333 E9.44243
G1 X108.253 Y133.315 E9.49315
G1 X108.332 Y133.763 E9.51584
G1 X108.42 Y134.775 E9.56652
G1 X108.42 Y135.225 E9.58897
G1 X108.332 Y136.237 E9.63965
G1 X108.238 Y136.74 E9.66518
G1 X107.882 Y137.96 E9.72859
G1 X107.692 Y138.434 E9.75406
G1 X107.223 Y139.334 E9.80469
G1 X106.982 Y139.712 E9.82706
G1 X106.365 Y140.518 E9.8777
G1 X106.058 Y140.854 E9.90041
G1 X105.308 Y141.542 E9.95118
G1 X104.947 Y141.819 E9.97389
G1 X104.09 Y142.365 E10.02458
G1 X103.686 Y142.575 E10.0473
G1 X102.745 Y142.964 E10.0981
G1 X102.315 Y143.099 E10.12058
G1 X101.323 Y143.319 E10.17128
G1 X100.873 Y143.379 E10.19393
G1 X99.86 Y143.423 E10.24451
G1 X99.35 Y143.395 E10.26999
G1 X98.093 Y143.201 E10.33345
G1 X97.55 Y143.055 E10.3615
G1 X96.369 Y142.597 E10.4247
G1 X95.958 Y142.395 E10.44754
G1 X95.305 Y141.998 E10.48567
G1 X94.986 Y141.769 E10.50526
G1 X94.207 Y141.116 E10.55598
G1 X93.884 Y140.793 E10.57876
G1 X93.231 Y140.014 E10.62948
G1 X92.972 Y139.644 E10.65201
G1 X92.464 Y138.764 E10.7027
G1 X92.273 Y138.354 E10.72527
G1 X91.925 Y137.399 E10.77598
G1 X91.807 Y136.959 E10.79871
G1 X91.631 Y135.958 E10.84941
G1 X91.592 Y135.508 E10.87195
G1 X91.592 Y134.492 E10.92264
G1 X91.642 Y133.986 E10.948
G1 X91.889 Y132.741 E11.01133
G1 X92.037 Y132.251 E11.03686
G1 X92.426 Y131.313 E11.08753
G1 X92.634 Y130.913 E11.11002
G1 X93.18 Y130.055 E11.16076
G1 X93.457 Y129.695 E11.18342
G1 X94.143 Y128.946 E11.23409
G1 X94.477 Y128.639 E11.25672
G1 X95.285 Y128.019 E11.30754
G0 F3600 X95.529 Y128.337
G1 F1500 X95.853 Y128.13 E11.32672
G1 X96.753 Y127.662 E11.37733
G1 X97.107 Y127.515 E11.39645
G1 X98.076 Y127.21 E11.44713
G1 X98.448 Y127.128 E11.46614
G1 X99.458 Y126.994 E11.51697
G1 X99.842 Y126.977 E11.53614
G1 X100.856 Y127.021 E11.58678
G1 X101.285 Y127.082 E11.6084
G1 X102.517 Y127.384 E11.67168
G1 X102.923 Y127.527 E11.69316
G1 X103.845 Y127.957 E11.74391
G1 X104.175 Y128.148 E11.76294
G1 X105.009 Y128.731 E11.8137
G1 X105.306 Y128.979 E11.83301
G1 X106.023 Y129.697 E11.88363
G1 X106.268 Y129.991 E11.90272
G1 X106.851 Y130.824 E11.95345
G1 X107.042 Y131.154 E11.97247
G1 X107.472 Y132.075 E12.02318
G1 X107.604 Y132.437 E12.0424
G1 X107.867 Y133.419 E12.09312
G1 X107.934 Y133.797 E12.11228
G1 X108.022 Y134.809 E12.16296
G1 X108.022 Y135.191 E12.18201
G1 X107.934 Y136.203 E12.23269
G1 X107.854 Y136.628 E12.25427
G1 X107.498 Y137.848 E12.31767
G1 X107.337 Y138.249 E12.33923
G1 X106.868 Y139.149 E12.38986
G1 X106.664 Y139.469 E12.4088
G1 X106.047 Y140.275 E12.45944
G1 X105.787 Y140.559 E12.47865
G1 X105.037 Y141.247 E12.52942
G1 X104.732 Y141.481 E12.5486
G1 X103.875 Y142.027 E12.5993
G1 X103.533 Y142.205 E12.61853
G1 X102.592 Y142.594 E12.66933
G1 X102.228 Y142.709 E12.68838
G1 X101.236 Y142.929 E12.73907
G1 X100.855 Y142.979 E12.75824
G1 X99.842 Y143.023 E12.80883
G1 X99.411 Y142.999 E12.83037
G1 X98.154 Y142.805 E12.89382
G1 X97.695 Y142.682 E12.91753
G1 X96.514 Y142.224 E12.98072
G1 X96.166 Y142.053 E13.00007
G1 X95.513 Y141.656 E13.03819
G1 X95.243 Y141.462 E13.05478
G1 X94.464 Y140.809 E13.10549
G1 X94.191 Y140.536 E13.12476
G1 X93.538 Y139.757 E13.17547
G1 X93.319 Y139.444 E13.19453
G1 X92.811 Y138.564 E13.24522
G1 X92.649 Y138.217 E13.26433
G1 X92.301 Y137.262 E13.31504
G1 X92.201 Y136.89 E13.33425
G1 X92.025 Y135.889 E13.38496
G1 X91.992 Y135.508 E13.40404
G1 X91.992 Y134.492 E13.45473
G1 X92.034 Y134.064 E13.47618
G1 X92.281 Y132.819 E13.53951
G1 X92.407 Y132.404 E13.56115
G1 X92.796 Y131.466 E13.61181
G1 X92.972 Y131.128 E13.63082
G1 X93.518 Y130.27 E13.68156
G1 X93.752 Y129.965 E13.70074
G1 X94.438 Y129.216 E13.75141
G1 X94.721 Y128.957 E13.77055
G1 X95.529 Y128.337 E13.82136
G0 F3600 X95.772 Y128.654
G1 F1500 X96.038 Y128.485 E13.83708
G1 X96.938 Y128.017 E13.88769
G1 X97.228 Y127.897 E13.90335
G1 X98.197 Y127.592 E13.95403
G1 X98.5 Y127.525 E13.96951
G1 X99.51 Y127.391 E14.02034
G1 X99.825 Y127.377 E14.03607
G1 X100.839 Y127.421 E14.08671
G1 X101.19 Y127.471 E14.1044
G1 X102.422 Y127.773 E14.16768
G1 X102.754 Y127.89 E14.18524
G1 X103.676 Y128.32 E14.236
G1 X103.946 Y128.476 E14.25156
G1 X104.78 Y129.059 E14.30232
G1 X105.023 Y129.262 E14.31812
G1 X105.74 Y129.98 E14.36874
G1 X105.941 Y130.22 E14.38436
G1 X106.524 Y131.053 E14.43509
G1 X106.68 Y131.324 E14.45069
G1 X107.11 Y132.245 E14.5014
G1 X107.218 Y132.54 E14.51707
G1 X107.481 Y133.522 E14.56779
G1 X107.535 Y133.832 E14.58349
G1 X107.623 Y134.844 E14.63417
G1 X107.623 Y135.156 E14.64973
G1 X107.535 Y136.168 E14.70041
G1 X107.47 Y136.516 E14.71808
G1 X107.114 Y137.736 E14.78148
G1 X106.982 Y138.064 E14.79912
G1 X106.513 Y138.964 E14.84975
G1 X106.346 Y139.226 E14.86525
G1 X105.729 Y140.032 E14.91589
G1 X105.517 Y140.264 E14.93157
G1 X104.767 Y140.952 E14.98235
G1 X104.517 Y141.144 E14.99808
G1 X103.66 Y141.69 E15.04877
G1 X103.381 Y141.835 E15.06446
G1 X102.44 Y142.224 E15.11526
G1 X102.142 Y142.318 E15.13085
G1 X101.15 Y142.538 E15.18154
G1 X100.838 Y142.579 E15.19724
G1 X99.825 Y142.623 E15.24783
G1 X99.472 Y142.604 E15.26546
G1 X98.215 Y142.41 E15.32892
G1 X97.839 Y142.309 E15.34834
G1 X96.658 Y141.851 E15.41154
G1 X96.374 Y141.711 E15.42734
G1 X95.721 Y141.314 E15.46546
G1 X95.5 Y141.155 E15.47904
G1 X94.721 Y140.502 E15.52976
G1 X94.498 Y140.279 E15.54549
G1 X93.845 Y139.5 E15.5962
G1 X93.665 Y139.244 E15.61182
G1 X93.157 Y138.364 E15.66251
G1 X93.025 Y138.08 E15.67814
G1 X92.677 Y137.125 E15.72885
G1 X92.595 Y136.821 E15.74455
G1 X92.419 Y135.82 E15.79526
G1 X92.392 Y135.508 E15.81088
G1 X92.392 Y134.492 E15.86157
G1 X92.426 Y134.142 E15.87912
G1 X92.673 Y132.897 E15.94244
G1 X92.776 Y132.557 E15.96016
G1 X93.165 Y131.619 E16.01083
G1 X93.309 Y131.343 E16.02636
G1 X93.855 Y130.485 E16.07709
G1 X94.047 Y130.235 E16.09282
G1 X94.733 Y129.486 E16.14349
G1 X94.964 Y129.274 E16.15914
G1 X95.772 Y128.654 E16.20995
G0 F3600 X96.016 Y128.971
G1 F1500 X96.222 Y128.84 E16.22213
G1 X97.122 Y128.372 E16.27274
G1 X97.348 Y128.279 E16.28493
G1 X98.317 Y127.974 E16.33561
G1 X98.553 Y127.921 E16.34768
G1 X99.563 Y127.787 E16.39851
G1 X99.808 Y127.776 E16.41074
G1 X100.822 Y127.82 E16.46138
G1 X101.094 Y127.859 E16.47509
G1 X102.326 Y128.161 E16.53837
G1 X102.585 Y128.252 E16.55207
G1 X103.507 Y128.682 E16.60282
G1 X103.717 Y128.804 E16.61494
G1 X104.551 Y129.387 E16.66571
G1 X104.74 Y129.545 E16.678
G1 X105.457 Y130.263 E16.72862
G1 X105.613 Y130.449 E16.74073
G1 X106.196 Y131.282 E16.79146
G1 X106.318 Y131.493 E16.80362
G1 X106.748 Y132.414 E16.85433
G1 X106.831 Y132.644 E16.86653
G1 X107.094 Y133.626 E16.91725
G1 X107.137 Y133.867 E16.92946
G1 X107.225 Y134.879 E16.98014
G1 X107.225 Y135.121 E16.99221
G1 X107.137 Y136.133 E17.04289
G1 X107.086 Y136.404 E17.05665
G1 X106.73 Y137.624 E17.12005
G1 X106.628 Y137.879 E17.13376
G1 X106.159 Y138.779 E17.18439
G1 X106.029 Y138.983 E17.19646
G1 X105.412 Y139.789 E17.2471
G1 X105.246 Y139.97 E17.25935
G1 X104.496 Y140.658 E17.31013
G1 X104.302 Y140.807 E17.32233
G1 X103.445 Y141.353 E17.37303
G1 X103.228 Y141.466 E17.38523
G1 X102.287 Y141.855 E17.43603
G1 X102.055 Y141.928 E17.44817
G1 X101.063 Y142.148 E17.49886
G1 X100.821 Y142.18 E17.51104
G1 X99.808 Y142.224 E17.56163
G1 X99.533 Y142.209 E17.57537
G1 X98.276 Y142.015 E17.63882
G1 X97.984 Y141.936 E17.65391
G1 X96.803 Y141.478 E17.71711
G1 X96.582 Y141.369 E17.7294
G1 X95.929 Y140.972 E17.76753
G1 X95.757 Y140.849 E17.77808
G1 X94.978 Y140.196 E17.82879
G1 X94.804 Y140.022 E17.84107
G1 X94.151 Y139.243 E17.89178
G1 X94.012 Y139.044 E17.90389
G1 X93.504 Y138.164 E17.95458
G1 X93.401 Y137.943 E17.96675
G1 X93.053 Y136.988 E18.01746
G1 X92.989 Y136.751 E18.02971
G1 X92.813 Y135.75 E18.08041
G1 X92.792 Y135.508 E18.09253
G1 X92.792 Y134.492 E18.14322
G1 X92.819 Y134.22 E18.15686
G1 X93.066 Y132.975 E18.22018
G1 X93.146 Y132.711 E18.23394
G1 X93.535 Y131.773 E18.2846
G1 X93.647 Y131.557 E18.29674
G1 X94.193 Y130.699 E18.34748
G1 X94.342 Y130.505 E18.35968
G1 X95.028 Y129.756 E18.41036
G1 X95.208 Y129.591 E18.42254
G1 X96.016 Y128.971 E18.47335
G0 F3600 X96.259 Y129.289
G1 F1500 X96.407 Y129.195 E18.4821
G1 X97.307 Y128.727 E18.53271
G1 X97.468 Y128.66 E18.54141
G1 X98.437 Y128.355 E18.59209
G1 X98.605 Y128.318 E18.60067
G1 X99.615 Y128.184 E18.6515
G1 X99.79 Y128.176 E18.66024
G1 X100.804 Y128.22 E18.71088
G1 X100.999 Y128.248 E18.72071
G1 X102.231 Y128.55 E18.78399
G1 X102.416 Y128.615 E18.79377
G1 X103.338 Y129.045 E18.84453
G1 X103.488 Y129.131 E18.85315
G1 X104.322 Y129.714 E18.90392
G1 X104.457 Y129.827 E18.9127
G1 X105.174 Y130.545 E18.96333
G1 X105.285 Y130.679 E18.97201
G1 X105.868 Y131.512 E19.02274
G1 X105.955 Y131.662 E19.03139
G1 X106.385 Y132.583 E19.0821
