;FLAVOR:Marlin
;TIME:2341
;Filament used: 1.81953m
;Layer height: 0.2
;Generated with Cura_SteamEngine master
M190 S65
M104 S210
M109 S210
G21 ;metric values
G90 ;absolute positioning
M82 ;set extruder to absolute mode
M107 ;start with the fan off
G28 X0 Y0 ;move X/Y to min endstops
G28 Z0 ;move Z to min endstops
G1 Z15.0 F9000 ;move the platform down 15mm
G92 E0 ;zero the extruded length
G1 F200 E3 ;extrude 3mm of feed stock
G92 E0 ;zero the extruded length again
G1 F9000
;Put printing message on LCD screen
M117 Printing...
;LAYER_COUNT:113
;LAYER:0
M107
G0 F3600 X22.637 Y128.873 Z0.3
G0 X23.454 Y128.779
;TYPE:SKIRT
G1 F1500 X78.96 Y128.78 E2.76921
G1 X79.495 Y128.82 E2.79597
G1 X80.018 Y128.939 E2.82273
G1 X80.517 Y129.134 E2.84946
G1 X80.982 Y129.402 E2.87624
G1 X81.402 Y129.735 E2.90298
G1 X81.768 Y130.127 E2.92973
G1 X82.071 Y130.569 E2.95647
G1 X82.306 Y131.052 E2.98327
G1 X82.466 Y131.563 E3.00998
G1 X82.549 Y132.093 E3.03674
G1 X82.56 Y132.38 E3.05107
G1 X82.56 Y165.635 E4.71017
G1 X82.52 Y166.17 E4.73694
G1 X82.401 Y166.693 E4.7637
G1 X82.206 Y167.192 E4.79043
G1 X81.938 Y167.657 E4.8172
G1 X81.605 Y168.077 E4.84394
G1 X81.213 Y168.443 E4.8707
G1 X80.771 Y168.746 E4.89743
G1 X80.288 Y168.981 E4.92423
G1 X79.777 Y169.141 E4.95095
G1 X79.247 Y169.224 E4.97771
G1 X78.96 Y169.235 E4.99204
G1 X23.454 Y169.235 E7.76125
G1 X22.919 Y169.195 E7.78801
G1 X22.396 Y169.076 E7.81477
G1 X21.897 Y168.881 E7.8415
G1 X21.432 Y168.613 E7.86828
G1 X21.012 Y168.28 E7.89502
G1 X20.646 Y167.888 E7.92177
G1 X20.343 Y167.446 E7.94851
G1 X20.108 Y166.963 E7.97531
G1 X19.948 Y166.452 E8.00202
G1 X19.865 Y165.922 E8.02878
G1 X19.854 Y165.635 E8.04311
G1 X19.854 Y132.379 E9.70226
G1 X19.894 Y131.844 E9.72903
G1 X20.013 Y131.321 E9.75579
G1 X20.208 Y130.822 E9.78252
G1 X20.476 Y130.357 E9.80929
G1 X20.809 Y129.937 E9.83603
G1 X21.201 Y129.571 E9.86279
G1 X21.643 Y129.268 E9.88952
G1 X22.126 Y129.033 E9.91632
G1 X22.637 Y128.873 E9.94304
G1 X23.167 Y128.79 E9.9698
G1 X23.454 Y128.779 E9.98413
G0 F3600 X23.454 Y129.179
G1 F1500 X78.96 Y129.18 E12.75333
G1 X79.464 Y129.22 E12.77856
G1 X79.955 Y129.339 E12.80376
G1 X80.422 Y129.534 E12.82901
G1 X80.852 Y129.799 E12.85421
G1 X81.235 Y130.129 E12.87943
G1 X81.561 Y130.516 E12.90468
G1 X81.822 Y130.949 E12.9299
G1 X82.012 Y131.417 E12.9551
G1 X82.125 Y131.91 E12.98034
G1 X82.16 Y132.38 E13.00385
G1 X82.16 Y165.635 E14.66295
G1 X82.12 Y166.139 E14.68817
G1 X82.001 Y166.63 E14.71338
G1 X81.807 Y167.097 E14.73861
G1 X81.541 Y167.527 E14.76383
G1 X81.211 Y167.91 E14.78905
G1 X80.824 Y168.236 E14.8143
G1 X80.391 Y168.497 E14.83952
G1 X79.923 Y168.687 E14.86472
G1 X79.43 Y168.8 E14.88996
G1 X78.96 Y168.835 E14.91347
G1 X23.454 Y168.835 E17.68267
G1 X22.95 Y168.795 E17.7079
G1 X22.459 Y168.676 E17.7331
G1 X21.992 Y168.482 E17.75833
G1 X21.562 Y168.216 E17.78356
G1 X21.179 Y167.886 E17.80878
G1 X20.853 Y167.499 E17.83403
G1 X20.592 Y167.066 E17.85925
G1 X20.402 Y166.598 E17.88445
G1 X20.289 Y166.105 E17.90968
G1 X20.254 Y165.635 E17.93319
G1 X20.254 Y132.379 E19.59234
G1 X20.294 Y131.875 E19.61757
G1 X20.413 Y131.384 E19.64277
G1 X20.607 Y130.917 E19.668
G1 X20.873 Y130.487 E19.69323
G1 X21.203 Y130.104 E19.71845
G1 X21.59 Y129.778 E19.74369
G1 X22.023 Y129.517 E19.76892
G1 X22.491 Y129.327 E19.79412
G1 X22.984 Y129.214 E19.81935
G1 X23.454 Y129.179 E19.84286
G1 F1500 E13.34286
G0 F3600 X24.059 Y131.705
G0 X24.059 Y132.984
G0 X24.115 Y133.04
G0 X24.045 Y132.97
;TYPE:WALL-INNER
G1 F1500 E19.84286
G1 X78.369 Y132.97 E22.5531
G1 X78.369 Y165.044 E24.15328
G1 X24.045 Y165.044 E26.86351
G1 X24.045 Y132.97 E28.46369
G0 F3600 X24.115 Y133.04
G0 X25.602 Y134.535
G0 X25.672 Y134.605
G1 F1500 X25.539 Y134.751 E28.47355
G1 X25.421 Y134.907 E28.4833
G1 X25.317 Y135.071 E28.49299
G1 X25.23 Y135.242 E28.50256
G1 X25.153 Y135.423 E28.51238
G1 X25.096 Y135.612 E28.52223
G1 X25.055 Y135.801 E28.53187
G1 X25.031 Y135.993 E28.54153
G1 X25.023 Y136.188 E28.55126
G1 X25.032 Y136.382 E28.56095
G1 X25.058 Y136.577 E28.57077
G1 X25.102 Y136.765 E28.5804
G1 X25.158 Y136.947 E28.5899
G1 X25.235 Y137.132 E28.5999
G1 X25.326 Y137.303 E28.60956
G1 X25.43 Y137.468 E28.61929
G1 X25.551 Y137.621 E28.62903
G1 X25.68 Y137.763 E28.6386
G1 X25.826 Y137.896 E28.64845
G1 X25.982 Y138.014 E28.65821
G1 X26.146 Y138.118 E28.6679
G1 X26.317 Y138.205 E28.67747
G1 X26.498 Y138.282 E28.68728
G1 X26.687 Y138.339 E28.69713
G1 X26.876 Y138.38 E28.70678
G1 X27.068 Y138.404 E28.71643
G1 X27.263 Y138.412 E28.72617
G1 X27.457 Y138.403 E28.73586
G1 X27.65 Y138.377 E28.74557
G1 X27.838 Y138.335 E28.75518
G1 X28.024 Y138.276 E28.76492
G1 X28.207 Y138.2 E28.77481
G1 X28.378 Y138.109 E28.78447
G1 X28.542 Y138.005 E28.79416
G1 X28.695 Y137.885 E28.80386
G1 X28.838 Y137.755 E28.8135
G1 X28.971 Y137.609 E28.82335
G1 X29.089 Y137.453 E28.83311
G1 X29.193 Y137.289 E28.8428
G1 X29.28 Y137.118 E28.85237
G1 X29.357 Y136.937 E28.86219
G1 X29.414 Y136.748 E28.87204
G1 X29.455 Y136.56 E28.88164
G1 X29.479 Y136.367 E28.89134
G1 X29.487 Y136.172 E28.90108
G1 X29.478 Y135.977 E28.91081
G1 X29.45 Y135.772 E28.92114
G1 X29.356 Y135.423 E28.93917
G1 X29.275 Y135.228 E28.9497
G1 X29.184 Y135.057 E28.95937
G1 X29.08 Y134.893 E28.96906
G1 X28.96 Y134.74 E28.97876
G1 X28.83 Y134.597 E28.9884
G1 X28.684 Y134.464 E28.99825
G1 X28.528 Y134.346 E29.00801
G1 X28.365 Y134.243 E29.01763
G1 X28.191 Y134.153 E29.0274
G1 X28.011 Y134.08 E29.03709
G1 X27.825 Y134.022 E29.04681
G1 X27.634 Y133.98 E29.05657
G1 X27.442 Y133.956 E29.06622
G1 X27.247 Y133.948 E29.07596
G1 X27.053 Y133.957 E29.08565
G1 X26.858 Y133.983 E29.09546
G1 X26.669 Y134.027 E29.10515
G1 X26.485 Y134.085 E29.11477
G1 X26.304 Y134.161 E29.12456
G1 X26.134 Y134.25 E29.13414
G1 X25.968 Y134.355 E29.14394
G1 X25.815 Y134.475 E29.15364
G1 X25.672 Y134.605 E29.16328
G0 F3600 X25.602 Y134.535
G0 X25.116 Y135.41
G0 X24.983 Y136.188
G0 X27.045 Y159.512
G0 X27.053 Y159.611
G1 F1500 X26.858 Y159.637 E29.1731
G1 X26.669 Y159.681 E29.18278
G1 X26.485 Y159.739 E29.1924
G1 X26.304 Y159.815 E29.2022
G1 X26.134 Y159.904 E29.21177
G1 X25.968 Y160.009 E29.22157
G1 X25.815 Y160.129 E29.23127
G1 X25.672 Y160.259 E29.24091
G1 X25.539 Y160.405 E29.25076
G1 X25.421 Y160.561 E29.26052
G1 X25.317 Y160.725 E29.27021
G1 X25.23 Y160.896 E29.27978
G1 X25.153 Y161.077 E29.2896
G1 X25.096 Y161.266 E29.29945
G1 X25.055 Y161.455 E29.30909
G1 X25.031 Y161.647 E29.31875
G1 X25.023 Y161.842 E29.32848
G1 X25.032 Y162.036 E29.33817
G1 X25.058 Y162.231 E29.34799
G1 X25.102 Y162.419 E29.35762
G1 X25.158 Y162.601 E29.36712
G1 X25.235 Y162.786 E29.37712
G1 X25.326 Y162.957 E29.38678
G1 X25.43 Y163.122 E29.39651
G1 X25.551 Y163.275 E29.40624
G1 X25.68 Y163.417 E29.41582
G1 X25.826 Y163.55 E29.42567
G1 X25.982 Y163.668 E29.43543
G1 X26.146 Y163.772 E29.44512
G1 X26.317 Y163.859 E29.45469
G1 X26.498 Y163.936 E29.4645
G1 X26.687 Y163.993 E29.47435
G1 X26.876 Y164.034 E29.484
G1 X27.068 Y164.058 E29.49365
G1 X27.263 Y164.066 E29.50339
G1 X27.457 Y164.057 E29.51308
G1 X27.65 Y164.031 E29.52279
G1 X27.838 Y163.989 E29.5324
G1 X28.024 Y163.93 E29.54214
G1 X28.207 Y163.854 E29.55203
G1 X28.378 Y163.763 E29.56169
G1 X28.542 Y163.659 E29.57138
G1 X28.695 Y163.539 E29.58108
G1 X28.838 Y163.409 E29.59072
G1 X28.971 Y163.263 E29.60057
G1 X29.089 Y163.107 E29.61033
G1 X29.193 Y162.943 E29.62002
G1 X29.28 Y162.772 E29.62959
G1 X29.357 Y162.591 E29.63941
G1 X29.414 Y162.402 E29.64925
G1 X29.455 Y162.214 E29.65885
G1 X29.479 Y162.021 E29.66856
G1 X29.487 Y161.826 E29.67829
G1 X29.478 Y161.631 E29.68803
G1 X29.45 Y161.426 E29.69836
G1 X29.356 Y161.077 E29.71639
G1 X29.275 Y160.882 E29.72692
G1 X29.184 Y160.711 E29.73659
G1 X29.08 Y160.547 E29.74627
G1 X28.96 Y160.394 E29.75598
G1 X28.83 Y160.251 E29.76562
G1 X28.684 Y160.118 E29.77547
G1 X28.528 Y160 E29.78523
G1 X28.365 Y159.897 E29.79485
G1 X28.191 Y159.807 E29.80462
G1 X28.011 Y159.734 E29.81431
G1 X27.825 Y159.676 E29.82403
G1 X27.634 Y159.634 E29.83379
G1 X27.442 Y159.61 E29.84344
G1 X27.247 Y159.602 E29.85318
G1 X27.053 Y159.611 E29.86287
G0 F3600 X27.045 Y159.512
G0 X72.826 Y161.842
G0 X72.926 Y161.842
G1 F1500 X72.937 Y162.036 E29.87256
G1 X72.962 Y162.228 E29.88222
G1 X73.006 Y162.42 E29.89205
G1 X73.064 Y162.604 E29.90168
G1 X73.14 Y162.784 E29.91142
G1 X73.23 Y162.957 E29.92115
G1 X73.336 Y163.122 E29.93094
G1 X73.453 Y163.273 E29.94047
G1 X73.584 Y163.417 E29.95018
G1 X73.73 Y163.55 E29.96003
G1 X73.886 Y163.668 E29.96979
G1 X74.052 Y163.772 E29.97956
G1 X74.223 Y163.859 E29.98914
G1 X74.401 Y163.934 E29.99877
G1 X74.59 Y163.992 E30.00864
G1 X74.78 Y164.034 E30.01834
G1 X74.972 Y164.058 E30.028
G1 X75.167 Y164.066 E30.03773
G1 X75.362 Y164.057 E30.04747
G1 X75.555 Y164.031 E30.05719
G1 X75.743 Y163.989 E30.0668
G1 X75.929 Y163.93 E30.07653
G1 X76.112 Y163.854 E30.08642
G1 X76.282 Y163.763 E30.09604
G1 X76.447 Y163.659 E30.10577
G1 X76.6 Y163.538 E30.1155
G1 X76.742 Y163.409 E30.12507
G1 X76.876 Y163.262 E30.135
G1 X76.991 Y163.108 E30.14459
G1 X77.097 Y162.945 E30.15429
G1 X77.186 Y162.77 E30.16408
G1 X77.26 Y162.59 E30.17379
G1 X77.317 Y162.405 E30.18345
G1 X77.36 Y162.214 E30.19322
G1 X77.383 Y162.018 E30.20306
G1 X77.391 Y161.826 E30.21265
G1 X77.382 Y161.633 E30.22229
G1 X77.357 Y161.44 E30.232
G1 X77.313 Y161.249 E30.24178
G1 X77.255 Y161.064 E30.25145
G1 X77.179 Y160.884 E30.2612
G1 X77.089 Y160.71 E30.27097
G1 X76.983 Y160.547 E30.28067
G1 X76.865 Y160.394 E30.29031
G1 X76.732 Y160.25 E30.30009
G1 X76.588 Y160.118 E30.30984
G1 X76.432 Y160 E30.31959
G1 X76.269 Y159.897 E30.32921
G1 X76.095 Y159.807 E30.33899
G1 X75.917 Y159.734 E30.34859
G1 X75.73 Y159.676 E30.35835
G1 X75.539 Y159.634 E30.36811
G1 X75.347 Y159.61 E30.37776
G1 X75.151 Y159.602 E30.38755
G1 X74.957 Y159.611 E30.39724
G1 X74.762 Y159.637 E30.40705
G1 X74.573 Y159.681 E30.41674
G1 X74.389 Y159.739 E30.42636
G1 X74.21 Y159.815 E30.43606
G1 X74.039 Y159.904 E30.44568
G1 X73.872 Y160.009 E30.45552
G1 X73.718 Y160.13 E30.46529
G1 X73.575 Y160.261 E30.47497
G1 X73.443 Y160.406 E30.48475
G1 X73.327 Y160.561 E30.49441
G1 X73.224 Y160.722 E30.50394
G1 X73.132 Y160.897 E30.51381
G1 X73.059 Y161.078 E30.52355
G1 X73.001 Y161.264 E30.53327
G1 X72.959 Y161.457 E30.54312
G1 X72.936 Y161.647 E30.55267
G1 X72.926 Y161.842 E30.56241
G0 F3600 X72.826 Y161.842
G0 X74.964 Y138.503
G0 X74.972 Y138.404
G1 F1500 X75.167 Y138.412 E30.57215
G1 X75.362 Y138.403 E30.58189
G1 X75.555 Y138.377 E30.5916
G1 X75.743 Y138.335 E30.60121
G1 X75.929 Y138.276 E30.61095
G1 X76.112 Y138.2 E30.62083
G1 X76.282 Y138.109 E30.63045
G1 X76.447 Y138.005 E30.64018
G1 X76.6 Y137.884 E30.64992
G1 X76.742 Y137.755 E30.65949
G1 X76.876 Y137.608 E30.66941
G1 X76.991 Y137.454 E30.679
G1 X77.097 Y137.291 E30.6887
G1 X77.186 Y137.116 E30.69849
G1 X77.26 Y136.936 E30.7082
G1 X77.317 Y136.751 E30.71786
G1 X77.36 Y136.56 E30.72763
G1 X77.383 Y136.364 E30.73748
G1 X77.391 Y136.172 E30.74706
G1 X77.382 Y135.979 E30.7567
G1 X77.357 Y135.786 E30.76641
G1 X77.313 Y135.595 E30.77619
G1 X77.255 Y135.41 E30.78586
G1 X77.179 Y135.23 E30.79561
G1 X77.089 Y135.056 E30.80538
G1 X76.983 Y134.893 E30.81508
G1 X76.865 Y134.74 E30.82472
G1 X76.732 Y134.596 E30.8345
G1 X76.588 Y134.464 E30.84425
G1 X76.432 Y134.346 E30.85401
G1 X76.269 Y134.243 E30.86363
G1 X76.095 Y134.153 E30.8734
G1 X75.917 Y134.08 E30.883
G1 X75.73 Y134.022 E30.89277
G1 X75.539 Y133.98 E30.90252
G1 X75.347 Y133.956 E30.91218
G1 X75.151 Y133.948 E30.92196
G1 X74.957 Y133.957 E30.93165
G1 X74.762 Y133.983 E30.94147
G1 X74.573 Y134.027 E30.95115
G1 X74.389 Y134.085 E30.96077
G1 X74.21 Y134.161 E30.97048
G1 X74.039 Y134.25 E30.98009
G1 X73.872 Y134.355 E30.98993
G1 X73.718 Y134.476 E30.99971
G1 X73.575 Y134.607 E31.00938
G1 X73.443 Y134.752 E31.01916
G1 X73.327 Y134.907 E31.02882
G1 X73.224 Y135.068 E31.03836
G1 X73.132 Y135.243 E31.04822
G1 X73.059 Y135.424 E31.05796
G1 X73.001 Y135.61 E31.06768
G1 X72.959 Y135.803 E31.07753
G1 X72.936 Y135.993 E31.08708
G1 X72.926 Y136.188 E31.09682
G1 X72.937 Y136.382 E31.10652
G1 X72.962 Y136.574 E31.11618
G1 X73.006 Y136.766 E31.126
G1 X73.064 Y136.95 E31.13563
G1 X73.14 Y137.13 E31.14538
G1 X73.23 Y137.303 E31.15511
G1 X73.336 Y137.468 E31.16489
G1 X73.453 Y137.619 E31.17442
G1 X73.584 Y137.763 E31.18413
G1 X73.73 Y137.896 E31.19399
G1 X73.886 Y138.014 E31.20374
G1 X74.052 Y138.118 E31.21352
G1 X74.223 Y138.205 E31.22309
G1 X74.401 Y138.28 E31.23273
G1 X74.59 Y138.338 E31.24259
G1 X74.78 Y138.38 E31.2523
G1 X74.972 Y138.404 E31.26195
G0 F3600 X75.166 Y138.012
;TYPE:WALL-OUTER
G1 F1500 X75.326 Y138.004 E31.26994
G1 X75.484 Y137.983 E31.2779
G1 X75.639 Y137.948 E31.28582
G1 X75.792 Y137.9 E31.29382
G1 X75.94 Y137.838 E31.30183
G1 X76.081 Y137.763 E31.3098
G1 X76.216 Y137.678 E31.31776
G1 X76.341 Y137.579 E31.32571
G1 X76.459 Y137.472 E31.33366
G1 X76.567 Y137.353 E31.34167
G1 X76.663 Y137.225 E31.34966
G1 X76.75 Y137.091 E31.35763
G1 X76.822 Y136.949 E31.36557
G1 X76.883 Y136.801 E31.37356
G1 X76.93 Y136.648 E31.38154
G1 X76.965 Y136.492 E31.38952
G1 X76.984 Y136.332 E31.39756
G1 X76.991 Y136.173 E31.4055
G1 X76.983 Y136.014 E31.41344
G1 X76.963 Y135.856 E31.42139
G1 X76.927 Y135.7 E31.42937
G1 X76.879 Y135.548 E31.43733
G1 X76.817 Y135.4 E31.44533
G1 X76.743 Y135.258 E31.45332
G1 X76.656 Y135.124 E31.46129
G1 X76.559 Y134.998 E31.46922
G1 X76.45 Y134.88 E31.47724
G1 X76.332 Y134.772 E31.48522
G1 X76.204 Y134.675 E31.49323
G1 X76.07 Y134.59 E31.50115
G1 X75.928 Y134.517 E31.50911
G1 X75.781 Y134.457 E31.51703
G1 X75.628 Y134.409 E31.52503
G1 X75.471 Y134.375 E31.53305
G1 X75.313 Y134.355 E31.54099
G1 X75.152 Y134.348 E31.54903
G1 X74.993 Y134.356 E31.55698
G1 X74.834 Y134.377 E31.56498
G1 X74.679 Y134.413 E31.57292
G1 X74.527 Y134.461 E31.58087
G1 X74.38 Y134.523 E31.58883
G1 X74.238 Y134.597 E31.59682
G1 X74.103 Y134.682 E31.60478
G1 X73.977 Y134.781 E31.61277
G1 X73.859 Y134.889 E31.62075
G1 X73.752 Y135.007 E31.6287
G1 X73.656 Y135.135 E31.63668
G1 X73.57 Y135.269 E31.64463
G1 X73.496 Y135.411 E31.65261
G1 X73.436 Y135.559 E31.66058
G1 X73.388 Y135.712 E31.66858
G1 X73.354 Y135.869 E31.6766
G1 X73.335 Y136.027 E31.68453
G1 X73.327 Y136.187 E31.69253
G1 X73.336 Y136.346 E31.70047
G1 X73.356 Y136.504 E31.70842
G1 X73.392 Y136.661 E31.71645
G1 X73.44 Y136.812 E31.72436
G1 X73.502 Y136.96 E31.73236
G1 X73.576 Y137.102 E31.74035
G1 X73.663 Y137.237 E31.74837
G1 X73.76 Y137.362 E31.75626
G1 X73.867 Y137.48 E31.76421
G1 X73.986 Y137.588 E31.77222
G1 X74.114 Y137.685 E31.78024
G1 X74.249 Y137.77 E31.7882
G1 X74.391 Y137.842 E31.79614
G1 X74.538 Y137.904 E31.8041
G1 X74.691 Y137.951 E31.81208
G1 X74.848 Y137.985 E31.8201
G1 X75.006 Y138.005 E31.82804
G1 X75.166 Y138.012 E31.83603
G0 F3600 X75.326 Y138.004
G0 X75.365 Y137.999
G0 X75.431 Y138.495
G0 X76.302 Y138.143
G0 X76.906 Y137.633
G0 X77.297 Y136.949
G0 X78.299 Y133.04
G0 X78.769 Y132.57
G1 F1500 X78.769 Y165.444 E33.47612
G1 X23.645 Y165.444 E36.22627
G1 X23.645 Y132.57 E37.86636
G1 X78.769 Y132.57 E40.61651
G0 F3600 X78.769 Y132.77
G0 X78.299 Y133.04
G0 X75.534 Y159.533
G0 X75.471 Y160.029
G1 F1500 X75.313 Y160.009 E40.62445
G1 X75.152 Y160.002 E40.63249
G1 X74.993 Y160.01 E40.64044
G1 X74.834 Y160.031 E40.64844
G1 X74.679 Y160.067 E40.65638
G1 X74.527 Y160.115 E40.66433
G1 X74.38 Y160.177 E40.67229
G1 X74.238 Y160.251 E40.68028
G1 X74.103 Y160.336 E40.68824
G1 X73.977 Y160.435 E40.69623
G1 X73.859 Y160.543 E40.70421
G1 X73.752 Y160.661 E40.71216
G1 X73.656 Y160.789 E40.72014
G1 X73.57 Y160.923 E40.72809
G1 X73.496 Y161.065 E40.73607
G1 X73.436 Y161.213 E40.74404
G1 X73.388 Y161.366 E40.75204
G1 X73.354 Y161.523 E40.76006
G1 X73.335 Y161.681 E40.768
G1 X73.327 Y161.841 E40.77599
G1 X73.336 Y162 E40.78393
G1 X73.356 Y162.158 E40.79188
G1 X73.392 Y162.315 E40.79991
G1 X73.44 Y162.466 E40.80782
G1 X73.502 Y162.614 E40.81582
G1 X73.576 Y162.756 E40.82381
G1 X73.663 Y162.891 E40.83183
G1 X73.76 Y163.016 E40.83972
G1 X73.867 Y163.134 E40.84767
G1 X73.986 Y163.242 E40.85568
G1 X74.114 Y163.339 E40.8637
G1 X74.249 Y163.424 E40.87166
G1 X74.391 Y163.496 E40.8796
G1 X74.538 Y163.558 E40.88756
G1 X74.691 Y163.605 E40.89554
G1 X74.848 Y163.639 E40.90356
