;FLAVOR:Marlin
;TIME:3735
;Filament used: 3.85653m
;Layer height: 0.2
;Generated with Cura_SteamEngine 2.7.0
M190 S65
M104 S210
M109 S210
G21 ;metric values
G90 ;absolute positioning
M82 ;set extruder to absolute mode
M107 ;start with the fan off
G28 X0 Y0 ;move X/Y to min endstops
G28 Z0 ;move Z to min endstops
G1 Z15.0 F9000 ;move the platform down 15mm
G92 E0 ;zero the extruded length
G1 F200 E3 ;extrude 3mm of feed stock
G92 E0 ;zero the extruded length again
G1 F9000
;Put printing message on LCD screen
M117 Printing...
;LAYER_COUNT:88
;LAYER:0
M107
G0 F3600 X63.834 Y78.549 Z0.3
;TYPE:SKIRT
G1 F1500 X64.355 Y78.145 E0.03289
G1 X65.663 Y77.301 E0.11055
G1 X66.253 Y76.99 E0.14383
G1 X67.674 Y76.394 E0.22071
G1 X68.301 Y76.193 E0.25355
G1 X69.817 Y75.848 E0.33112
G1 X70.473 Y75.758 E0.36416
G1 X72.016 Y75.682 E0.44123
G1 X72.632 Y75.701 E0.47198
G1 X73.82 Y75.836 E0.53163
G1 X73.82 Y75.838 E0.53173
G1 X74.037 Y75.859 E0.54261
G1 X74.361 Y75.93 E0.55915
G1 X75.835 Y76.319 E0.63521
G1 X76.374 Y76.506 E0.66367
G1 X77.43 Y76.963 E0.72108
G1 X77.875 Y77.191 E0.74602
G1 X78.876 Y77.791 E0.80425
G1 X79.218 Y78.022 E0.82484
G1 X79.842 Y78.495 E0.8639
G1 X80.099 Y78.709 E0.88059
G1 X127.976 Y122.144 E4.10567
G1 X128.417 Y122.617 E4.13794
G1 X129.36 Y123.823 E4.21431
G1 X129.72 Y124.378 E4.24732
G1 X130.438 Y125.726 E4.32352
G1 X130.693 Y126.324 E4.35595
G1 X131.171 Y127.776 E4.43221
G1 X131.321 Y128.41 E4.46472
G1 X131.544 Y129.922 E4.54097
G1 X131.579 Y130.68 E4.57883
G1 X131.485 Y132.422 E4.66586
G1 X131.489 Y132.503 E4.66991
G1 X131.435 Y133.052 E4.69743
G1 X131.358 Y133.397 E4.71506
G1 X130.867 Y135.214 E4.80897
G1 X130.611 Y135.897 E4.84536
G1 X129.936 Y137.273 E4.92182
G1 X129.597 Y137.834 E4.95452
G1 X128.693 Y139.077 E5.0312
G1 X128.263 Y139.572 E5.06391
G1 X127.171 Y140.629 E5.13973
G1 X126.666 Y141.04 E5.17222
G1 X125.395 Y141.905 E5.24892
G1 X124.824 Y142.226 E5.2816
G1 X123.43 Y142.857 E5.35794
G1 X122.737 Y143.093 E5.39447
G1 X120.913 Y143.524 E5.48797
G1 X120.275 Y143.619 E5.52015
G1 X119.102 Y143.692 E5.57879
G1 X118.518 Y143.683 E5.60793
G1 X116.994 Y143.543 E5.68428
G1 X116.355 Y143.429 E5.71666
G1 X114.886 Y143.034 E5.79255
G1 X114.268 Y142.808 E5.82538
G1 X112.873 Y142.158 E5.90216
G1 X112.379 Y141.881 E5.93042
G1 X111.427 Y141.25 E5.9874
G1 X110.975 Y140.899 E6.01595
G1 X63.06 Y97.495 E9.2414
G1 X62.711 Y97.135 E9.26642
G1 X61.709 Y95.952 E9.34377
G1 X61.328 Y95.413 E9.3767
G1 X60.551 Y94.083 E9.45354
G1 X60.3 Y93.569 E9.48208
G1 X59.869 Y92.484 E9.54033
G1 X59.695 Y91.92 E9.56977
G1 X59.351 Y90.4 E9.64752
G1 X59.262 Y89.748 E9.68035
G1 X59.186 Y88.209 E9.75723
G1 X59.211 Y87.549 E9.79018
G1 X59.404 Y86.011 E9.86751
G1 X59.545 Y85.357 E9.90089
G1 X60.005 Y83.876 E9.97826
G1 X60.253 Y83.268 E10.01102
G1 X60.963 Y81.885 E10.08858
G1 X61.317 Y81.323 E10.12172
G1 X62.248 Y80.096 E10.19856
G1 X62.694 Y79.604 E10.23169
G1 X63.834 Y78.549 E10.30918
G0 F3600 X64.106 Y78.843
G1 F1500 X64.572 Y78.481 E10.33862
G1 X65.88 Y77.637 E10.41628
G1 X66.408 Y77.359 E10.44605
G1 X67.829 Y76.763 E10.52293
G1 X68.39 Y76.583 E10.55232
G1 X69.906 Y76.238 E10.62989
G1 X70.493 Y76.157 E10.65945
G1 X72.036 Y76.081 E10.73653
G1 X72.587 Y76.099 E10.76403
G1 X73.672 Y76.222 E10.81851
G1 X73.788 Y76.227 E10.8243
G1 X74.259 Y76.317 E10.84823
G1 X75.733 Y76.706 E10.92428
G1 X76.215 Y76.873 E10.94973
G1 X77.271 Y77.33 E11.00714
G1 X77.669 Y77.534 E11.02945
G1 X78.67 Y78.134 E11.08767
G1 X78.976 Y78.34 E11.10608
G1 X79.6 Y78.813 E11.14514
G1 X79.831 Y79.005 E11.16013
G1 X127.708 Y122.44 E14.38521
G1 X128.101 Y122.864 E14.41406
G1 X129.044 Y124.07 E14.49044
G1 X129.367 Y124.566 E14.51997
G1 X130.085 Y125.914 E14.59616
G1 X130.314 Y126.449 E14.6252
G1 X130.792 Y127.901 E14.70146
G1 X130.926 Y128.468 E14.73053
G1 X131.149 Y129.98 E14.80678
G1 X131.18 Y130.659 E14.84069
G1 X131.076 Y132.589 E14.93712
G1 X131.067 Y132.803 E14.9478
G1 X130.972 Y133.293 E14.9727
G1 X130.481 Y135.11 E15.06661
G1 X130.252 Y135.72 E15.09911
G1 X129.577 Y137.096 E15.17558
G1 X129.274 Y137.599 E15.20487
G1 X128.37 Y138.842 E15.28155
G1 X127.985 Y139.285 E15.31083
G1 X126.893 Y140.342 E15.38666
G1 X126.441 Y140.71 E15.41573
G1 X125.17 Y141.575 E15.49244
G1 X124.659 Y141.861 E15.52165
G1 X123.265 Y142.492 E15.59799
G1 X122.645 Y142.704 E15.63068
G1 X120.821 Y143.135 E15.72419
G1 X120.25 Y143.219 E15.75298
G1 X119.077 Y143.292 E15.81162
G1 X118.555 Y143.285 E15.83766
G1 X117.031 Y143.145 E15.91401
G1 X116.459 Y143.042 E15.94301
G1 X114.99 Y142.647 E16.0189
G1 X114.437 Y142.446 E16.04826
G1 X113.042 Y141.796 E16.12504
G1 X112.6 Y141.548 E16.15032
G1 X111.648 Y140.917 E16.20731
G1 X111.243 Y140.603 E16.23287
G1 X63.328 Y97.199 E19.45832
G1 X63.017 Y96.876 E19.48069
G1 X62.015 Y95.693 E19.55804
G1 X61.673 Y95.211 E19.58753
G1 X60.896 Y93.881 E19.66437
G1 X60.672 Y93.421 E19.6899
G1 X60.241 Y92.336 E19.74814
G1 X60.085 Y91.831 E19.77451
G1 X59.741 Y90.311 E19.85226
G1 X59.661 Y89.729 E19.88157
G1 X59.585 Y88.19 E19.95845
G1 X59.607 Y87.599 E19.98795
G1 X59.8 Y86.061 E20.06529
G1 X59.927 Y85.475 E20.0952
G1 X60.387 Y83.994 E20.17257
G1 X60.609 Y83.45 E20.20188
G1 X61.319 Y82.067 E20.27944
G1 X61.635 Y81.565 E20.30904
G1 X62.566 Y80.338 E20.38588
G1 X62.966 Y79.898 E20.41555
G1 X64.106 Y78.843 E20.49304
G0 F3600 X64.377 Y79.136
G1 F1500 X64.788 Y78.817 E20.519
G1 X66.096 Y77.973 E20.59666
G1 X66.563 Y77.727 E20.62299
G1 X67.984 Y77.131 E20.69987
G1 X68.478 Y76.973 E20.72574
G1 X69.994 Y76.628 E20.80331
G1 X70.512 Y76.557 E20.8294
G1 X72.055 Y76.481 E20.90647
G1 X72.542 Y76.496 E20.93078
G1 X73.55 Y76.611 E20.98139
G1 X73.579 Y76.61 E20.98284
G1 X73.66 Y76.623 E20.98693
G1 X73.73 Y76.631 E20.99045
G1 X73.73 Y76.634 E20.9906
G1 X74.157 Y76.703 E21.01218
G1 X75.631 Y77.092 E21.08823
G1 X76.057 Y77.24 E21.11073
G1 X77.113 Y77.697 E21.16814
G1 X77.463 Y77.877 E21.18777
G1 X78.464 Y78.477 E21.246
G1 X78.734 Y78.659 E21.26224
G1 X79.358 Y79.132 E21.30131
G1 X79.562 Y79.301 E21.31452
G1 X127.439 Y122.736 E24.53961
G1 X127.786 Y123.11 E24.56506
G1 X128.729 Y124.316 E24.64144
G1 X129.014 Y124.754 E24.66751
G1 X129.732 Y126.102 E24.74371
G1 X129.934 Y126.574 E24.76932
G1 X130.412 Y128.026 E24.84559
G1 X130.53 Y128.526 E24.87122
G1 X130.753 Y130.038 E24.94747
G1 X130.781 Y130.637 E24.97739
G1 X130.682 Y132.477 E25.06932
G1 X130.684 Y132.594 E25.07515
G1 X130.586 Y133.189 E25.10524
G1 X130.095 Y135.006 E25.19914
G1 X129.892 Y135.544 E25.22783
G1 X129.217 Y136.92 E25.30429
G1 X128.95 Y137.364 E25.33014
G1 X128.046 Y138.607 E25.40682
G1 X127.706 Y138.998 E25.43267
G1 X126.614 Y140.055 E25.50849
G1 X126.216 Y140.379 E25.5341
G1 X124.945 Y141.244 E25.6108
G1 X124.494 Y141.497 E25.6366
G1 X123.1 Y142.128 E25.71294
G1 X122.553 Y142.315 E25.74178
G1 X120.729 Y142.746 E25.83528
G1 X120.225 Y142.82 E25.8607
G1 X119.052 Y142.893 E25.91933
G1 X118.592 Y142.886 E25.94229
G1 X117.068 Y142.746 E26.01864
G1 X116.563 Y142.656 E26.04423
G1 X115.094 Y142.261 E26.12012
G1 X114.606 Y142.083 E26.14604
G1 X113.211 Y141.433 E26.22282
G1 X112.821 Y141.215 E26.24511
G1 X111.869 Y140.584 E26.30209
G1 X111.512 Y140.306 E26.32466
G1 X63.597 Y96.902 E29.55012
G1 X63.322 Y96.618 E29.56984
G1 X62.32 Y95.435 E29.64719
G1 X62.019 Y95.009 E29.67321
G1 X61.242 Y93.679 E29.75006
G1 X61.044 Y93.274 E29.77255
G1 X60.613 Y92.189 E29.83079
G1 X60.475 Y91.743 E29.85408
G1 X60.131 Y90.223 E29.93184
G1 X60.061 Y89.709 E29.95772
G1 X59.985 Y88.17 E30.03459
G1 X60.004 Y87.648 E30.06065
G1 X60.197 Y86.11 E30.13798
G1 X60.309 Y85.594 E30.16433
G1 X60.769 Y84.113 E30.2417
G1 X60.965 Y83.633 E30.26756
G1 X61.675 Y82.25 E30.34512
G1 X61.954 Y81.807 E30.37124
G1 X62.885 Y80.58 E30.44808
G1 X63.237 Y80.191 E30.47426
G1 X64.377 Y79.136 E30.55175
G0 F3600 X64.649 Y79.43
G1 F1500 X65.005 Y79.153 E30.57425
G1 X66.313 Y78.309 E30.65191
G1 X66.717 Y78.096 E30.6747
G1 X68.138 Y77.5 E30.75158
G1 X68.567 Y77.363 E30.77405
G1 X70.083 Y77.018 E30.85161
G1 X70.532 Y76.956 E30.87423
G1 X72.075 Y76.88 E30.9513
G1 X72.497 Y76.894 E30.97237
G1 X73.685 Y77.029 E31.03202
G1 X73.684 Y77.04 E31.03257
G1 X74.054 Y77.09 E31.05119
G1 X75.528 Y77.479 E31.12725
G1 X75.898 Y77.607 E31.14678
G1 X76.954 Y78.064 E31.20419
G1 X77.258 Y78.22 E31.22124
G1 X78.259 Y78.82 E31.27946
G1 X78.493 Y78.978 E31.29355
G1 X79.117 Y79.451 E31.33261
G1 X79.293 Y79.597 E31.34402
G1 X127.17 Y123.032 E34.56911
G1 X127.471 Y123.356 E34.59117
G1 X128.414 Y124.562 E34.66755
G1 X128.661 Y124.942 E34.69016
G1 X129.379 Y126.29 E34.76636
G1 X129.554 Y126.699 E34.78855
G1 X130.032 Y128.151 E34.86481
G1 X130.134 Y128.585 E34.88706
G1 X130.357 Y130.097 E34.96331
G1 X130.381 Y130.616 E34.98923
G1 X130.286 Y132.378 E35.07726
G1 X130.29 Y132.428 E35.07976
G1 X130.279 Y132.508 E35.08379
G1 X130.277 Y132.546 E35.08569
G1 X130.274 Y132.546 E35.08584
G1 X130.2 Y133.084 E35.11294
G1 X129.709 Y134.901 E35.20684
G1 X129.533 Y135.368 E35.23174
G1 X128.858 Y136.744 E35.3082
G1 X128.627 Y137.128 E35.33056
G1 X127.723 Y138.371 E35.40724
G1 X127.428 Y138.71 E35.42966
G1 X126.336 Y139.767 E35.50548
G1 X125.991 Y140.048 E35.52768
G1 X124.72 Y140.913 E35.60438
G1 X124.329 Y141.133 E35.62676
G1 X122.935 Y141.764 E35.7031
G1 X122.461 Y141.925 E35.72808
G1 X120.637 Y142.356 E35.82158
G1 X120.2 Y142.421 E35.84362
G1 X119.027 Y142.494 E35.90226
G1 X118.628 Y142.488 E35.92217
G1 X117.104 Y142.348 E35.99852
G1 X116.667 Y142.27 E36.02067
G1 X115.198 Y141.875 E36.09656
G1 X114.775 Y141.721 E36.11902
G1 X113.38 Y141.071 E36.1958
G1 X113.042 Y140.881 E36.21514
G1 X112.09 Y140.25 E36.27212
G1 X111.78 Y140.01 E36.29168
G1 X63.865 Y96.606 E39.51714
G1 X63.627 Y96.359 E39.53425
G1 X62.625 Y95.176 E39.61159
G1 X62.364 Y94.808 E39.6341
G1 X61.587 Y93.478 E39.71095
G1 X61.416 Y93.126 E39.73047
G1 X60.985 Y92.041 E39.78872
G1 X60.865 Y91.655 E39.80889
G1 X60.521 Y90.135 E39.88664
G1 X60.46 Y89.689 E39.9091
G1 X60.384 Y88.15 E39.98597
G1 X60.401 Y87.698 E40.00854
G1 X60.594 Y86.16 E40.08587
G1 X60.691 Y85.713 E40.10869
G1 X61.151 Y84.232 E40.18606
G1 X61.321 Y83.816 E40.20848
G1 X62.031 Y82.433 E40.28604
G1 X62.273 Y82.048 E40.30873
G1 X63.204 Y80.821 E40.38557
G1 X63.509 Y80.485 E40.40821
G1 X64.649 Y79.43 E40.4857
G0 F3600 X64.921 Y79.723
G1 F1500 X65.222 Y79.489 E40.50472
G1 X66.53 Y78.645 E40.58238
G1 X66.872 Y78.465 E40.60166
G1 X68.293 Y77.869 E40.67854
G1 X68.656 Y77.753 E40.69755
G1 X70.172 Y77.408 E40.77512
G1 X70.552 Y77.356 E40.79426
G1 X72.095 Y77.28 E40.87133
G1 X72.451 Y77.291 E40.8891
G1 X73.598 Y77.421 E40.94669
G1 X73.711 Y77.427 E40.95234
G1 X73.952 Y77.477 E40.96461
G1 X75.426 Y77.866 E41.04067
G1 X75.739 Y77.974 E41.05719
G1 X76.795 Y78.431 E41.1146
G1 X77.052 Y78.563 E41.12901
G1 X78.053 Y79.163 E41.18723
G1 X78.251 Y79.297 E41.19916
G1 X78.875 Y79.77 E41.23823
G1 X79.024 Y79.894 E41.2479
G1 X126.901 Y123.329 E44.47298
G1 X127.156 Y123.603 E44.49166
G1 X128.099 Y124.809 E44.56804
G1 X128.308 Y125.13 E44.58715
G1 X129.026 Y126.478 E44.66334
G1 X129.174 Y126.824 E44.68212
G1 X129.652 Y128.276 E44.75838
G1 X129.738 Y128.643 E44.77719
G1 X129.961 Y130.155 E44.85344
G1 X129.982 Y130.594 E44.87537
G1 X129.878 Y132.524 E44.97179
G1 X129.877 Y132.524 E44.97184
G1 X129.867 Y132.726 E44.98193
G1 X129.814 Y132.98 E44.99488
G1 X129.323 Y134.797 E45.08878
G1 X129.174 Y135.192 E45.10984
G1 X128.499 Y136.568 E45.18631
G1 X128.303 Y136.893 E45.20524
G1 X127.399 Y138.136 E45.28192
G1 X127.15 Y138.423 E45.30088
G1 X126.058 Y139.48 E45.3767
G1 X125.766 Y139.718 E45.39549
G1 X124.495 Y140.583 E45.47219
G1 X124.164 Y140.768 E45.49111
G1 X122.77 Y141.399 E45.56745
G1 X122.369 Y141.536 E45.58859
G1 X120.545 Y141.967 E45.6821
G1 X120.176 Y142.022 E45.70071
G1 X119.003 Y142.095 E45.75935
G1 X118.665 Y142.09 E45.77621
G1 X117.141 Y141.95 E45.85256
G1 X116.771 Y141.884 E45.87132
G1 X115.302 Y141.489 E45.94721
G1 X114.944 Y141.358 E45.96623
G1 X113.549 Y140.708 E46.04301
G1 X113.263 Y140.548 E46.05936
G1 X112.311 Y139.917 E46.11634
G1 X112.049 Y139.713 E46.1329
G1 X64.134 Y96.309 E49.35836
G1 X63.932 Y96.101 E49.37282
G1 X62.93 Y94.918 E49.45017
G1 X62.709 Y94.606 E49.46924
G1 X61.932 Y93.276 E49.54609
G1 X61.787 Y92.978 E49.56262
G1 X61.356 Y91.893 E49.62087
G1 X61.255 Y91.567 E49.6379
G1 X60.911 Y90.047 E49.71565
G1 X60.86 Y89.67 E49.73463
G1 X60.784 Y88.131 E49.8115
G1 X60.798 Y87.748 E49.83062
G1 X60.991 Y86.21 E49.90796
G1 X61.073 Y85.831 E49.9273
G1 X61.533 Y84.35 E50.00467
G1 X61.677 Y83.998 E50.02365
G1 X62.387 Y82.615 E50.1012
G1 X62.591 Y82.29 E50.12035
G1 X63.522 Y81.063 E50.19719
G1 X63.781 Y80.778 E50.2164
G1 X64.921 Y79.723 E50.2939
G0 F3600 X65.192 Y80.017
G1 F1500 X65.439 Y79.826 E50.30947
G1 X66.747 Y78.982 E50.38714
G1 X67.027 Y78.834 E50.40294
G1 X68.448 Y78.238 E50.47981
G1 X68.745 Y78.143 E50.49537
G1 X70.261 Y77.798 E50.57294
G1 X70.571 Y77.755 E50.58855
G1 X72.114 Y77.679 E50.66563
G1 X72.406 Y77.689 E50.6802
G1 X73.516 Y77.815 E50.73594
G1 X73.6 Y77.816 E50.74013
G1 X73.85 Y77.864 E50.75283
G1 X75.324 Y78.253 E50.82888
G1 X75.58 Y78.341 E50.84239
G1 X76.636 Y78.798 E50.89979
G1 X76.846 Y78.906 E50.91158
G1 X77.847 Y79.506 E50.9698
G1 X78.009 Y79.616 E50.97957
G1 X78.633 Y80.089 E51.01863
G1 X78.755 Y80.19 E51.02654
G1 X126.632 Y123.625 E54.25162
G1 X126.841 Y123.849 E54.26691
G1 X127.784 Y125.055 E54.34328
G1 X127.955 Y125.318 E54.35894
G1 X128.673 Y126.666 E54.43513
G1 X128.794 Y126.949 E54.45049
G1 X129.272 Y128.401 E54.52675
G1 X129.343 Y128.701 E54.54213
G1 X129.566 Y130.213 E54.61838
G1 X129.582 Y130.573 E54.63636
G1 X129.479 Y132.476 E54.73144
G1 X129.478 Y132.615 E54.73838
G1 X129.428 Y132.876 E54.75163
G1 X128.937 Y134.693 E54.84554
G1 X128.815 Y135.016 E54.86276
G1 X128.14 Y136.392 E54.93923
G1 X127.98 Y136.658 E54.95471
G1 X127.076 Y137.901 E55.03139
G1 X126.872 Y138.135 E55.04688
G1 X125.78 Y139.192 E55.1227
G1 X125.541 Y139.387 E55.13809
G1 X124.27 Y140.252 E55.21479
G1 X123.999 Y140.404 E55.23029
G1 X122.605 Y141.035 E55.30663
G1 X122.277 Y141.147 E55.32393
G1 X120.453 Y141.578 E55.41743
G1 X120.151 Y141.623 E55.43267
G1 X118.978 Y141.696 E55.4913
G1 X118.701 Y141.691 E55.50512
G1 X117.177 Y141.551 E55.58147
G1 X116.875 Y141.497 E55.59678
G1 X115.406 Y141.102 E55.67267
G1 X115.113 Y140.996 E55.68822
G1 X113.718 Y140.346 E55.765
G1 X113.484 Y140.214 E55.7784
G1 X112.532 Y139.583 E55.83538
G1 X112.318 Y139.417 E55.8489
G1 X64.403 Y96.013 E59.07435
G1 X64.237 Y95.842 E59.08624
G1 X63.235 Y94.659 E59.16358
G1 X63.055 Y94.404 E59.17916
G1 X62.278 Y93.074 E59.256
G1 X62.159 Y92.831 E59.2695
G1 X61.728 Y91.746 E59.32775
G1 X61.645 Y91.478 E59.34174
G1 X61.301 Y89.958 E59.4195
G1 X61.259 Y89.65 E59.435
G1 X61.183 Y88.111 E59.51188
G1 X61.195 Y87.798 E59.52751
G1 X61.388 Y86.26 E59.60484
G1 X61.455 Y85.95 E59.62066
G1 X61.915 Y84.469 E59.69803
G1 X62.033 Y84.181 E59.71356
G1 X62.743 Y82.798 E59.79112
G1 X62.91 Y82.532 E59.80679
G1 X63.841 Y81.305 E59.88363
G1 X64.052 Y81.072 E59.89931
G1 X65.192 Y80.017 E59.9768
G0 F3600 X65.464 Y80.31
G1 F1500 X65.656 Y80.162 E59.9889
G1 X66.964 Y79.318 E60.06656
G1 X67.182 Y79.203 E60.07886
G1 X68.603 Y78.607 E60.15573
G1 X68.833 Y78.533 E60.16779
G1 X70.349 Y78.188 E60.24536
G1 X70.591 Y78.155 E60.25754
G1 X72.134 Y78.079 E60.33462
G1 X72.361 Y78.086 E60.34595
G1 X73.471 Y78.212 E60.40168
G1 X73.536 Y78.211 E60.40492
G1 X73.748 Y78.25 E60.41568
G1 X75.222 Y78.639 E60.49173
G1 X75.421 Y78.708 E60.50224
G1 X76.477 Y79.165 E60.55965
G1 X76.641 Y79.249 E60.56884
G1 X77.642 Y79.849 E60.62706
G1 X77.768 Y79.934 E60.63465
G1 X78.392 Y80.407 E60.67371
G1 X78.487 Y80.486 E60.67988
G1 X126.364 Y123.921 E63.90496
