;FLAVOR:Marlin
;TIME:3334
;Filament used: 2.90229m
;Layer height: 0.2
;Generated with Cura_SteamEngine master
M190 S65
M104 S210
M109 S210
G21 ;metric values
G90 ;absolute positioning
M82 ;set extruder to absolute mode
M107 ;start with the fan off
G28 X0 Y0 ;move X/Y to min endstops
G28 Z0 ;move Z to min endstops
G1 Z15.0 F9000 ;move the platform down 15mm
G92 E0 ;zero the extruded length
G1 F200 E3 ;extrude 3mm of feed stock
G92 E0 ;zero the extruded length again
G1 F9000
;Put printing message on LCD screen
M117 Printing...
;LAYER_COUNT:119
;LAYER:0
M107
G0 F3600 X30.88 Y74.68 Z0.3
;TYPE:SKIRT
G1 F1500 X31.391 Y74.52 E0.02671
G1 X31.921 Y74.437 E0.05348
G1 X32.208 Y74.426 E0.06781
G1 X97.874 Y74.427 E3.3439
G1 X98.409 Y74.467 E3.37066
G1 X98.932 Y74.586 E3.39742
G1 X99.431 Y74.781 E3.42415
G1 X99.896 Y75.049 E3.45093
G1 X100.316 Y75.382 E3.47767
G1 X100.682 Y75.774 E3.50442
G1 X100.985 Y76.216 E3.53116
G1 X101.22 Y76.699 E3.55796
G1 X101.38 Y77.21 E3.58467
G1 X101.463 Y77.74 E3.61144
G1 X101.474 Y78.027 E3.62577
G1 X101.474 Y111.282 E5.28486
G1 X101.434 Y111.817 E5.31163
G1 X101.315 Y112.34 E5.33839
G1 X101.12 Y112.839 E5.36512
G1 X100.852 Y113.304 E5.39189
G1 X100.519 Y113.724 E5.41863
G1 X100.127 Y114.09 E5.44539
G1 X99.685 Y114.393 E5.47213
G1 X99.202 Y114.628 E5.49892
G1 X98.691 Y114.788 E5.52564
G1 X98.161 Y114.871 E5.5524
G1 X97.874 Y114.882 E5.56673
G1 X32.208 Y114.882 E8.84282
G1 X31.673 Y114.842 E8.86959
G1 X31.15 Y114.723 E8.89635
G1 X30.651 Y114.528 E8.92308
G1 X30.186 Y114.26 E8.94985
G1 X29.766 Y113.927 E8.97659
G1 X29.4 Y113.535 E9.00335
G1 X29.097 Y113.093 E9.03008
G1 X28.862 Y112.61 E9.05688
G1 X28.702 Y112.099 E9.0836
G1 X28.619 Y111.569 E9.11036
G1 X28.608 Y111.282 E9.12469
G1 X28.608 Y78.026 E10.78384
G1 X28.648 Y77.491 E10.8106
G1 X28.767 Y76.968 E10.83736
G1 X28.962 Y76.469 E10.86409
G1 X29.23 Y76.004 E10.89087
G1 X29.563 Y75.584 E10.91761
G1 X29.955 Y75.218 E10.94436
G1 X30.397 Y74.915 E10.9711
G1 X30.88 Y74.68 E10.9979
G0 F3600 X30.777 Y75.164
G1 F1500 X31.245 Y74.974 E11.0231
G1 X31.738 Y74.861 E11.04833
G1 X32.208 Y74.826 E11.07184
G1 X97.874 Y74.827 E14.34793
G1 X98.378 Y74.867 E14.37316
G1 X98.869 Y74.986 E14.39836
G1 X99.336 Y75.181 E14.42361
G1 X99.766 Y75.446 E14.44881
G1 X100.149 Y75.776 E14.47403
G1 X100.475 Y76.163 E14.49928
G1 X100.736 Y76.596 E14.5245
G1 X100.926 Y77.064 E14.5497
G1 X101.039 Y77.557 E14.57494
G1 X101.074 Y78.027 E14.59845
G1 X101.074 Y111.282 E16.25755
G1 X101.034 Y111.786 E16.28277
G1 X100.915 Y112.277 E16.30798
G1 X100.721 Y112.744 E16.33321
G1 X100.455 Y113.174 E16.35843
G1 X100.125 Y113.557 E16.38365
G1 X99.738 Y113.883 E16.4089
G1 X99.305 Y114.144 E16.43412
G1 X98.837 Y114.334 E16.45932
G1 X98.344 Y114.447 E16.48455
G1 X97.874 Y114.482 E16.50807
G1 X32.208 Y114.482 E19.78416
G1 X31.704 Y114.442 E19.80938
G1 X31.213 Y114.323 E19.83459
G1 X30.746 Y114.129 E19.85982
G1 X30.316 Y113.863 E19.88504
G1 X29.933 Y113.533 E19.91026
G1 X29.607 Y113.146 E19.93551
G1 X29.346 Y112.713 E19.96073
G1 X29.156 Y112.245 E19.98593
G1 X29.043 Y111.752 E20.01117
G1 X29.008 Y111.282 E20.03468
G1 X29.008 Y78.026 E21.69383
G1 X29.048 Y77.522 E21.71905
G1 X29.167 Y77.031 E21.74426
G1 X29.361 Y76.564 E21.76949
G1 X29.627 Y76.134 E21.79471
G1 X29.957 Y75.751 E21.81993
G1 X30.344 Y75.425 E21.84518
G1 X30.777 Y75.164 E21.8704
G1 F1500 E15.3704
G0 F3600 X32.813 Y77.352
G0 X32.813 Y78.631
G0 X32.869 Y78.687
G0 X32.799 Y78.617
;TYPE:WALL-INNER
G1 F1500 E21.8704
G1 X97.283 Y78.617 E25.08752
G1 X97.283 Y110.691 E26.6877
G1 X32.799 Y110.691 E29.90482
G1 X32.799 Y78.617 E31.505
G0 F3600 X32.869 Y78.687
G0 X34.356 Y80.183
G0 X34.426 Y80.253
G1 F1500 X34.296 Y80.396 E31.51464
G1 X34.178 Y80.55 E31.52432
G1 X34.074 Y80.714 E31.53401
G1 X33.982 Y80.889 E31.54387
G1 X33.91 Y81.072 E31.55368
G1 X33.853 Y81.252 E31.5631
G1 X33.81 Y81.444 E31.57292
G1 X33.785 Y81.638 E31.58268
G1 X33.777 Y81.831 E31.59231
G1 X33.785 Y82.027 E31.6021
G1 X33.812 Y82.222 E31.61192
G1 X33.854 Y82.409 E31.62148
G1 X33.913 Y82.596 E31.63127
G1 X33.989 Y82.776 E31.64102
G1 X34.078 Y82.946 E31.65059
G1 X34.182 Y83.11 E31.66028
G1 X34.302 Y83.266 E31.6701
G1 X34.435 Y83.41 E31.67988
G1 X34.578 Y83.54 E31.68952
G1 X34.732 Y83.658 E31.6992
G1 X34.896 Y83.762 E31.70889
G1 X35.069 Y83.853 E31.71864
G1 X35.254 Y83.928 E31.7286
G1 X35.438 Y83.984 E31.73819
G1 X35.626 Y84.026 E31.7478
G1 X35.82 Y84.051 E31.75756
G1 X36.013 Y84.059 E31.7672
G1 X36.209 Y84.051 E31.77699
G1 X36.404 Y84.024 E31.78681
G1 X36.589 Y83.982 E31.79627
G1 X36.777 Y83.924 E31.80609
G1 X36.96 Y83.846 E31.81601
G1 X37.128 Y83.758 E31.82547
G1 X37.292 Y83.654 E31.83516
G1 X37.448 Y83.534 E31.84498
G1 X37.592 Y83.401 E31.85476
G1 X37.722 Y83.258 E31.8644
G1 X37.84 Y83.104 E31.87408
G1 X37.944 Y82.94 E31.88377
G1 X38.035 Y82.767 E31.89352
G1 X38.11 Y82.582 E31.90348
G1 X38.166 Y82.398 E31.91308
G1 X38.208 Y82.21 E31.92269
G1 X38.233 Y82.016 E31.93245
G1 X38.241 Y81.823 E31.94208
G1 X38.233 Y81.627 E31.95187
G1 X38.206 Y81.432 E31.96169
G1 X38.164 Y81.247 E31.97116
G1 X38.106 Y81.059 E31.98097
G1 X38.028 Y80.876 E31.9909
G1 X37.94 Y80.708 E32.00036
G1 X37.836 Y80.544 E32.01005
G1 X37.716 Y80.388 E32.01987
G1 X37.583 Y80.244 E32.02965
G1 X37.44 Y80.114 E32.03929
G1 X37.286 Y79.996 E32.04897
G1 X37.122 Y79.892 E32.05865
G1 X36.949 Y79.801 E32.06841
G1 X36.764 Y79.726 E32.07837
G1 X36.58 Y79.67 E32.08796
G1 X36.392 Y79.628 E32.09757
G1 X36.198 Y79.603 E32.10733
G1 X36.005 Y79.595 E32.11697
G1 X35.809 Y79.603 E32.12675
G1 X35.614 Y79.63 E32.13658
G1 X35.428 Y79.672 E32.14609
G1 X35.242 Y79.73 E32.15581
G1 X35.058 Y79.807 E32.16576
G1 X34.89 Y79.896 E32.17525
G1 X34.726 Y80 E32.18493
G1 X34.57 Y80.12 E32.19475
G1 X34.426 Y80.253 E32.20453
G0 F3600 X34.356 Y80.183
G0 X33.873 Y81.059
G0 X33.737 Y81.831
G0 X35.801 Y105.158
G0 X35.809 Y105.257
G1 F1500 X35.614 Y105.284 E32.21435
G1 X35.428 Y105.326 E32.22387
G1 X35.242 Y105.384 E32.23359
G1 X35.058 Y105.461 E32.24354
G1 X34.89 Y105.55 E32.25302
G1 X34.726 Y105.654 E32.26271
G1 X34.57 Y105.774 E32.27253
G1 X34.426 Y105.907 E32.28231
G1 X34.296 Y106.05 E32.29195
G1 X34.178 Y106.204 E32.30163
G1 X34.074 Y106.368 E32.31132
G1 X33.982 Y106.543 E32.32118
G1 X33.91 Y106.726 E32.331
G1 X33.853 Y106.906 E32.34042
G1 X33.81 Y107.098 E32.35023
G1 X33.785 Y107.292 E32.35999
G1 X33.777 Y107.485 E32.36963
G1 X33.785 Y107.681 E32.37941
G1 X33.812 Y107.876 E32.38924
G1 X33.854 Y108.063 E32.3988
G1 X33.913 Y108.25 E32.40858
G1 X33.989 Y108.43 E32.41833
G1 X34.078 Y108.6 E32.4279
G1 X34.182 Y108.764 E32.43759
G1 X34.302 Y108.92 E32.44741
G1 X34.435 Y109.064 E32.45719
G1 X34.578 Y109.194 E32.46683
G1 X34.732 Y109.312 E32.47651
G1 X34.896 Y109.416 E32.4862
G1 X35.069 Y109.507 E32.49595
G1 X35.254 Y109.582 E32.50591
G1 X35.438 Y109.638 E32.51551
G1 X35.626 Y109.68 E32.52512
G1 X35.82 Y109.705 E32.53487
G1 X36.013 Y109.713 E32.54451
G1 X36.209 Y109.705 E32.5543
G1 X36.404 Y109.678 E32.56412
G1 X36.589 Y109.636 E32.57358
G1 X36.777 Y109.578 E32.5834
G1 X36.96 Y109.5 E32.59332
G1 X37.128 Y109.412 E32.60279
G1 X37.292 Y109.308 E32.61247
G1 X37.448 Y109.188 E32.62229
G1 X37.592 Y109.055 E32.63207
G1 X37.722 Y108.912 E32.64171
G1 X37.84 Y108.758 E32.65139
G1 X37.944 Y108.594 E32.66108
G1 X38.035 Y108.421 E32.67083
G1 X38.11 Y108.236 E32.68079
G1 X38.166 Y108.052 E32.69039
G1 X38.208 Y107.864 E32.7
G1 X38.233 Y107.67 E32.70976
G1 X38.241 Y107.477 E32.7194
G1 X38.233 Y107.281 E32.72918
G1 X38.206 Y107.086 E32.739
G1 X38.164 Y106.901 E32.74847
G1 X38.106 Y106.713 E32.75828
G1 X38.028 Y106.53 E32.76821
G1 X37.94 Y106.362 E32.77767
G1 X37.836 Y106.198 E32.78736
G1 X37.716 Y106.042 E32.79718
G1 X37.583 Y105.898 E32.80696
G1 X37.44 Y105.768 E32.8166
G1 X37.286 Y105.65 E32.82628
G1 X37.122 Y105.546 E32.83597
G1 X36.949 Y105.455 E32.84572
G1 X36.764 Y105.38 E32.85568
G1 X36.58 Y105.324 E32.86527
G1 X36.392 Y105.282 E32.87488
G1 X36.198 Y105.257 E32.88464
G1 X36.005 Y105.249 E32.89428
G1 X35.809 Y105.257 E32.90407
G0 F3600 X35.801 Y105.158
G0 X91.742 Y107.485
G0 X91.842 Y107.485
G1 F1500 X91.85 Y107.68 E32.9138
G1 X91.876 Y107.873 E32.92352
G1 X91.918 Y108.063 E32.93323
G1 X91.977 Y108.25 E32.94301
G1 X92.053 Y108.429 E32.95271
G1 X92.143 Y108.602 E32.96244
G1 X92.247 Y108.765 E32.97209
G1 X92.366 Y108.92 E32.98184
G1 X92.5 Y109.064 E32.99165
G1 X92.64 Y109.193 E33.00115
G1 X92.795 Y109.312 E33.0109
G1 X92.96 Y109.417 E33.02065
G1 X93.136 Y109.508 E33.03054
G1 X93.317 Y109.581 E33.04028
G1 X93.501 Y109.638 E33.04989
G1 X93.69 Y109.68 E33.05955
G1 X93.884 Y109.705 E33.0693
G1 X94.077 Y109.713 E33.07894
G1 X94.274 Y109.705 E33.08878
G1 X94.469 Y109.678 E33.0986
G1 X94.655 Y109.636 E33.10811
G1 X94.842 Y109.578 E33.11788
G1 X95.023 Y109.501 E33.12769
G1 X95.192 Y109.413 E33.1372
G1 X95.358 Y109.308 E33.147
G1 X95.513 Y109.187 E33.15681
G1 X95.656 Y109.055 E33.16652
G1 X95.787 Y108.912 E33.17619
G1 X95.904 Y108.758 E33.18584
G1 X96.009 Y108.594 E33.19556
G1 X96.1 Y108.42 E33.20536
G1 X96.173 Y108.238 E33.21514
G1 X96.231 Y108.055 E33.22472
G1 X96.274 Y107.861 E33.23463
G1 X96.297 Y107.668 E33.24433
G1 X96.305 Y107.477 E33.25386
G1 X96.297 Y107.282 E33.2636
G1 X96.271 Y107.089 E33.27332
G1 X96.229 Y106.899 E33.28302
G1 X96.17 Y106.712 E33.29281
G1 X96.094 Y106.533 E33.30251
G1 X96.004 Y106.36 E33.31224
G1 X95.9 Y106.197 E33.32188
G1 X95.781 Y106.042 E33.33163
G1 X95.645 Y105.896 E33.34159
G1 X95.505 Y105.769 E33.35102
G1 X95.352 Y105.65 E33.36069
G1 X95.186 Y105.545 E33.37049
G1 X95.012 Y105.454 E33.38028
G1 X94.83 Y105.381 E33.39007
G1 X94.646 Y105.324 E33.39968
G1 X94.457 Y105.282 E33.40934
G1 X94.263 Y105.257 E33.4191
G1 X94.069 Y105.249 E33.42878
G1 X93.873 Y105.257 E33.43857
G1 X93.678 Y105.284 E33.44839
G1 X93.492 Y105.326 E33.4579
G1 X93.305 Y105.384 E33.46767
G1 X93.124 Y105.461 E33.47749
G1 X92.954 Y105.549 E33.48704
G1 X92.79 Y105.654 E33.49675
G1 X92.632 Y105.775 E33.50668
G1 X92.49 Y105.908 E33.51639
G1 X92.36 Y106.05 E33.52599
G1 X92.243 Y106.204 E33.53564
G1 X92.138 Y106.368 E33.54536
G1 X92.047 Y106.542 E33.55515
G1 X91.974 Y106.724 E33.56493
G1 X91.916 Y106.907 E33.57451
G1 X91.873 Y107.101 E33.58443
G1 X91.85 Y107.294 E33.59412
G1 X91.842 Y107.485 E33.60366
G0 F3600 X91.742 Y107.485
G0 X93.876 Y84.15
G0 X93.884 Y84.051
G1 F1500 X94.077 Y84.059 E33.6133
G1 X94.274 Y84.051 E33.62313
G1 X94.469 Y84.024 E33.63296
G1 X94.655 Y83.982 E33.64247
G1 X94.842 Y83.924 E33.65224
G1 X95.023 Y83.847 E33.66205
G1 X95.192 Y83.759 E33.67156
G1 X95.358 Y83.654 E33.68136
G1 X95.513 Y83.533 E33.69117
G1 X95.656 Y83.401 E33.70087
G1 X95.787 Y83.258 E33.71055
G1 X95.904 Y83.104 E33.7202
G1 X96.009 Y82.94 E33.72991
G1 X96.1 Y82.766 E33.73971
G1 X96.173 Y82.584 E33.74949
G1 X96.231 Y82.401 E33.75907
G1 X96.274 Y82.207 E33.76898
G1 X96.297 Y82.014 E33.77868
G1 X96.305 Y81.823 E33.78822
G1 X96.297 Y81.628 E33.79796
G1 X96.271 Y81.435 E33.80767
G1 X96.229 Y81.245 E33.81738
G1 X96.17 Y81.059 E33.82711
G1 X96.094 Y80.879 E33.83686
G1 X96.004 Y80.706 E33.84659
G1 X95.9 Y80.543 E33.85624
G1 X95.781 Y80.388 E33.86599
G1 X95.645 Y80.242 E33.87594
G1 X95.505 Y80.115 E33.88537
G1 X95.352 Y79.996 E33.89504
G1 X95.186 Y79.891 E33.90484
G1 X95.012 Y79.8 E33.91464
G1 X94.83 Y79.727 E33.92442
G1 X94.646 Y79.67 E33.93403
G1 X94.457 Y79.628 E33.94369
G1 X94.263 Y79.603 E33.95345
G1 X94.069 Y79.595 E33.96314
G1 X93.873 Y79.603 E33.97292
G1 X93.678 Y79.63 E33.98274
G1 X93.492 Y79.672 E33.99226
G1 X93.305 Y79.73 E34.00203
G1 X93.124 Y79.807 E34.01184
G1 X92.955 Y79.895 E34.02135
G1 X92.791 Y80 E34.03106
G1 X92.632 Y80.12 E34.041
G1 X92.49 Y80.254 E34.05074
G1 X92.36 Y80.396 E34.06034
G1 X92.243 Y80.55 E34.06999
G1 X92.138 Y80.714 E34.07971
G1 X92.047 Y80.888 E34.0895
G1 X91.974 Y81.07 E34.09929
G1 X91.916 Y81.253 E34.10887
G1 X91.873 Y81.447 E34.11878
G1 X91.85 Y81.64 E34.12848
G1 X91.842 Y81.831 E34.13801
G1 X91.85 Y82.026 E34.14775
G1 X91.876 Y82.219 E34.15747
G1 X91.918 Y82.409 E34.16717
G1 X91.977 Y82.596 E34.17696
G1 X92.053 Y82.775 E34.18666
G1 X92.143 Y82.948 E34.19639
G1 X92.247 Y83.111 E34.20603
G1 X92.366 Y83.266 E34.21578
G1 X92.5 Y83.41 E34.2256
G1 X92.641 Y83.539 E34.23513
G1 X92.797 Y83.658 E34.24492
G1 X92.961 Y83.763 E34.25464
G1 X93.135 Y83.854 E34.26443
G1 X93.317 Y83.927 E34.27421
G1 X93.501 Y83.984 E34.28382
G1 X93.69 Y84.026 E34.29348
G1 X93.884 Y84.051 E34.30324
G0 F3600 X93.759 Y83.632
;TYPE:WALL-OUTER
G1 F1500 X93.918 Y83.652 E34.31124
G1 X94.077 Y83.659 E34.31918
G1 X94.238 Y83.652 E34.32722
G1 X94.397 Y83.63 E34.33523
G1 X94.552 Y83.595 E34.34315
G1 X94.704 Y83.548 E34.35109
G1 X94.852 Y83.485 E34.35912
G1 X94.992 Y83.412 E34.36699
G1 X95.128 Y83.326 E34.37502
G1 X95.254 Y83.228 E34.38299
G1 X95.372 Y83.119 E34.391
G1 X95.48 Y83.001 E34.39898
G1 X95.576 Y82.875 E34.40688
G1 X95.662 Y82.74 E34.41487
G1 X95.736 Y82.598 E34.42286
G1 X95.796 Y82.449 E34.43087
G1 X95.844 Y82.297 E34.43882
G1 X95.879 Y82.14 E34.44685
G1 X95.898 Y81.981 E34.45484
G1 X95.905 Y81.823 E34.46273
G1 X95.898 Y81.663 E34.47072
G1 X95.877 Y81.505 E34.47867
G1 X95.842 Y81.349 E34.48665
G1 X95.794 Y81.197 E34.4946
G1 X95.732 Y81.049 E34.5026
G1 X95.658 Y80.907 E34.51059
G1 X95.572 Y80.773 E34.51854
G1 X95.475 Y80.646 E34.52651
G1 X95.364 Y80.527 E34.53463
G1 X95.248 Y80.422 E34.54243
G1 X95.122 Y80.324 E34.5504
G1 X94.986 Y80.238 E34.55843
G1 X94.844 Y80.164 E34.56641
G1 X94.696 Y80.104 E34.57438
G1 X94.543 Y80.057 E34.58237
G1 X94.388 Y80.022 E34.59029
G1 X94.229 Y80.002 E34.59829
G1 X94.069 Y79.995 E34.60628
G1 X93.909 Y80.002 E34.61427
G1 X93.75 Y80.024 E34.62228
G1 X93.595 Y80.059 E34.63021
G1 X93.443 Y80.106 E34.63814
G1 X93.295 Y80.169 E34.64617
G1 X93.155 Y80.242 E34.65405
G1 X93.02 Y80.328 E34.66203
G1 X92.891 Y80.426 E34.67011
G1 X92.775 Y80.535 E34.67805
G1 X92.667 Y80.653 E34.68603
G1 X92.571 Y80.779 E34.69394
G1 X92.485 Y80.914 E34.70192
G1 X92.411 Y81.056 E34.70991
G1 X92.351 Y81.205 E34.71793
G1 X92.303 Y81.357 E34.72588
G1 X92.268 Y81.514 E34.7339
G1 X92.249 Y81.673 E34.74189
G1 X92.242 Y81.831 E34.74978
G1 X92.249 Y81.991 E34.75777
G1 X92.27 Y82.149 E34.76572
G1 X92.305 Y82.305 E34.7737
G1 X92.353 Y82.458 E34.7817
G1 X92.415 Y82.605 E34.78966
G1 X92.489 Y82.747 E34.79765
G1 X92.575 Y82.881 E34.80559
G1 X92.672 Y83.008 E34.81357
G1 X92.782 Y83.126 E34.82161
G1 X92.898 Y83.232 E34.82945
G1 X93.026 Y83.33 E34.8375
G1 X93.161 Y83.416 E34.84548
G1 X93.303 Y83.49 E34.85347
G1 X93.451 Y83.55 E34.86144
G1 X93.604 Y83.597 E34.86942
G1 X93.759 Y83.632 E34.87735
G0 F3600 X93.918 Y83.652
G0 X93.958 Y83.653
G0 X93.937 Y84.153
G0 X94.855 Y83.961
G0 X95.538 Y83.563
G0 X96.043 Y82.96
G0 X96.313 Y82.213
G0 X97.213 Y78.687
G0 X97.683 Y78.217
G1 F1500 X97.683 Y111.091 E36.51744
G1 X32.399 Y111.091 E39.77447
G1 X32.399 Y78.217 E41.41456
G1 X97.683 Y78.217 E44.6716
G0 F3600 X97.683 Y78.417
G0 X97.213 Y78.687
G0 X94.495 Y105.189
G0 X94.388 Y105.676
G1 F1500 X94.229 Y105.656 E44.67959
G1 X94.069 Y105.649 E44.68758
G1 X93.909 Y105.656 E44.69557
G1 X93.75 Y105.678 E44.70358
G1 X93.595 Y105.713 E44.71151
G1 X93.443 Y105.76 E44.71944
G1 X93.295 Y105.823 E44.72747
G1 X93.154 Y105.896 E44.73539
G1 X93.019 Y105.982 E44.74338
G1 X92.891 Y106.08 E44.75142
G1 X92.775 Y106.189 E44.75936
G1 X92.667 Y106.307 E44.76734
G1 X92.571 Y106.433 E44.77524
G1 X92.485 Y106.568 E44.78323
G1 X92.411 Y106.71 E44.79122
G1 X92.351 Y106.859 E44.79923
G1 X92.303 Y107.011 E44.80718
G1 X92.268 Y107.168 E44.81521
G1 X92.249 Y107.327 E44.8232
G1 X92.242 Y107.485 E44.83109
G1 X92.249 Y107.645 E44.83908
G1 X92.27 Y107.803 E44.84703
G1 X92.305 Y107.959 E44.85501
G1 X92.353 Y108.112 E44.86301
G1 X92.415 Y108.259 E44.87097
G1 X92.489 Y108.401 E44.87896
G1 X92.575 Y108.535 E44.8869
G1 X92.672 Y108.662 E44.89487
G1 X92.782 Y108.78 E44.90292
G1 X92.898 Y108.886 E44.91076
G1 X93.025 Y108.984 E44.91876
G1 X93.16 Y109.07 E44.92675
G1 X93.303 Y109.144 E44.93478
G1 X93.451 Y109.204 E44.94275
G1 X93.604 Y109.251 E44.95073
G1 X93.759 Y109.286 E44.95866
G1 X93.918 Y109.306 E44.96666
G1 X94.077 Y109.313 E44.9746
G1 X94.238 Y109.306 E44.98264
G1 X94.397 Y109.284 E44.99065
G1 X94.552 Y109.249 E44.99857
G1 X94.704 Y109.202 E45.00651
