;FLAVOR:Marlin
;TIME:2081
;Filament used: 2.06449m
;Layer height: 0.2
;Generated with Cura_SteamEngine 2.7.0
M190 S65
M104 S210
M109 S210
G21 ;metric values
G90 ;absolute positioning
M82 ;set extruder to absolute mode
M107 ;start with the fan off
G28 X0 Y0 ;move X/Y to min endstops
G28 Z0 ;move Z to min endstops
G1 Z15.0 F9000 ;move the platform down 15mm
G92 E0 ;zero the extruded length
G1 F200 E3 ;extrude 3mm of feed stock
G92 E0 ;zero the extruded length again
G1 F9000
;Put printing message on LCD screen
M117 Printing...
;LAYER_COUNT:38
;LAYER:0
M107
G0 F3600 X91.27 Y94.053 Z0.3
;TYPE:SKIRT
G1 F1500 X92.459 Y93.056 E0.07741
G1 X93.001 Y92.677 E0.11041
G1 X94.349 Y91.899 E0.18806
G1 X94.952 Y91.618 E0.22125
G1 X96.409 Y91.089 E0.29858
G1 X97.05 Y90.918 E0.33168
G1 X98.567 Y90.652 E0.40852
G1 X99.223 Y90.595 E0.44137
G1 X100.78 Y90.595 E0.51905
G1 X101.439 Y90.653 E0.55205
G1 X102.956 Y90.92 E0.6289
G1 X103.597 Y91.091 E0.662
G1 X105.055 Y91.622 E0.73941
G1 X105.503 Y91.819 E0.76383
G1 X106.194 Y92.177 E0.80265
G1 X106.557 Y92.391 E0.82368
G1 X107.518 Y93.033 E0.88134
G1 X107.972 Y93.39 E0.91015
G1 X109.115 Y94.436 E0.98745
G1 X109.564 Y94.925 E1.02057
G1 X110.509 Y96.156 E1.09799
G1 X110.864 Y96.712 E1.1309
G1 X111.58 Y98.084 E1.20811
G1 X111.835 Y98.698 E1.24128
G1 X112.302 Y100.177 E1.31866
G1 X112.445 Y100.823 E1.35167
G1 X112.649 Y102.365 E1.42927
G1 X112.682 Y102.863 E1.45417
G1 X112.682 Y167.131 E4.66052
G1 X112.65 Y167.624 E4.68516
G1 X112.449 Y169.161 E4.7625
G1 X112.306 Y169.809 E4.7956
G1 X111.84 Y171.289 E4.87302
G1 X111.587 Y171.9 E4.90601
G1 X110.87 Y173.28 E4.9836
G1 X110.51 Y173.845 E5.01702
G1 X109.561 Y175.079 E5.09468
G1 X109.114 Y175.565 E5.12763
G1 X107.972 Y176.61 E5.20485
G1 X107.446 Y177.014 E5.23794
G1 X106.145 Y177.841 E5.31485
G1 X105.563 Y178.144 E5.34759
G1 X104.132 Y178.738 E5.42489
G1 X103.498 Y178.938 E5.45806
G1 X101.979 Y179.275 E5.53568
G1 X101.321 Y179.361 E5.56879
G1 X99.779 Y179.428 E5.64579
G1 X99.116 Y179.399 E5.6789
G1 X97.572 Y179.195 E5.7566
G1 X96.924 Y179.051 E5.78972
G1 X95.444 Y178.583 E5.86716
G1 X94.832 Y178.329 E5.90022
G1 X93.462 Y177.614 E5.97732
G1 X92.972 Y177.308 E6.00614
G1 X92.036 Y176.621 E6.06406
G1 X91.597 Y176.245 E6.0929
G1 X90.501 Y175.149 E6.17023
G1 X90.076 Y174.642 E6.20323
G1 X89.189 Y173.376 E6.28036
G1 X88.857 Y172.802 E6.31344
G1 X88.201 Y171.395 E6.39089
G1 X87.974 Y170.772 E6.42397
G1 X87.575 Y169.282 E6.50092
G1 X87.461 Y168.632 E6.53385
G1 X87.325 Y167.086 E6.61128
G1 X87.31 Y166.751 E6.62801
G1 X87.344 Y102.48 E9.8345
G1 X87.401 Y101.829 E9.8671
G1 X87.667 Y100.305 E9.94428
G1 X87.839 Y99.658 E9.97768
G1 X88.371 Y98.197 E10.05526
G1 X88.649 Y97.601 E10.08807
G1 X89.423 Y96.257 E10.16544
G1 X89.804 Y95.712 E10.19862
G1 X90.8 Y94.524 E10.27596
G1 X91.27 Y94.053 E10.30916
G0 F3600 X91.527 Y94.36
G1 F1500 X92.716 Y93.363 E10.38657
G1 X93.201 Y93.023 E10.41612
G1 X94.549 Y92.245 E10.49377
G1 X95.089 Y91.994 E10.52348
G1 X96.546 Y91.465 E10.60081
G1 X97.119 Y91.312 E10.6304
G1 X98.636 Y91.046 E10.70724
G1 X99.223 Y90.995 E10.73664
G1 X100.78 Y90.995 E10.81431
G1 X101.369 Y91.046 E10.84381
G1 X102.886 Y91.313 E10.92066
G1 X103.461 Y91.467 E10.95035
G1 X104.919 Y91.998 E11.02777
G1 X105.319 Y92.174 E11.04957
G1 X106.01 Y92.532 E11.0884
G1 X106.335 Y92.724 E11.10723
G1 X107.296 Y93.366 E11.16489
G1 X107.702 Y93.685 E11.19065
G1 X108.845 Y94.731 E11.26795
G1 X109.247 Y95.169 E11.29761
G1 X110.192 Y96.4 E11.37503
G1 X110.509 Y96.897 E11.40444
G1 X111.225 Y98.269 E11.48165
G1 X111.453 Y98.818 E11.51131
G1 X111.92 Y100.297 E11.58869
G1 X112.049 Y100.875 E11.61823
G1 X112.253 Y102.417 E11.69583
G1 X112.282 Y102.863 E11.71813
G1 X112.282 Y167.131 E14.92448
G1 X112.253 Y167.572 E14.94653
G1 X112.052 Y169.109 E15.02386
G1 X111.924 Y169.689 E15.05349
G1 X111.458 Y171.169 E15.1309
G1 X111.232 Y171.716 E15.16043
G1 X110.515 Y173.096 E15.23802
G1 X110.193 Y173.601 E15.2679
G1 X109.244 Y174.835 E15.34556
G1 X108.844 Y175.27 E15.37505
G1 X107.702 Y176.315 E15.45227
G1 X107.231 Y176.676 E15.48188
G1 X105.93 Y177.503 E15.55879
G1 X105.409 Y177.774 E15.58809
G1 X103.978 Y178.368 E15.66539
G1 X103.411 Y178.547 E15.69505
G1 X101.892 Y178.884 E15.77268
G1 X101.304 Y178.962 E15.80227
G1 X99.762 Y179.029 E15.87927
G1 X99.169 Y179.003 E15.90889
G1 X97.625 Y178.799 E15.98659
G1 X97.045 Y178.67 E16.01623
G1 X95.565 Y178.202 E16.09367
G1 X95.017 Y177.974 E16.12328
G1 X93.647 Y177.259 E16.20038
G1 X93.208 Y176.986 E16.22617
G1 X92.272 Y176.299 E16.2841
G1 X91.88 Y175.962 E16.30989
G1 X90.784 Y174.866 E16.38722
G1 X90.403 Y174.413 E16.41675
G1 X89.516 Y173.147 E16.49387
G1 X89.219 Y172.633 E16.52349
G1 X88.563 Y171.226 E16.60094
G1 X88.361 Y170.668 E16.63054
G1 X87.962 Y169.178 E16.7075
G1 X87.859 Y168.597 E16.73694
G1 X87.723 Y167.051 E16.81437
G1 X87.71 Y166.751 E16.82935
G1 X87.744 Y102.48 E20.03584
G1 X87.795 Y101.897 E20.06504
G1 X88.061 Y100.373 E20.14222
G1 X88.215 Y99.795 E20.17206
G1 X88.747 Y98.334 E20.24963
G1 X88.996 Y97.8 E20.27903
G1 X89.77 Y96.456 E20.35641
G1 X90.111 Y95.969 E20.38607
G1 X91.107 Y94.781 E20.46341
G1 X91.527 Y94.36 E20.49308
G0 F3600 X91.784 Y94.666
G1 F1500 X92.973 Y93.669 E20.57049
G1 X93.401 Y93.37 E20.59654
G1 X94.749 Y92.592 E20.67419
G1 X95.225 Y92.37 E20.70039
G1 X96.682 Y91.841 E20.77773
G1 X97.188 Y91.706 E20.80385
G1 X98.705 Y91.44 E20.88069
G1 X99.223 Y91.395 E20.90663
G1 X100.78 Y91.395 E20.98431
G1 X101.3 Y91.44 E21.01035
G1 X102.817 Y91.707 E21.0872
G1 X103.324 Y91.843 E21.11339
G1 X104.782 Y92.374 E21.1908
G1 X105.135 Y92.529 E21.21003
G1 X105.826 Y92.887 E21.24886
G1 X106.112 Y93.056 E21.26543
G1 X107.073 Y93.698 E21.32309
G1 X107.432 Y93.98 E21.34587
G1 X108.575 Y95.026 E21.42317
G1 X108.93 Y95.412 E21.44933
G1 X109.875 Y96.643 E21.52675
G1 X110.155 Y97.082 E21.55273
G1 X110.871 Y98.454 E21.62994
G1 X111.072 Y98.939 E21.65613
G1 X111.539 Y100.418 E21.73351
G1 X111.652 Y100.928 E21.75957
G1 X111.856 Y102.47 E21.83717
G1 X111.882 Y102.863 E21.85682
G1 X111.882 Y167.131 E25.06317
G1 X111.857 Y167.52 E25.08262
G1 X111.656 Y169.057 E25.15995
G1 X111.543 Y169.569 E25.18611
G1 X111.077 Y171.049 E25.26352
G1 X110.877 Y171.531 E25.28955
G1 X110.16 Y172.911 E25.36714
G1 X109.876 Y173.357 E25.39352
G1 X108.927 Y174.591 E25.47118
G1 X108.574 Y174.975 E25.49721
G1 X107.432 Y176.02 E25.57444
G1 X107.016 Y176.339 E25.60059
G1 X105.715 Y177.166 E25.6775
G1 X105.256 Y177.405 E25.70332
G1 X103.825 Y177.999 E25.78062
G1 X103.325 Y178.157 E25.80678
G1 X101.806 Y178.494 E25.8844
G1 X101.286 Y178.562 E25.91057
G1 X99.744 Y178.629 E25.98757
G1 X99.221 Y178.606 E26.01369
G1 X97.677 Y178.402 E26.09139
G1 X97.165 Y178.288 E26.11756
G1 X95.685 Y177.82 E26.195
G1 X95.202 Y177.62 E26.22108
G1 X93.832 Y176.905 E26.29818
G1 X93.445 Y176.663 E26.32095
G1 X92.509 Y175.976 E26.37888
G1 X92.163 Y175.679 E26.40163
G1 X91.067 Y174.583 E26.47895
G1 X90.731 Y174.183 E26.50502
G1 X89.844 Y172.917 E26.58214
G1 X89.582 Y172.464 E26.60825
G1 X88.926 Y171.057 E26.6857
G1 X88.747 Y170.565 E26.71182
G1 X88.348 Y169.075 E26.78877
G1 X88.258 Y168.562 E26.81476
G1 X88.122 Y167.016 E26.89218
G1 X88.11 Y166.751 E26.90542
G1 X88.144 Y102.48 E30.11191
G1 X88.189 Y101.966 E30.13765
G1 X88.455 Y100.442 E30.21484
G1 X88.591 Y99.932 E30.24117
G1 X89.123 Y98.471 E30.31874
G1 X89.342 Y98 E30.34465
G1 X90.116 Y96.656 E30.42203
G1 X90.417 Y96.226 E30.44822
G1 X91.413 Y95.038 E30.52556
G1 X91.784 Y94.666 E30.55177
G0 F3600 X92.041 Y94.973
G1 F1500 X93.23 Y93.976 E30.62919
G1 X93.601 Y93.716 E30.65179
G1 X94.949 Y92.938 E30.72944
G1 X95.362 Y92.746 E30.75216
G1 X96.819 Y92.217 E30.82949
G1 X97.257 Y92.1 E30.85211
G1 X98.774 Y91.834 E30.92895
G1 X99.223 Y91.795 E30.95143
G1 X100.78 Y91.795 E31.02911
G1 X101.231 Y91.834 E31.0517
G1 X102.748 Y92.101 E31.12854
G1 X103.187 Y92.219 E31.15122
G1 X104.645 Y92.75 E31.22864
G1 X104.951 Y92.884 E31.2453
G1 X105.642 Y93.242 E31.28413
G1 X105.89 Y93.389 E31.29851
G1 X106.851 Y94.031 E31.35617
G1 X107.162 Y94.275 E31.37589
G1 X108.305 Y95.321 E31.45319
G1 X108.612 Y95.656 E31.47586
G1 X109.557 Y96.887 E31.55329
G1 X109.8 Y97.267 E31.57579
G1 X110.516 Y98.639 E31.653
G1 X110.69 Y99.059 E31.67568
G1 X111.157 Y100.538 E31.75306
G1 X111.256 Y100.98 E31.77566
G1 X111.46 Y102.522 E31.85326
G1 X111.482 Y102.863 E31.8703
G1 X111.482 Y167.131 E35.07665
G1 X111.46 Y167.468 E35.0935
G1 X111.259 Y169.005 E35.17083
G1 X111.161 Y169.449 E35.19352
G1 X110.695 Y170.929 E35.27093
G1 X110.522 Y171.347 E35.2935
G1 X109.805 Y172.727 E35.37108
G1 X109.559 Y173.113 E35.39392
G1 X108.61 Y174.347 E35.47158
G1 X108.304 Y174.68 E35.49415
G1 X107.162 Y175.725 E35.57137
G1 X106.802 Y176.001 E35.59401
G1 X105.501 Y176.828 E35.67092
G1 X105.103 Y177.035 E35.6933
G1 X103.672 Y177.629 E35.7706
G1 X103.238 Y177.766 E35.7933
G1 X101.719 Y178.103 E35.87093
G1 X101.269 Y178.163 E35.89358
G1 X99.727 Y178.23 E35.97058
G1 X99.273 Y178.21 E35.99325
G1 X97.729 Y178.006 E36.07095
G1 X97.286 Y177.907 E36.0936
G1 X95.806 Y177.439 E36.17104
G1 X95.387 Y177.265 E36.19368
G1 X94.017 Y176.55 E36.27077
G1 X93.682 Y176.341 E36.29047
G1 X92.746 Y175.654 E36.3484
G1 X92.446 Y175.396 E36.36814
G1 X91.35 Y174.3 E36.44547
G1 X91.059 Y173.954 E36.46802
G1 X90.172 Y172.688 E36.54514
G1 X89.945 Y172.295 E36.56779
G1 X89.289 Y170.888 E36.64524
G1 X89.133 Y170.462 E36.66787
G1 X88.734 Y168.972 E36.74483
G1 X88.656 Y168.527 E36.76737
G1 X88.52 Y166.981 E36.84479
G1 X88.51 Y166.752 E36.85623
G1 X88.544 Y102.481 E40.06272
G1 X88.583 Y102.035 E40.08506
G1 X88.849 Y100.511 E40.16224
G1 X88.967 Y100.068 E40.18511
G1 X89.499 Y98.607 E40.26268
G1 X89.689 Y98.199 E40.28514
G1 X90.463 Y96.855 E40.36252
G1 X90.724 Y96.483 E40.38519
G1 X91.72 Y95.295 E40.46253
G1 X92.041 Y94.973 E40.48521
G0 F3600 X92.298 Y95.279
G1 F1500 X93.487 Y94.282 E40.56263
G1 X93.801 Y94.063 E40.58173
G1 X95.149 Y93.285 E40.65938
G1 X95.498 Y93.122 E40.67859
G1 X96.955 Y92.593 E40.75593
G1 X97.326 Y92.494 E40.77508
G1 X98.843 Y92.228 E40.85192
G1 X99.223 Y92.195 E40.87095
G1 X100.78 Y92.195 E40.94863
G1 X101.161 Y92.228 E40.96771
G1 X102.678 Y92.495 E41.04456
G1 X103.05 Y92.595 E41.06377
G1 X104.508 Y93.126 E41.14119
G1 X104.767 Y93.24 E41.15531
G1 X105.458 Y93.598 E41.19413
G1 X105.668 Y93.722 E41.2063
G1 X106.629 Y94.364 E41.26396
G1 X106.892 Y94.57 E41.28063
G1 X108.035 Y95.616 E41.35792
G1 X108.295 Y95.899 E41.3771
G1 X109.24 Y97.13 E41.45452
G1 X109.445 Y97.452 E41.47357
G1 X110.161 Y98.824 E41.55078
G1 X110.309 Y99.18 E41.57001
G1 X110.776 Y100.659 E41.64739
G1 X110.859 Y101.032 E41.66645
G1 X111.063 Y102.574 E41.74405
G1 X111.082 Y102.863 E41.7585
G1 X111.082 Y167.131 E44.96485
G1 X111.063 Y167.416 E44.9791
G1 X110.862 Y168.953 E45.05643
G1 X110.779 Y169.329 E45.07564
G1 X110.313 Y170.809 E45.15305
G1 X110.167 Y171.162 E45.17211
G1 X109.45 Y172.542 E45.2497
G1 X109.242 Y172.869 E45.26903
G1 X108.293 Y174.103 E45.3467
G1 X108.034 Y174.385 E45.3658
G1 X106.892 Y175.43 E45.44303
G1 X106.587 Y175.664 E45.46221
G1 X105.286 Y176.491 E45.53912
G1 X104.949 Y176.666 E45.55806
G1 X103.518 Y177.26 E45.63536
G1 X103.151 Y177.376 E45.65456
G1 X101.632 Y177.713 E45.73219
G1 X101.252 Y177.763 E45.75131
G1 X99.71 Y177.83 E45.82831
G1 X99.326 Y177.813 E45.84749
G1 X97.782 Y177.609 E45.92519
G1 X97.407 Y177.526 E45.94435
G1 X95.927 Y177.058 E46.02179
G1 X95.572 Y176.91 E46.04098
G1 X94.202 Y176.195 E46.11808
G1 X93.918 Y176.019 E46.13475
G1 X92.982 Y175.332 E46.19268
G1 X92.728 Y175.114 E46.20937
G1 X91.632 Y174.018 E46.2867
G1 X91.386 Y173.724 E46.30583
G1 X90.499 Y172.458 E46.38295
G1 X90.307 Y172.126 E46.40208
G1 X89.651 Y170.719 E46.47953
G1 X89.52 Y170.358 E46.49869
G1 X89.121 Y168.868 E46.57565
G1 X89.054 Y168.492 E46.5947
G1 X88.918 Y166.946 E46.67213
G1 X88.91 Y166.752 E46.68182
G1 X88.944 Y102.481 E49.88831
G1 X88.977 Y102.104 E49.90719
G1 X89.243 Y100.58 E49.98437
G1 X89.343 Y100.205 E50.00374
G1 X89.875 Y98.744 E50.08131
G1 X90.036 Y98.399 E50.1003
G1 X90.81 Y97.055 E50.17768
G1 X91.03 Y96.74 E50.19685
G1 X92.026 Y95.552 E50.27419
G1 X92.298 Y95.279 E50.29342
G0 F3600 X92.555 Y95.586
G1 F1500 X93.744 Y94.589 E50.37083
G1 X94.001 Y94.409 E50.38649
G1 X95.349 Y93.631 E50.46413
G1 X95.635 Y93.498 E50.47987
G1 X97.092 Y92.969 E50.5572
G1 X97.395 Y92.888 E50.57285
G1 X98.912 Y92.622 E50.64969
G1 X99.223 Y92.595 E50.66526
G1 X100.78 Y92.595 E50.74294
G1 X101.092 Y92.622 E50.75857
G1 X102.609 Y92.889 E50.83541
G1 X102.913 Y92.971 E50.85112
G1 X104.371 Y93.502 E50.92854
G1 X104.583 Y93.595 E50.94009
G1 X105.274 Y93.953 E50.97891
G1 X105.446 Y94.054 E50.98886
G1 X106.407 Y94.696 E51.04652
G1 X106.622 Y94.865 E51.06017
G1 X107.765 Y95.911 E51.13746
G1 X107.978 Y96.143 E51.15318
G1 X108.923 Y97.374 E51.2306
G1 X109.091 Y97.637 E51.24617
G1 X109.807 Y99.009 E51.32338
G1 X109.927 Y99.3 E51.33908
G1 X110.394 Y100.779 E51.41646
G1 X110.462 Y101.085 E51.4321
G1 X110.666 Y102.627 E51.5097
G1 X110.682 Y102.863 E51.5215
G1 X110.682 Y167.131 E54.72785
G1 X110.667 Y167.364 E54.7395
G1 X110.466 Y168.901 E54.81683
G1 X110.398 Y169.209 E54.83257
G1 X109.932 Y170.689 E54.90998
G1 X109.812 Y170.978 E54.92559
G1 X109.095 Y172.358 E55.00318
G1 X108.925 Y172.625 E55.01897
G1 X107.976 Y173.859 E55.09663
G1 X107.764 Y174.09 E55.11227
G1 X106.622 Y175.135 E55.1895
G1 X106.373 Y175.326 E55.20516
G1 X105.072 Y176.153 E55.28207
G1 X104.796 Y176.296 E55.29758
G1 X103.365 Y176.89 E55.37488
G1 X103.065 Y176.985 E55.39058
G1 X101.546 Y177.322 E55.4682
G1 X101.234 Y177.363 E55.4839
G1 X99.692 Y177.43 E55.56091
G1 X99.378 Y177.416 E55.57659
G1 X97.834 Y177.212 E55.65429
G1 X97.527 Y177.144 E55.66997
G1 X96.047 Y176.676 E55.74742
G1 X95.757 Y176.556 E55.76307
G1 X94.387 Y175.841 E55.84017
G1 X94.155 Y175.696 E55.85382
G1 X93.219 Y175.009 E55.91175
G1 X93.011 Y174.831 E55.9254
G1 X91.915 Y173.735 E56.00273
G1 X91.714 Y173.495 E56.01835
G1 X90.827 Y172.229 E56.09547
G1 X90.67 Y171.957 E56.11114
G1 X90.014 Y170.55 E56.18859
G1 X89.906 Y170.255 E56.20426
G1 X89.507 Y168.765 E56.28122
G1 X89.453 Y168.457 E56.29682
G1 X89.317 Y166.911 E56.37425
G1 X89.31 Y166.752 E56.38219
G1 X89.344 Y102.481 E59.58868
G1 X89.371 Y102.173 E59.60411
G1 X89.637 Y100.649 E59.68129
G1 X89.719 Y100.342 E59.69714
G1 X90.251 Y98.881 E59.77471
G1 X90.382 Y98.599 E59.79023
G1 X91.156 Y97.255 E59.8676
G1 X91.337 Y96.997 E59.88333
G1 X92.333 Y95.809 E59.96067
G1 X92.555 Y95.586 E59.97637
G0 F3600 X92.812 Y95.892
G1 F1500 X94.001 Y94.895 E60.05378
G1 X94.201 Y94.755 E60.06596
G1 X95.549 Y93.977 E60.14361
G1 X95.771 Y93.874 E60.15582
G1 X97.228 Y93.345 E60.23315
G1 X97.464 Y93.282 E60.24534
G1 X98.981 Y93.016 E60.32218
G1 X99.223 Y92.995 E60.3343
G1 X100.78 Y92.995 E60.41198
G1 X101.023 Y93.016 E60.42415
G1 X102.54 Y93.283 E60.50099
G1 X102.776 Y93.347 E60.51319
G1 X104.234 Y93.878 E60.59061
G1 X104.399 Y93.95 E60.59959
G1 X105.09 Y94.308 E60.63841
G1 X105.224 Y94.387 E60.64617
G1 X106.185 Y95.029 E60.70383
G1 X106.352 Y95.16 E60.71442
G1 X107.495 Y96.206 E60.79172
G1 X107.661 Y96.386 E60.80394
G1 X108.606 Y97.617 E60.88136
G1 X108.736 Y97.822 E60.89347
G1 X109.452 Y99.194 E60.97068
G1 X109.546 Y99.42 E60.98289
G1 X110.013 Y100.899 E61.06027
G1 X110.066 Y101.137 E61.07244
G1 X110.27 Y102.679 E61.15004
G1 X110.282 Y102.863 E61.15924
G1 X110.282 Y167.131 E64.36558
G1 X110.27 Y167.313 E64.37468
G1 X110.069 Y168.85 E64.45201
G1 X110.016 Y169.088 E64.46418
G1 X109.55 Y170.568 E64.54159
G1 X109.457 Y170.793 E64.55374
G1 X108.74 Y172.173 E64.63132
G1 X108.608 Y172.381 E64.64361
G1 X107.659 Y173.615 E64.72128
G1 X107.494 Y173.795 E64.73346
G1 X106.352 Y174.84 E64.81069
