;FLAVOR:Marlin
;TIME:6044
;Filament used: 6.4219m
;Layer height: 0.2
;Generated with Cura_SteamEngine master
M190 S65
M104 S210
M109 S210
G21 ;metric values
G90 ;absolute positioning
M82 ;set extruder to absolute mode
M107 ;start with the fan off
G28 X0 Y0 ;move X/Y to min endstops
G28 Z0 ;move Z to min endstops
G1 Z15.0 F9000 ;move the platform down 15mm
G92 E0 ;zero the extruded length
G1 F200 E3 ;extrude 3mm of feed stock
G92 E0 ;zero the extruded length again
G1 F9000
;Put printing message on LCD screen
M117 Printing...
;LAYER_COUNT:126
;LAYER:0
M107
G0 F3600 X82.718 Y112.187 Z0.3
;TYPE:SKIRT
G1 F1500 X84.49 Y110.945 E0.10796
G1 X84.773 Y110.765 E0.12469
G1 X86.652 Y109.682 E0.23289
G1 X86.941 Y109.532 E0.24914
G1 X88.909 Y108.612 E0.35752
G1 X89.222 Y108.482 E0.37443
G1 X91.253 Y107.745 E0.48222
G1 X91.563 Y107.647 E0.49844
G1 X93.666 Y107.082 E0.60708
G1 X93.992 Y107.01 E0.62374
G1 X96.13 Y106.633 E0.73205
G1 X96.459 Y106.589 E0.74861
G1 X98.622 Y106.4 E0.85693
G1 X98.953 Y106.386 E0.87346
G1 X101.113 Y106.386 E0.98122
G1 X101.442 Y106.4 E0.99765
G1 X103.606 Y106.588 E1.10602
G1 X104.019 Y106.647 E1.12683
G1 X107.21 Y107.282 E1.28915
G1 X107.609 Y107.384 E1.3097
G1 X109.687 Y108.038 E1.41839
G1 X110.003 Y108.153 E1.43516
G1 X112.007 Y108.985 E1.54342
G1 X112.305 Y109.125 E1.55984
G1 X114.225 Y110.125 E1.66785
G1 X114.51 Y110.289 E1.68425
G1 X116.336 Y111.451 E1.79223
G1 X116.61 Y111.643 E1.80892
G1 X118.332 Y112.965 E1.91723
G1 X118.584 Y113.176 E1.93363
G1 X120.184 Y114.641 E2.04186
G1 X120.42 Y114.877 E2.05851
G1 X121.886 Y116.477 E2.16678
G1 X122.097 Y116.728 E2.18314
G1 X123.419 Y118.448 E2.29137
G1 X123.655 Y118.794 E2.31226
G1 X125.34 Y121.573 E2.4744
G1 X125.534 Y121.936 E2.49493
G1 X126.455 Y123.909 E2.60356
G1 X126.583 Y124.218 E2.62025
G1 X127.321 Y126.248 E2.72801
G1 X127.42 Y126.56 E2.74434
G1 X127.983 Y128.655 E2.85257
G1 X128.055 Y128.98 E2.86918
G1 X128.433 Y131.121 E2.97765
G1 X128.476 Y131.45 E2.9942
G1 X128.666 Y133.616 E3.10268
G1 X128.681 Y133.948 E3.11926
G1 X128.681 Y136.109 E3.22707
G1 X128.667 Y136.438 E3.2435
G1 X128.479 Y138.599 E3.35172
G1 X128.436 Y138.928 E3.36827
G1 X128.06 Y141.065 E3.47652
G1 X127.987 Y141.392 E3.49324
G1 X127.422 Y143.497 E3.60198
G1 X127.323 Y143.811 E3.6184
G1 X126.584 Y145.843 E3.72628
G1 X126.457 Y146.15 E3.74285
G1 X125.541 Y148.115 E3.85101
G1 X125.388 Y148.408 E3.8675
G1 X124.299 Y150.295 E3.9762
G1 X124.072 Y150.643 E3.99693
G1 X122.151 Y153.262 E4.15897
G1 X121.89 Y153.581 E4.17953
G1 X120.425 Y155.181 E4.28776
G1 X120.189 Y155.417 E4.30442
G1 X118.59 Y156.882 E4.41261
G1 X118.336 Y157.095 E4.42915
G1 X116.612 Y158.418 E4.53757
G1 X116.339 Y158.609 E4.55419
G1 X114.502 Y159.778 E4.66282
G1 X114.217 Y159.942 E4.67922
G1 X112.301 Y160.94 E4.787
G1 X112.003 Y161.08 E4.80343
G1 X110.004 Y161.91 E4.91142
G1 X109.688 Y162.025 E4.92819
G1 X107.611 Y162.679 E5.03683
G1 X107.292 Y162.764 E5.0533
G1 X105.18 Y163.232 E5.16123
G1 X104.854 Y163.29 E5.17774
G1 X102.704 Y163.573 E5.28593
G1 X102.376 Y163.601 E5.30236
G1 X100.205 Y163.697 E5.41077
G1 X99.869 Y163.697 E5.42754
G1 X97.697 Y163.601 E5.53601
G1 X97.37 Y163.573 E5.55238
G1 X95.217 Y163.29 E5.66072
G1 X94.89 Y163.232 E5.67729
G1 X92.781 Y162.765 E5.78505
G1 X92.462 Y162.68 E5.80152
G1 X90.385 Y162.026 E5.91016
G1 X90.071 Y161.911 E5.92684
G1 X88.073 Y161.083 E6.03474
G1 X87.773 Y160.943 E6.05126
G1 X85.851 Y159.942 E6.15938
G1 X85.565 Y159.777 E6.17585
G1 X83.728 Y158.607 E6.28451
G1 X83.456 Y158.417 E6.30106
G1 X81.733 Y157.095 E6.40941
G1 X81.479 Y156.882 E6.42595
G1 X79.88 Y155.417 E6.53414
G1 X79.588 Y155.118 E6.55499
G1 X77.454 Y152.68 E6.71664
G1 X77.204 Y152.362 E6.73682
G1 X75.953 Y150.582 E6.84536
G1 X75.731 Y150.225 E6.86633
G1 X74.159 Y147.36 E7.02937
G1 X73.979 Y146.985 E7.05012
G1 X73.15 Y144.982 E7.15828
G1 X73.036 Y144.668 E7.17494
G1 X72.386 Y142.6 E7.28309
G1 X72.301 Y142.282 E7.29951
G1 X71.834 Y140.172 E7.40733
G1 X71.776 Y139.846 E7.42385
G1 X71.492 Y137.686 E7.53254
G1 X71.464 Y137.358 E7.54896
G1 X71.369 Y135.201 E7.65668
G1 X71.369 Y134.868 E7.67329
G1 X71.464 Y132.701 E7.78151
G1 X71.492 Y132.371 E7.79803
G1 X71.776 Y130.212 E7.90667
G1 X71.834 Y129.885 E7.92324
G1 X72.302 Y127.776 E8.03102
G1 X72.388 Y127.457 E8.0475
G1 X73.041 Y125.385 E8.15589
G1 X73.154 Y125.074 E8.1724
G1 X73.983 Y123.071 E8.28055
G1 X74.124 Y122.768 E8.29722
G1 X75.127 Y120.843 E8.40551
G1 X75.291 Y120.56 E8.42183
G1 X76.455 Y118.73 E8.53003
G1 X76.647 Y118.455 E8.54677
G1 X77.966 Y116.737 E8.65483
G1 X78.176 Y116.486 E8.67115
G1 X79.64 Y114.886 E8.77935
G1 X79.939 Y114.593 E8.80024
G1 X82.394 Y112.441 E8.96311
G1 X82.718 Y112.187 E8.98365
G0 F3600 X82.948 Y112.515
G1 F1500 X84.72 Y111.273 E9.09161
G1 X84.973 Y111.111 E9.1066
G1 X86.852 Y110.028 E9.2148
G1 X87.11 Y109.894 E9.2293
G1 X89.078 Y108.974 E9.33768
G1 X89.358 Y108.858 E9.3528
G1 X91.389 Y108.121 E9.4606
G1 X91.667 Y108.033 E9.47514
G1 X93.77 Y107.468 E9.58378
G1 X94.062 Y107.404 E9.5987
G1 X96.2 Y107.027 E9.70701
G1 X96.494 Y106.988 E9.7218
G1 X98.657 Y106.799 E9.83013
G1 X98.953 Y106.786 E9.84491
G1 X101.113 Y106.786 E9.95267
G1 X101.407 Y106.799 E9.96736
G1 X103.571 Y106.987 E10.07572
G1 X103.941 Y107.039 E10.09437
G1 X107.132 Y107.674 E10.25669
G1 X107.489 Y107.766 E10.27508
G1 X109.567 Y108.42 E10.38376
G1 X109.85 Y108.523 E10.39879
G1 X111.854 Y109.355 E10.50704
G1 X112.121 Y109.479 E10.52173
G1 X114.041 Y110.479 E10.62973
G1 X114.295 Y110.627 E10.6444
G1 X116.121 Y111.789 E10.75238
G1 X116.366 Y111.96 E10.76729
G1 X118.088 Y113.282 E10.87559
G1 X118.314 Y113.471 E10.89029
G1 X119.914 Y114.936 E10.99852
G1 X120.125 Y115.147 E11.01341
G1 X121.591 Y116.747 E11.12168
G1 X121.78 Y116.972 E11.13634
G1 X123.102 Y118.692 E11.24457
G1 X123.313 Y119.001 E11.26323
G1 X124.998 Y121.78 E11.42537
G1 X125.172 Y122.105 E11.44376
G1 X126.093 Y124.078 E11.55239
G1 X126.207 Y124.354 E11.56729
G1 X126.945 Y126.384 E11.67505
G1 X127.034 Y126.664 E11.68971
G1 X127.597 Y128.759 E11.79794
G1 X127.661 Y129.05 E11.81281
G1 X128.039 Y131.191 E11.92127
G1 X128.078 Y131.485 E11.93607
G1 X128.268 Y133.651 E12.04455
G1 X128.281 Y133.948 E12.05938
G1 X128.281 Y136.109 E12.16719
G1 X128.268 Y136.404 E12.18192
G1 X128.08 Y138.565 E12.29014
G1 X128.042 Y138.859 E12.30493
G1 X127.666 Y140.996 E12.41319
G1 X127.601 Y141.288 E12.42811
G1 X127.036 Y143.393 E12.53685
G1 X126.947 Y143.674 E12.55155
G1 X126.208 Y145.706 E12.65942
G1 X126.095 Y145.981 E12.67426
G1 X125.179 Y147.946 E12.78242
G1 X125.042 Y148.208 E12.79717
G1 X123.953 Y150.095 E12.90587
G1 X123.75 Y150.407 E12.92444
G1 X121.829 Y153.026 E13.08648
G1 X121.595 Y153.311 E13.10488
G1 X120.13 Y154.911 E13.21311
G1 X119.919 Y155.122 E13.22799
G1 X118.32 Y156.587 E13.33619
G1 X118.093 Y156.777 E13.35096
G1 X116.369 Y158.1 E13.45937
G1 X116.124 Y158.271 E13.47428
G1 X114.287 Y159.44 E13.58291
G1 X114.033 Y159.587 E13.59755
G1 X112.117 Y160.585 E13.70533
G1 X111.85 Y160.71 E13.72004
G1 X109.851 Y161.54 E13.82803
G1 X109.568 Y161.643 E13.84305
G1 X107.491 Y162.297 E13.95169
G1 X107.206 Y162.373 E13.96641
G1 X105.094 Y162.841 E14.07433
G1 X104.802 Y162.893 E14.08913
G1 X102.652 Y163.176 E14.19732
G1 X102.358 Y163.202 E14.21204
G1 X100.187 Y163.298 E14.32046
G1 X99.887 Y163.298 E14.33542
G1 X97.715 Y163.202 E14.44389
G1 X97.422 Y163.176 E14.45857
G1 X95.269 Y162.893 E14.56691
G1 X94.977 Y162.842 E14.58169
G1 X92.868 Y162.375 E14.68946
G1 X92.582 Y162.298 E14.70424
G1 X90.505 Y161.644 E14.81287
G1 X90.224 Y161.542 E14.82779
G1 X88.226 Y160.714 E14.93569
G1 X87.957 Y160.589 E14.95049
G1 X86.035 Y159.588 E15.0586
G1 X85.78 Y159.44 E15.07331
G1 X83.943 Y158.27 E15.18197
G1 X83.699 Y158.099 E15.19684
G1 X81.976 Y156.777 E15.30518
G1 X81.749 Y156.587 E15.31995
G1 X80.15 Y155.122 E15.42815
G1 X79.889 Y154.854 E15.44681
G1 X77.755 Y152.416 E15.60846
G1 X77.531 Y152.132 E15.6265
G1 X76.28 Y150.352 E15.73504
G1 X76.081 Y150.033 E15.7538
G1 X74.509 Y147.168 E15.91684
G1 X74.348 Y146.832 E15.93543
G1 X73.519 Y144.829 E16.04358
G1 X73.417 Y144.548 E16.05849
G1 X72.767 Y142.48 E16.16664
G1 X72.691 Y142.196 E16.18131
G1 X72.224 Y140.086 E16.28913
G1 X72.173 Y139.794 E16.30391
G1 X71.889 Y137.634 E16.41261
G1 X71.863 Y137.341 E16.42728
G1 X71.768 Y135.184 E16.535
G1 X71.768 Y134.885 E16.54992
G1 X71.863 Y132.718 E16.65813
G1 X71.889 Y132.424 E16.67286
G1 X72.173 Y130.265 E16.7815
G1 X72.225 Y129.971 E16.79639
G1 X72.693 Y127.862 E16.90417
G1 X72.769 Y127.577 E16.91889
G1 X73.422 Y125.505 E17.02727
G1 X73.523 Y125.227 E17.04203
G1 X74.352 Y123.224 E17.15018
G1 X74.479 Y122.953 E17.16511
G1 X75.482 Y121.028 E17.2734
G1 X75.628 Y120.774 E17.28802
G1 X76.792 Y118.944 E17.39622
G1 X76.964 Y118.698 E17.4112
G1 X78.283 Y116.98 E17.51926
G1 X78.472 Y116.756 E17.53388
G1 X79.936 Y115.156 E17.64207
G1 X80.203 Y114.894 E17.66074
G1 X82.658 Y112.742 E17.82361
G1 X82.948 Y112.515 E17.84199
G0 F3600 X83.177 Y112.842
G1 F1500 X84.949 Y111.6 E17.94995
G1 X85.173 Y111.458 E17.96318
G1 X87.052 Y110.375 E18.07138
G1 X87.28 Y110.256 E18.08421
G1 X89.248 Y109.336 E18.19259
G1 X89.495 Y109.234 E18.20592
G1 X91.526 Y108.497 E18.31371
G1 X91.771 Y108.42 E18.32653
G1 X93.874 Y107.855 E18.43517
G1 X94.131 Y107.798 E18.4483
G1 X96.269 Y107.421 E18.55661
G1 X96.529 Y107.386 E18.5697
G1 X98.692 Y107.197 E18.67802
G1 X98.953 Y107.186 E18.69106
G1 X101.113 Y107.186 E18.79882
G1 X101.373 Y107.197 E18.8118
G1 X103.537 Y107.385 E18.92017
G1 X103.863 Y107.432 E18.9366
G1 X107.054 Y108.067 E19.09892
G1 X107.369 Y108.147 E19.11514
G1 X109.447 Y108.801 E19.22382
G1 X109.696 Y108.892 E19.23705
G1 X111.7 Y109.724 E19.3453
G1 X111.936 Y109.834 E19.35829
G1 X113.856 Y110.834 E19.4663
G1 X114.081 Y110.964 E19.47926
G1 X115.907 Y112.126 E19.58724
G1 X116.123 Y112.277 E19.60039
G1 X117.845 Y113.599 E19.7087
G1 X118.044 Y113.766 E19.72166
G1 X119.644 Y115.231 E19.82989
G1 X119.83 Y115.417 E19.84302
G1 X121.296 Y117.017 E19.95128
G1 X121.463 Y117.216 E19.96424
G1 X122.785 Y118.936 E20.07247
G1 X122.971 Y119.209 E20.08895
G1 X124.656 Y121.988 E20.25109
G1 X124.809 Y122.274 E20.26727
G1 X125.73 Y124.247 E20.3759
G1 X125.831 Y124.491 E20.38908
G1 X126.569 Y126.521 E20.49684
G1 X126.647 Y126.767 E20.50971
G1 X127.21 Y128.862 E20.61794
G1 X127.267 Y129.119 E20.63108
G1 X127.645 Y131.26 E20.73954
G1 X127.68 Y131.52 E20.75263
G1 X127.87 Y133.686 E20.86111
G1 X127.881 Y133.948 E20.87419
G1 X127.881 Y136.109 E20.982
G1 X127.87 Y136.369 E20.99499
G1 X127.682 Y138.53 E21.10321
G1 X127.648 Y138.79 E21.11629
G1 X127.272 Y140.927 E21.22454
G1 X127.214 Y141.185 E21.23774
G1 X126.649 Y143.29 E21.34647
G1 X126.571 Y143.537 E21.35939
G1 X125.832 Y145.569 E21.46727
G1 X125.732 Y145.812 E21.48038
G1 X124.816 Y147.777 E21.58854
G1 X124.695 Y148.009 E21.60159
G1 X123.606 Y149.896 E21.71029
G1 X123.427 Y150.17 E21.72662
G1 X121.506 Y152.789 E21.88866
G1 X121.3 Y153.041 E21.9049
G1 X119.835 Y154.641 E22.01313
G1 X119.649 Y154.827 E22.02625
G1 X118.05 Y156.292 E22.13445
G1 X117.849 Y156.46 E22.14752
G1 X116.125 Y157.783 E22.25593
G1 X115.91 Y157.934 E22.26904
G1 X114.073 Y159.103 E22.37767
G1 X113.848 Y159.233 E22.39064
G1 X111.932 Y160.231 E22.49842
G1 X111.696 Y160.341 E22.51141
G1 X109.697 Y161.171 E22.61939
G1 X109.448 Y161.261 E22.6326
G1 X107.371 Y161.915 E22.74124
G1 X107.119 Y161.983 E22.75426
G1 X105.007 Y162.451 E22.86219
G1 X104.75 Y162.496 E22.8752
G1 X102.6 Y162.779 E22.98339
G1 X102.341 Y162.802 E22.99636
G1 X100.17 Y162.898 E23.10478
G1 X99.905 Y162.898 E23.118
G1 X97.733 Y162.802 E23.22647
G1 X97.474 Y162.779 E23.23944
G1 X95.321 Y162.496 E23.34778
G1 X95.063 Y162.451 E23.36085
G1 X92.954 Y161.984 E23.46861
G1 X92.702 Y161.916 E23.48164
G1 X90.625 Y161.262 E23.59027
G1 X90.377 Y161.172 E23.60343
G1 X88.379 Y160.344 E23.71134
G1 X88.142 Y160.234 E23.72437
G1 X86.22 Y159.233 E23.83249
G1 X85.994 Y159.102 E23.84552
G1 X84.157 Y157.932 E23.95418
G1 X83.943 Y157.782 E23.96721
G1 X82.22 Y156.46 E24.07556
G1 X82.019 Y156.292 E24.08863
G1 X80.42 Y154.827 E24.19683
G1 X80.19 Y154.591 E24.21327
G1 X78.056 Y152.153 E24.37491
G1 X77.859 Y151.902 E24.39083
G1 X76.608 Y150.122 E24.49937
G1 X76.432 Y149.84 E24.51596
G1 X74.86 Y146.975 E24.679
G1 X74.718 Y146.679 E24.69538
G1 X73.889 Y144.676 E24.80353
G1 X73.799 Y144.429 E24.81664
G1 X73.149 Y142.361 E24.92479
G1 X73.082 Y142.109 E24.9378
G1 X72.615 Y139.999 E25.04562
G1 X72.57 Y139.742 E25.05863
G1 X72.286 Y137.582 E25.16732
G1 X72.263 Y137.323 E25.1803
G1 X72.168 Y135.166 E25.28801
G1 X72.168 Y134.903 E25.30113
G1 X72.263 Y132.736 E25.40935
G1 X72.286 Y132.476 E25.42237
G1 X72.57 Y130.317 E25.53101
G1 X72.615 Y130.058 E25.54413
G1 X73.083 Y127.949 E25.65191
G1 X73.151 Y127.697 E25.66493
G1 X73.804 Y125.625 E25.77331
G1 X73.893 Y125.38 E25.78632
G1 X74.722 Y123.377 E25.89447
G1 X74.833 Y123.138 E25.90762
G1 X75.836 Y121.213 E26.01591
G1 X75.966 Y120.989 E26.02883
G1 X77.13 Y119.159 E26.13703
G1 X77.281 Y118.942 E26.15022
G1 X78.6 Y117.224 E26.25828
G1 X78.767 Y117.026 E26.2712
G1 X80.231 Y115.426 E26.3794
G1 X80.466 Y115.195 E26.39584
G1 X82.921 Y113.043 E26.55872
G1 X83.177 Y112.842 E26.57496
G0 F3600 X83.407 Y113.17
G1 F1500 X85.179 Y111.928 E26.68291
G1 X85.373 Y111.804 E26.6944
G1 X87.252 Y110.721 E26.8026
G1 X87.449 Y110.619 E26.81367
G1 X89.417 Y109.699 E26.92205
G1 X89.631 Y109.61 E26.93361
G1 X91.662 Y108.873 E27.04141
G1 X91.874 Y108.806 E27.0525
G1 X93.977 Y108.241 E27.16114
G1 X94.2 Y108.192 E27.17253
G1 X96.338 Y107.815 E27.28084
G1 X96.564 Y107.785 E27.29221
G1 X98.727 Y107.596 E27.40054
G1 X98.953 Y107.586 E27.41182
G1 X101.113 Y107.586 E27.51959
G1 X101.338 Y107.596 E27.53082
G1 X103.502 Y107.784 E27.63919
G1 X103.784 Y107.824 E27.6534
G1 X106.975 Y108.459 E27.81572
G1 X107.249 Y108.529 E27.82983
G1 X109.327 Y109.183 E27.93852
G1 X109.543 Y109.262 E27.94999
G1 X111.547 Y110.094 E28.05825
G1 X111.751 Y110.189 E28.06947
G1 X113.671 Y111.189 E28.17748
G1 X113.866 Y111.301 E28.18869
G1 X115.692 Y112.463 E28.29668
G1 X115.879 Y112.595 E28.3081
G1 X117.601 Y113.917 E28.4164
G1 X117.774 Y114.061 E28.42763
G1 X119.374 Y115.526 E28.53586
G1 X119.535 Y115.688 E28.54726
G1 X121.001 Y117.288 E28.65552
G1 X121.145 Y117.46 E28.66672
G1 X122.467 Y119.18 E28.77494
G1 X122.629 Y119.416 E28.78923
G1 X124.314 Y122.195 E28.95137
G1 X124.447 Y122.443 E28.96541
G1 X125.368 Y124.416 E29.07403
G1 X125.456 Y124.628 E29.08549
G1 X126.194 Y126.658 E29.19325
G1 X126.261 Y126.871 E29.20439
G1 X126.824 Y128.966 E29.31262
G1 X126.873 Y129.189 E29.32401
G1 X127.251 Y131.33 E29.43248
G1 X127.281 Y131.555 E29.4438
G1 X127.471 Y133.721 E29.55228
G1 X127.481 Y133.948 E29.56361
G1 X127.481 Y136.109 E29.67143
G1 X127.471 Y136.334 E29.68266
G1 X127.283 Y138.495 E29.79088
G1 X127.254 Y138.721 E29.80225
G1 X126.878 Y140.858 E29.9105
G1 X126.828 Y141.081 E29.9219
G1 X126.263 Y143.186 E30.03064
G1 X126.195 Y143.401 E30.04189
G1 X125.456 Y145.433 E30.14976
G1 X125.37 Y145.643 E30.16108
G1 X124.454 Y147.608 E30.26925
G1 X124.349 Y147.809 E30.28056
G1 X123.26 Y149.696 E30.38926
G1 X123.105 Y149.934 E30.40343
G1 X121.184 Y152.553 E30.56547
G1 X121.005 Y152.771 E30.57954
G1 X119.54 Y154.371 E30.68777
G1 X119.378 Y154.532 E30.69917
G1 X117.779 Y155.997 E30.80736
G1 X117.606 Y156.143 E30.81866
G1 X115.882 Y157.466 E30.92707
G1 X115.695 Y157.597 E30.93846
G1 X113.858 Y158.766 E31.0471
G1 X113.663 Y158.878 E31.05832
G1 X111.747 Y159.876 E31.16609
G1 X111.543 Y159.971 E31.17732
G1 X109.544 Y160.801 E31.28531
G1 X109.328 Y160.88 E31.29678
G1 X107.251 Y161.534 E31.40542
G1 X107.032 Y161.592 E31.41672
G1 X104.92 Y162.06 E31.52465
G1 X104.697 Y162.1 E31.53595
G1 X102.547 Y162.383 E31.64414
G1 X102.323 Y162.402 E31.65535
G1 X100.152 Y162.498 E31.76377
G1 X99.922 Y162.498 E31.77525
G1 X97.75 Y162.402 E31.88371
G1 X97.526 Y162.383 E31.89493
G1 X95.373 Y162.1 E32.00327
G1 X95.15 Y162.061 E32.01456
G1 X93.041 Y161.594 E32.12233
G1 X92.822 Y161.535 E32.13364
G1 X90.745 Y160.881 E32.24228
G1 X90.531 Y160.803 E32.25364
G1 X88.533 Y159.975 E32.36155
G1 X88.327 Y159.879 E32.37288
G1 X86.405 Y158.878 E32.481
G1 X86.209 Y158.765 E32.49229
G1 X84.372 Y157.595 E32.60094
