;FLAVOR:Marlin
;TIME:3858
;Filament used: 3.33341m
;Layer height: 0.2
;Generated with Cura_SteamEngine 2.7.0
M190 S65
M104 S210
M109 S210
G21 ;metric values
G90 ;absolute positioning
M82 ;set extruder to absolute mode
M107 ;start with the fan off
G28 X0 Y0 ;move X/Y to min endstops
G28 Z0 ;move Z to min endstops
G1 Z15.0 F9000 ;move the platform down 15mm
G92 E0 ;zero the extruded length
G1 F200 E3 ;extrude 3mm of feed stock
G92 E0 ;zero the extruded length again
G1 F9000
;Put printing message on LCD screen
M117 Printing...
;LAYER_COUNT:82
;LAYER:0
M107
G0 F3600 X75.77 Y100.799 Z0.3
;TYPE:SKIRT
G1 F1500 X76.041 Y100.608 E0.01654
G1 X78.837 Y98.818 E0.18217
G1 X79.126 Y98.65 E0.19885
G1 X82.067 Y97.113 E0.3644
G1 X82.288 Y97.006 E0.37665
G1 X83.819 Y96.328 E0.46019
G1 X84.051 Y96.235 E0.47266
G1 X87.166 Y95.094 E0.63817
G1 X87.483 Y94.993 E0.65477
G1 X90.696 Y94.126 E0.8208
G1 X91.02 Y94.054 E0.83735
G1 X94.295 Y93.471 E1.00331
G1 X94.624 Y93.427 E1.01987
G1 X98.007 Y93.126 E1.18932
G1 X98.344 Y93.111 E1.20615
G1 X101.66 Y93.111 E1.37158
G1 X101.91 Y93.119 E1.38406
G1 X103.577 Y93.229 E1.46741
G1 X103.823 Y93.254 E1.47975
G1 X107.117 Y93.688 E1.64551
G1 X107.443 Y93.745 E1.66202
G1 X110.679 Y94.462 E1.82738
G1 X110.999 Y94.548 E1.84391
G1 X114.178 Y95.55 E2.0102
G1 X114.492 Y95.664 E2.02687
G1 X117.563 Y96.938 E2.19274
G1 X117.86 Y97.077 E2.2091
G1 X120.804 Y98.608 E2.37465
G1 X121.093 Y98.774 E2.39128
G1 X123.895 Y100.559 E2.55703
G1 X124.168 Y100.75 E2.57365
G1 X126.802 Y102.773 E2.73935
G1 X127.053 Y102.984 E2.75571
G1 X129.505 Y105.229 E2.92157
G1 X129.741 Y105.465 E2.93822
G1 X131.986 Y107.916 E3.10404
G1 X132.198 Y108.169 E3.12051
G1 X134.224 Y110.808 E3.28649
G1 X134.415 Y111.081 E3.30312
G1 X136.204 Y113.891 E3.46931
G1 X136.369 Y114.176 E3.48574
G1 X137.901 Y117.117 E3.65118
G1 X138.042 Y117.418 E3.66776
G1 X139.314 Y120.488 E3.83355
G1 X139.427 Y120.801 E3.85015
G1 X140.426 Y123.971 E4.01597
G1 X140.512 Y124.292 E4.03255
G1 X141.23 Y127.537 E4.19836
G1 X141.287 Y127.862 E4.21482
G1 X141.721 Y131.157 E4.38063
G1 X141.75 Y131.488 E4.39721
G1 X141.896 Y134.844 E4.5648
G1 X141.896 Y135.177 E4.58141
G1 X141.751 Y138.461 E4.74541
G1 X141.722 Y138.789 E4.76184
G1 X141.287 Y142.092 E4.92805
G1 X141.23 Y142.418 E4.94456
G1 X140.513 Y145.654 E5.10992
G1 X140.427 Y145.974 E5.12645
G1 X139.427 Y149.147 E5.29243
G1 X139.313 Y149.461 E5.30909
G1 X138.036 Y152.54 E5.47539
G1 X137.898 Y152.837 E5.49173
G1 X136.37 Y155.776 E5.65699
G1 X136.203 Y156.065 E5.67364
G1 X134.416 Y158.869 E5.83953
G1 X134.225 Y159.141 E5.85611
G1 X132.201 Y161.777 E6.02192
G1 X131.99 Y162.029 E6.03832
G1 X129.746 Y164.48 E6.20411
G1 X129.51 Y164.716 E6.22076
G1 X127.059 Y166.961 E6.38658
G1 X126.806 Y167.173 E6.40305
G1 X124.167 Y169.199 E6.56903
G1 X123.894 Y169.39 E6.58566
G1 X121.084 Y171.179 E6.75185
G1 X120.798 Y171.344 E6.76832
G1 X117.858 Y172.875 E6.93369
G1 X117.558 Y173.015 E6.95021
G1 X114.487 Y174.288 E7.11607
G1 X114.174 Y174.402 E7.13268
G1 X110.997 Y175.403 E7.29887
G1 X110.676 Y175.489 E7.31545
G1 X107.441 Y176.205 E7.48075
G1 X107.116 Y176.262 E7.49721
G1 X103.819 Y176.696 E7.66312
G1 X103.49 Y176.725 E7.67959
G1 X100.165 Y176.871 E7.84564
G1 X99.831 Y176.871 E7.8623
G1 X96.506 Y176.725 E8.02835
G1 X96.177 Y176.696 E8.04482
G1 X92.883 Y176.262 E8.21058
G1 X92.557 Y176.205 E8.22709
G1 X89.32 Y175.488 E8.3925
G1 X88.999 Y175.402 E8.40908
G1 X85.821 Y174.4 E8.57533
G1 X85.508 Y174.286 E8.59195
G1 X82.435 Y173.011 E8.75793
G1 X82.138 Y172.872 E8.77429
G1 X79.196 Y171.342 E8.93973
G1 X78.907 Y171.176 E8.95636
G1 X76.098 Y169.386 E9.12253
G1 X75.824 Y169.194 E9.13923
G1 X73.189 Y167.169 E9.30502
G1 X72.938 Y166.958 E9.32138
G1 X70.487 Y164.713 E9.48721
G1 X70.252 Y164.478 E9.50379
G1 X68.007 Y162.027 E9.66961
G1 X67.794 Y161.773 E9.68615
G1 X65.773 Y159.138 E9.85182
G1 X65.583 Y158.866 E9.86838
G1 X63.798 Y156.063 E10.03417
G1 X63.632 Y155.776 E10.05071
G1 X62.102 Y152.836 E10.21606
G1 X61.963 Y152.537 E10.23251
G1 X60.687 Y149.458 E10.39879
G1 X60.573 Y149.146 E10.41536
G1 X59.573 Y145.976 E10.58119
G1 X59.487 Y145.655 E10.59777
G1 X58.77 Y142.418 E10.76318
G1 X58.713 Y142.092 E10.77969
G1 X58.278 Y138.791 E10.94581
G1 X58.249 Y138.461 E10.96233
G1 X58.104 Y135.147 E11.12783
G1 X58.103 Y134.819 E11.14419
G1 X58.242 Y131.571 E11.30638
G1 X58.271 Y131.244 E11.32276
G1 X58.7 Y127.94 E11.48898
G1 X58.756 Y127.615 E11.50543
G1 X59.466 Y124.378 E11.67077
G1 X59.551 Y124.058 E11.68729
G1 X60.543 Y120.886 E11.8531
G1 X60.657 Y120.571 E11.86981
G1 X61.927 Y117.493 E12.03593
G1 X62.065 Y117.195 E12.05231
G1 X63.594 Y114.241 E12.21826
G1 X63.761 Y113.952 E12.23491
G1 X65.538 Y111.152 E12.40036
G1 X65.726 Y110.881 E12.41682
G1 X67.743 Y108.241 E12.58257
G1 X67.955 Y107.987 E12.59908
G1 X70.196 Y105.53 E12.76499
G1 X70.433 Y105.293 E12.78171
G1 X72.882 Y103.043 E12.94763
G1 X73.133 Y102.832 E12.96399
G1 X75.77 Y100.799 E13.13011
G0 F3600 X76.014 Y101.115
G1 F1500 X76.257 Y100.945 E13.1449
G1 X79.053 Y99.155 E13.31053
G1 X79.311 Y99.005 E13.32542
G1 X82.252 Y97.468 E13.49098
G1 X82.45 Y97.372 E13.50195
G1 X83.981 Y96.694 E13.58549
G1 X84.189 Y96.61 E13.59668
G1 X87.304 Y95.469 E13.76219
G1 X87.587 Y95.379 E13.777
G1 X90.8 Y94.512 E13.94303
G1 X91.09 Y94.448 E13.95785
G1 X94.365 Y93.865 E14.12381
G1 X94.66 Y93.825 E14.13866
G1 X98.043 Y93.524 E14.30811
G1 X98.344 Y93.511 E14.32314
G1 X101.66 Y93.511 E14.48857
G1 X101.884 Y93.518 E14.49975
G1 X103.551 Y93.628 E14.5831
G1 X103.771 Y93.65 E14.59413
G1 X107.065 Y94.084 E14.75989
G1 X107.356 Y94.136 E14.77464
G1 X110.592 Y94.853 E14.94
G1 X110.879 Y94.929 E14.95481
G1 X114.058 Y95.931 E15.1211
G1 X114.339 Y96.034 E15.13604
G1 X117.41 Y97.308 E15.30191
G1 X117.676 Y97.432 E15.31655
G1 X120.62 Y98.963 E15.4821
G1 X120.878 Y99.111 E15.49694
G1 X123.68 Y100.896 E15.66269
G1 X123.924 Y101.068 E15.67758
G1 X126.558 Y103.091 E15.84328
G1 X126.783 Y103.279 E15.85791
G1 X129.235 Y105.524 E16.02377
G1 X129.446 Y105.736 E16.03869
G1 X131.691 Y108.187 E16.20451
G1 X131.881 Y108.413 E16.21924
G1 X133.907 Y111.052 E16.38523
G1 X134.078 Y111.296 E16.40009
G1 X135.867 Y114.106 E16.56629
G1 X136.014 Y114.361 E16.58097
G1 X137.546 Y117.302 E16.74641
G1 X137.672 Y117.572 E16.76128
G1 X138.944 Y120.642 E16.92707
G1 X139.046 Y120.921 E16.94189
G1 X140.045 Y124.091 E17.10771
G1 X140.122 Y124.378 E17.12253
G1 X140.84 Y127.623 E17.28834
G1 X140.891 Y127.914 E17.30308
G1 X141.325 Y131.209 E17.46889
G1 X141.351 Y131.505 E17.48371
G1 X141.497 Y134.861 E17.6513
G1 X141.497 Y135.159 E17.66617
G1 X141.352 Y138.443 E17.83017
G1 X141.326 Y138.737 E17.84489
G1 X140.891 Y142.04 E18.0111
G1 X140.839 Y142.331 E18.02585
G1 X140.122 Y145.567 E18.19121
G1 X140.046 Y145.854 E18.20602
G1 X139.046 Y149.027 E18.372
G1 X138.944 Y149.308 E18.38691
G1 X137.667 Y152.387 E18.55321
G1 X137.543 Y152.652 E18.56781
G1 X136.015 Y155.591 E18.73307
G1 X135.865 Y155.85 E18.748
G1 X134.078 Y158.654 E18.91389
G1 X133.908 Y158.898 E18.92873
G1 X131.884 Y161.534 E19.09453
G1 X131.695 Y161.759 E19.10919
G1 X129.451 Y164.21 E19.27498
G1 X129.239 Y164.421 E19.2899
G1 X126.788 Y166.666 E19.45573
G1 X126.562 Y166.856 E19.47046
G1 X123.923 Y168.882 E19.63644
G1 X123.679 Y169.053 E19.65131
G1 X120.869 Y170.842 E19.8175
G1 X120.613 Y170.99 E19.83225
G1 X117.673 Y172.521 E19.99763
G1 X117.405 Y172.646 E20.01238
G1 X114.334 Y173.919 E20.17823
G1 X114.054 Y174.021 E20.1931
G1 X110.877 Y175.022 E20.35928
G1 X110.59 Y175.099 E20.37411
G1 X107.355 Y175.815 E20.53941
G1 X107.064 Y175.866 E20.55415
G1 X103.767 Y176.3 E20.72006
G1 X103.472 Y176.326 E20.73483
G1 X100.147 Y176.472 E20.90088
G1 X99.849 Y176.472 E20.91574
G1 X96.524 Y176.326 E21.08179
G1 X96.229 Y176.3 E21.09656
G1 X92.935 Y175.866 E21.26232
G1 X92.644 Y175.815 E21.27706
G1 X89.407 Y175.098 E21.44247
G1 X89.12 Y175.021 E21.45729
G1 X85.942 Y174.019 E21.62354
G1 X85.661 Y173.916 E21.63847
G1 X82.588 Y172.641 E21.80445
G1 X82.322 Y172.517 E21.8191
G1 X79.38 Y170.987 E21.98454
G1 X79.122 Y170.838 E21.9994
G1 X76.313 Y169.048 E22.16558
G1 X76.068 Y168.877 E22.18048
G1 X73.433 Y166.852 E22.34628
G1 X73.209 Y166.663 E22.3609
G1 X70.758 Y164.418 E22.52672
G1 X70.547 Y164.207 E22.54161
G1 X68.302 Y161.756 E22.70744
G1 X68.111 Y161.529 E22.72224
G1 X66.09 Y158.894 E22.88791
G1 X65.92 Y158.651 E22.90271
G1 X64.135 Y155.848 E23.0685
G1 X63.987 Y155.592 E23.08325
G1 X62.457 Y152.652 E23.2486
G1 X62.332 Y152.384 E23.26335
G1 X61.056 Y149.305 E23.42963
G1 X60.955 Y149.026 E23.44444
G1 X59.955 Y145.856 E23.61027
G1 X59.877 Y145.568 E23.62516
G1 X59.16 Y142.331 E23.79057
G1 X59.109 Y142.04 E23.80531
G1 X58.674 Y138.739 E23.97142
G1 X58.648 Y138.444 E23.98619
G1 X58.503 Y135.13 E24.15169
G1 X58.503 Y134.836 E24.16635
G1 X58.642 Y131.588 E24.32855
G1 X58.667 Y131.295 E24.34322
G1 X59.096 Y127.991 E24.50944
G1 X59.147 Y127.701 E24.52413
G1 X59.857 Y124.464 E24.68946
G1 X59.933 Y124.177 E24.70427
G1 X60.925 Y121.005 E24.87008
G1 X61.027 Y120.723 E24.88504
G1 X62.297 Y117.645 E25.05116
G1 X62.421 Y117.379 E25.06581
G1 X63.95 Y114.425 E25.23175
G1 X64.098 Y114.166 E25.24664
G1 X65.875 Y111.366 E25.41209
G1 X66.044 Y111.124 E25.42681
G1 X68.061 Y108.484 E25.59256
G1 X68.251 Y108.257 E25.60733
G1 X70.492 Y105.8 E25.77324
G1 X70.704 Y105.587 E25.78824
G1 X73.153 Y103.337 E25.95415
G1 X73.377 Y103.148 E25.96878
G1 X76.014 Y101.115 E26.13489
G0 F3600 X76.258 Y101.432
G1 F1500 X76.472 Y101.281 E26.14796
G1 X79.268 Y99.491 E26.31359
G1 X79.496 Y99.359 E26.32674
G1 X82.437 Y97.822 E26.49229
G1 X82.612 Y97.738 E26.50198
G1 X84.143 Y97.06 E26.58551
G1 X84.326 Y96.986 E26.59536
G1 X87.441 Y95.845 E26.76087
G1 X87.691 Y95.766 E26.77395
G1 X90.904 Y94.899 E26.93998
G1 X91.16 Y94.841 E26.95307
G1 X94.435 Y94.258 E27.11903
G1 X94.695 Y94.224 E27.13211
G1 X98.078 Y93.923 E27.30156
G1 X98.344 Y93.911 E27.31484
G1 X101.66 Y93.911 E27.48028
G1 X101.858 Y93.918 E27.49016
G1 X103.525 Y94.028 E27.57351
G1 X103.719 Y94.047 E27.58324
G1 X107.013 Y94.481 E27.749
G1 X107.27 Y94.526 E27.76201
G1 X110.506 Y95.243 E27.92737
G1 X110.759 Y95.311 E27.94044
G1 X113.938 Y96.313 E28.10674
G1 X114.186 Y96.403 E28.1199
G1 X117.257 Y97.677 E28.28577
G1 X117.491 Y97.786 E28.29865
G1 X120.435 Y99.317 E28.4642
G1 X120.663 Y99.449 E28.47734
G1 X123.465 Y101.234 E28.64309
G1 X123.68 Y101.385 E28.6562
G1 X126.314 Y103.408 E28.8219
G1 X126.513 Y103.574 E28.83483
G1 X128.965 Y105.819 E29.00069
G1 X129.151 Y106.006 E29.01384
G1 X131.396 Y108.457 E29.17967
G1 X131.564 Y108.656 E29.19266
G1 X133.59 Y111.295 E29.35865
G1 X133.741 Y111.511 E29.37179
G1 X135.53 Y114.321 E29.53799
G1 X135.66 Y114.546 E29.55095
G1 X137.192 Y117.487 E29.71639
G1 X137.303 Y117.725 E29.72949
G1 X138.575 Y120.795 E29.89528
G1 X138.664 Y121.041 E29.90833
G1 X139.663 Y124.211 E30.07415
G1 X139.731 Y124.465 E30.08727
G1 X140.449 Y127.71 E30.25308
G1 X140.494 Y127.966 E30.26605
G1 X140.928 Y131.261 E30.43186
G1 X140.951 Y131.523 E30.44498
G1 X141.097 Y134.879 E30.61257
G1 X141.097 Y135.141 E30.62564
G1 X140.952 Y138.425 E30.78964
G1 X140.929 Y138.685 E30.80266
G1 X140.494 Y141.988 E30.96887
G1 X140.449 Y142.245 E30.98189
G1 X139.732 Y145.481 E31.14725
G1 X139.664 Y145.734 E31.16032
G1 X138.664 Y148.907 E31.3263
G1 X138.574 Y149.154 E31.33941
G1 X137.297 Y152.233 E31.50571
G1 X137.188 Y152.468 E31.51863
G1 X135.66 Y155.407 E31.68389
G1 X135.528 Y155.635 E31.69704
G1 X133.741 Y158.439 E31.86292
G1 X133.59 Y158.654 E31.87603
G1 X131.566 Y161.29 E32.04184
G1 X131.4 Y161.489 E32.05477
G1 X129.156 Y163.94 E32.22056
G1 X128.969 Y164.126 E32.23372
G1 X126.518 Y166.371 E32.39954
G1 X126.319 Y166.539 E32.41253
G1 X123.68 Y168.565 E32.57852
G1 X123.464 Y168.716 E32.59167
G1 X120.654 Y170.505 E32.75786
G1 X120.429 Y170.635 E32.77082
G1 X117.489 Y172.166 E32.9362
G1 X117.252 Y172.276 E32.94923
G1 X114.181 Y173.549 E33.11509
G1 X113.934 Y173.639 E33.1282
G1 X110.757 Y174.64 E33.29438
G1 X110.503 Y174.708 E33.3075
G1 X107.268 Y175.424 E33.4728
G1 X107.012 Y175.469 E33.48577
G1 X103.715 Y175.903 E33.65168
G1 X103.455 Y175.926 E33.6647
G1 X100.13 Y176.072 E33.83074
G1 X99.866 Y176.072 E33.84391
G1 X96.541 Y175.926 E34.00996
G1 X96.281 Y175.903 E34.02298
G1 X92.987 Y175.469 E34.18874
G1 X92.73 Y175.424 E34.20176
G1 X89.493 Y174.707 E34.36717
G1 X89.24 Y174.639 E34.38024
G1 X86.062 Y173.637 E34.54648
G1 X85.814 Y173.547 E34.55964
G1 X82.741 Y172.272 E34.72563
G1 X82.507 Y172.163 E34.73851
G1 X79.565 Y170.633 E34.90395
G1 X79.337 Y170.501 E34.91709
G1 X76.528 Y168.711 E35.08327
G1 X76.312 Y168.56 E35.09642
G1 X73.677 Y166.535 E35.26221
G1 X73.479 Y166.368 E35.27513
G1 X71.028 Y164.123 E35.44096
G1 X70.842 Y163.937 E35.45408
G1 X68.597 Y161.486 E35.6199
G1 X68.429 Y161.286 E35.63294
G1 X66.408 Y158.651 E35.79861
G1 X66.258 Y158.436 E35.81169
G1 X64.473 Y155.633 E35.97748
G1 X64.342 Y155.407 E35.99051
G1 X62.812 Y152.467 E36.15586
G1 X62.702 Y152.231 E36.16885
G1 X61.426 Y149.152 E36.33513
G1 X61.336 Y148.906 E36.3482
G1 X60.336 Y145.736 E36.51404
G1 X60.268 Y145.482 E36.52716
G1 X59.551 Y142.245 E36.69256
G1 X59.506 Y141.988 E36.70558
G1 X59.071 Y138.687 E36.87169
G1 X59.048 Y138.426 E36.88476
G1 X58.903 Y135.112 E37.05026
G1 X58.903 Y134.853 E37.06318
G1 X59.042 Y131.605 E37.22537
G1 X59.064 Y131.347 E37.23829
G1 X59.493 Y128.043 E37.40451
G1 X59.538 Y127.786 E37.41753
G1 X60.248 Y124.549 E37.58286
G1 X60.315 Y124.297 E37.59587
G1 X61.307 Y121.125 E37.76168
G1 X61.397 Y120.876 E37.77489
G1 X62.667 Y117.798 E37.94101
G1 X62.776 Y117.563 E37.95393
G1 X64.305 Y114.609 E38.11988
G1 X64.436 Y114.38 E38.13304
G1 X66.213 Y111.58 E38.29849
G1 X66.362 Y111.367 E38.31146
G1 X68.379 Y108.727 E38.47721
G1 X68.546 Y108.526 E38.49025
G1 X70.787 Y106.069 E38.65616
G1 X70.974 Y105.882 E38.66935
G1 X73.423 Y103.632 E38.83527
G1 X73.621 Y103.465 E38.8482
G1 X76.258 Y101.432 E39.01432
G0 F3600 X76.503 Y101.749
G1 F1500 X76.688 Y101.618 E39.02562
G1 X79.484 Y99.828 E39.19125
G1 X79.682 Y99.714 E39.20265
G1 X82.623 Y98.177 E39.36821
G1 X82.774 Y98.104 E39.37658
G1 X84.305 Y97.426 E39.46011
G1 X84.464 Y97.362 E39.46866
G1 X87.579 Y96.221 E39.63417
G1 X87.796 Y96.152 E39.64553
G1 X91.009 Y95.285 E39.81156
G1 X91.23 Y95.235 E39.82287
G1 X94.505 Y94.652 E39.98882
G1 X94.731 Y94.622 E40.0002
G1 X98.114 Y94.321 E40.16964
G1 X98.344 Y94.311 E40.18113
G1 X101.66 Y94.311 E40.34657
G1 X101.831 Y94.317 E40.3551
G1 X103.498 Y94.427 E40.43845
G1 X103.667 Y94.443 E40.44692
G1 X106.961 Y94.877 E40.61268
G1 X107.183 Y94.917 E40.62393
G1 X110.419 Y95.634 E40.78929
G1 X110.639 Y95.692 E40.80064
G1 X113.818 Y96.694 E40.96694
G1 X114.032 Y96.772 E40.9783
G1 X117.103 Y98.046 E41.14417
G1 X117.307 Y98.141 E41.1554
G1 X120.251 Y99.672 E41.32095
G1 X120.448 Y99.786 E41.33231
G1 X123.25 Y101.571 E41.49805
G1 X123.437 Y101.702 E41.50944
G1 X126.071 Y103.725 E41.67514
G1 X126.243 Y103.869 E41.68633
G1 X128.695 Y106.114 E41.85219
G1 X128.856 Y106.276 E41.86359
G1 X131.101 Y108.727 E42.02941
G1 X131.246 Y108.9 E42.04067
G1 X133.272 Y111.539 E42.20666
G1 X133.403 Y111.726 E42.21805
G1 X135.192 Y114.536 E42.38424
G1 X135.305 Y114.731 E42.39548
G1 X136.837 Y117.672 E42.56093
G1 X136.933 Y117.878 E42.57226
G1 X138.205 Y120.948 E42.73805
G1 X138.283 Y121.162 E42.74942
G1 X139.282 Y124.332 E42.91524
G1 X139.341 Y124.551 E42.92655
G1 X140.059 Y127.796 E43.09236
G1 X140.098 Y128.018 E43.10361
G1 X140.532 Y131.313 E43.26941
G1 X140.552 Y131.54 E43.28078
G1 X140.698 Y134.896 E43.44837
G1 X140.697 Y135.124 E43.45975
G1 X140.552 Y138.408 E43.62375
G1 X140.533 Y138.632 E43.63496
G1 X140.098 Y141.935 E43.80117
G1 X140.058 Y142.158 E43.81248
