;FLAVOR:Marlin
;TIME:3702
;Filament used: 3.26214m
;Layer height: 0.2
;Generated with Cura_SteamEngine 2.7.0
M190 S65
M104 S210
M109 S210
G21 ;metric values
G90 ;absolute positioning
M82 ;set extruder to absolute mode
M107 ;start with the fan off
G28 X0 Y0 ;move X/Y to min endstops
G28 Z0 ;move Z to min endstops
G1 Z15.0 F9000 ;move the platform down 15mm
G92 E0 ;zero the extruded length
G1 F200 E3 ;extrude 3mm of feed stock
G92 E0 ;zero the extruded length again
G1 F9000
;Put printing message on LCD screen
M117 Printing...
;LAYER_COUNT:82
;LAYER:0
M107
G0 F3600 X74.632 Y101.631 Z0.3
;TYPE:SKIRT
G1 F1500 X77.348 Y99.73 E0.1654
G1 X77.628 Y99.552 E0.18195
G1 X80.515 Y97.886 E0.34824
G1 X80.808 Y97.733 E0.36473
G1 X83.82 Y96.328 E0.53055
G1 X84.127 Y96.201 E0.54712
G1 X87.242 Y95.068 E0.71249
G1 X87.558 Y94.968 E0.72903
G1 X90.772 Y94.107 E0.89503
G1 X91.095 Y94.036 E0.91153
G1 X94.371 Y93.458 E1.07749
G1 X94.701 Y93.414 E1.0941
G1 X98.014 Y93.125 E1.26002
G1 X98.344 Y93.111 E1.27649
G1 X101.66 Y93.111 E1.44193
G1 X101.91 Y93.119 E1.45441
G1 X103.577 Y93.229 E1.53776
G1 X103.823 Y93.254 E1.55009
G1 X107.117 Y93.688 E1.71585
G1 X107.443 Y93.745 E1.73236
G1 X110.679 Y94.462 E1.89772
G1 X110.999 Y94.548 E1.91425
G1 X114.178 Y95.55 E2.08055
G1 X114.492 Y95.664 E2.09721
G1 X117.563 Y96.938 E2.26309
G1 X117.86 Y97.077 E2.27945
G1 X120.804 Y98.608 E2.445
G1 X121.093 Y98.774 E2.46162
G1 X123.895 Y100.559 E2.62737
G1 X124.168 Y100.75 E2.644
G1 X126.802 Y102.773 E2.80969
G1 X127.053 Y102.984 E2.82605
G1 X129.505 Y105.229 E2.99191
G1 X129.741 Y105.465 E3.00856
G1 X131.986 Y107.916 E3.17439
G1 X132.198 Y108.169 E3.19085
G1 X134.224 Y110.808 E3.35684
G1 X134.415 Y111.081 E3.37346
G1 X136.204 Y113.891 E3.53965
G1 X136.369 Y114.176 E3.55608
G1 X137.901 Y117.117 E3.72152
G1 X138.042 Y117.418 E3.73811
G1 X139.314 Y120.488 E3.9039
G1 X139.427 Y120.801 E3.9205
G1 X140.426 Y123.971 E4.08632
G1 X140.512 Y124.292 E4.1029
G1 X141.23 Y127.537 E4.26871
G1 X141.287 Y127.862 E4.28517
G1 X141.721 Y131.157 E4.45098
G1 X141.75 Y131.486 E4.46745
G1 X141.896 Y134.806 E4.63325
G1 X141.897 Y135.136 E4.64971
G1 X141.758 Y138.383 E4.81186
G1 X141.729 Y138.71 E4.82823
G1 X141.3 Y142.012 E4.99436
G1 X141.244 Y142.336 E5.01076
G1 X140.533 Y145.577 E5.1763
G1 X140.447 Y145.9 E5.19297
G1 X139.453 Y149.071 E5.35877
G1 X139.341 Y149.381 E5.37521
G1 X138.076 Y152.453 E5.54096
G1 X137.936 Y152.754 E5.55752
G1 X136.401 Y155.716 E5.72396
G1 X136.235 Y156.004 E5.74055
G1 X134.46 Y158.801 E5.90582
G1 X134.27 Y159.074 E5.92241
G1 X132.25 Y161.715 E6.08829
G1 X132.04 Y161.966 E6.10462
G1 X129.801 Y164.422 E6.27042
G1 X129.564 Y164.66 E6.28718
G1 X127.117 Y166.908 E6.45296
G1 X126.866 Y167.12 E6.46935
G1 X124.227 Y169.154 E6.63558
G1 X123.955 Y169.345 E6.65216
G1 X121.155 Y171.136 E6.81799
G1 X120.868 Y171.303 E6.83455
G1 X117.93 Y172.839 E6.99995
G1 X117.631 Y172.979 E7.01642
G1 X114.567 Y174.256 E7.18203
G1 X114.256 Y174.369 E7.19854
G1 X111.082 Y175.378 E7.3647
G1 X110.759 Y175.466 E7.3814
G1 X107.52 Y176.189 E7.54697
G1 X107.195 Y176.247 E7.56344
G1 X103.83 Y176.696 E7.73281
G1 X103.494 Y176.725 E7.74964
G1 X100.169 Y176.871 E7.91568
G1 X99.835 Y176.871 E7.93235
G1 X96.51 Y176.725 E8.09839
G1 X96.181 Y176.696 E8.11487
G1 X92.884 Y176.262 E8.28078
G1 X92.559 Y176.205 E8.29724
G1 X89.323 Y175.489 E8.46259
G1 X89.001 Y175.403 E8.47921
G1 X85.823 Y174.401 E8.64546
G1 X85.51 Y174.287 E8.66208
G1 X82.437 Y173.012 E8.82806
G1 X82.14 Y172.873 E8.84442
G1 X79.202 Y171.345 E9.00964
G1 X78.913 Y171.178 E9.02629
G1 X76.103 Y169.387 E9.19254
G1 X75.832 Y169.198 E9.20902
G1 X73.194 Y167.174 E9.37491
G1 X72.94 Y166.961 E9.39144
G1 X70.49 Y164.716 E9.55723
G1 X70.255 Y164.481 E9.57381
G1 X68.01 Y162.03 E9.73963
G1 X67.849 Y161.842 E9.75198
G1 X66.806 Y160.543 E9.8351
G1 X66.656 Y160.343 E9.84757
G1 X64.755 Y157.627 E10.01296
G1 X64.577 Y157.347 E10.02952
G1 X62.911 Y154.46 E10.19581
G1 X62.758 Y154.167 E10.2123
G1 X61.353 Y151.155 E10.37812
G1 X61.226 Y150.848 E10.39469
G1 X60.093 Y147.733 E10.56006
G1 X59.993 Y147.417 E10.5766
G1 X59.131 Y144.198 E10.74285
G1 X59.06 Y143.875 E10.75935
G1 X58.483 Y140.601 E10.92521
G1 X58.439 Y140.272 E10.94177
G1 X58.15 Y136.962 E11.10753
G1 X58.136 Y136.631 E11.12406
G1 X58.136 Y133.315 E11.2895
G1 X58.151 Y132.983 E11.30608
G1 X58.441 Y129.674 E11.4718
G1 X58.483 Y129.348 E11.4882
G1 X59.059 Y126.074 E11.65404
G1 X59.132 Y125.748 E11.67071
G1 X59.995 Y122.528 E11.83703
G1 X60.094 Y122.212 E11.85355
G1 X61.229 Y119.095 E12.01905
G1 X61.356 Y118.789 E12.03557
G1 X62.76 Y115.778 E12.20132
G1 X62.913 Y115.484 E12.21786
G1 X64.579 Y112.599 E12.38407
G1 X64.757 Y112.32 E12.40058
G1 X66.659 Y109.603 E12.56604
G1 X66.861 Y109.339 E12.58263
G1 X68.999 Y106.792 E12.74853
G1 X69.223 Y106.548 E12.76506
G1 X71.576 Y104.195 E12.93107
G1 X71.82 Y103.971 E12.9476
G1 X74.368 Y101.833 E13.11354
G1 X74.632 Y101.631 E13.13012
G0 F3600 X74.861 Y101.959
G1 F1500 X77.577 Y100.058 E13.29552
G1 X77.828 Y99.898 E13.31037
G1 X80.715 Y98.232 E13.47666
G1 X80.977 Y98.096 E13.49139
G1 X83.989 Y96.691 E13.65721
G1 X84.264 Y96.577 E13.67206
G1 X87.379 Y95.444 E13.83743
G1 X87.661 Y95.355 E13.85218
G1 X90.875 Y94.494 E14.01818
G1 X91.164 Y94.43 E14.03295
G1 X94.44 Y93.852 E14.19891
G1 X94.736 Y93.813 E14.21381
G1 X98.049 Y93.524 E14.37972
G1 X98.344 Y93.511 E14.39445
G1 X101.66 Y93.511 E14.55989
G1 X101.884 Y93.518 E14.57107
G1 X103.551 Y93.628 E14.65442
G1 X103.771 Y93.65 E14.66545
G1 X107.065 Y94.084 E14.83121
G1 X107.356 Y94.136 E14.84596
G1 X110.592 Y94.853 E15.01132
G1 X110.879 Y94.929 E15.02613
G1 X114.058 Y95.931 E15.19242
G1 X114.339 Y96.034 E15.20735
G1 X117.41 Y97.308 E15.37323
G1 X117.676 Y97.432 E15.38787
G1 X120.62 Y98.963 E15.55342
G1 X120.878 Y99.111 E15.56826
G1 X123.68 Y100.896 E15.73401
G1 X123.924 Y101.068 E15.7489
G1 X126.558 Y103.091 E15.9146
G1 X126.783 Y103.279 E15.92922
G1 X129.235 Y105.524 E16.09508
G1 X129.446 Y105.736 E16.11001
G1 X131.691 Y108.187 E16.27583
G1 X131.881 Y108.413 E16.29056
G1 X133.907 Y111.052 E16.45654
G1 X134.078 Y111.296 E16.47141
G1 X135.867 Y114.106 E16.6376
G1 X136.014 Y114.361 E16.65229
G1 X137.546 Y117.302 E16.81773
G1 X137.672 Y117.572 E16.83259
G1 X138.944 Y120.642 E16.99838
G1 X139.046 Y120.921 E17.0132
G1 X140.045 Y124.091 E17.17902
G1 X140.122 Y124.378 E17.19385
G1 X140.84 Y127.623 E17.35966
G1 X140.891 Y127.914 E17.37439
G1 X141.325 Y131.209 E17.5402
G1 X141.351 Y131.504 E17.55498
G1 X141.497 Y134.824 E17.72077
G1 X141.497 Y135.118 E17.73544
G1 X141.358 Y138.365 E17.89758
G1 X141.333 Y138.658 E17.91225
G1 X140.904 Y141.96 E18.07838
G1 X140.853 Y142.251 E18.09312
G1 X140.142 Y145.492 E18.25865
G1 X140.065 Y145.78 E18.27353
G1 X139.071 Y148.951 E18.43932
G1 X138.971 Y149.229 E18.45406
G1 X137.706 Y152.301 E18.61981
G1 X137.581 Y152.57 E18.63461
G1 X136.046 Y155.532 E18.80105
G1 X135.898 Y155.79 E18.81588
G1 X134.123 Y158.587 E18.98115
G1 X133.953 Y158.831 E18.99599
G1 X131.933 Y161.472 E19.16187
G1 X131.745 Y161.697 E19.1765
G1 X129.506 Y164.153 E19.34231
G1 X129.293 Y164.366 E19.35734
G1 X126.846 Y166.614 E19.52311
G1 X126.622 Y166.803 E19.53773
G1 X123.983 Y168.837 E19.70396
G1 X123.739 Y169.008 E19.71883
G1 X120.939 Y170.799 E19.88465
G1 X120.682 Y170.948 E19.89947
G1 X117.744 Y172.484 E20.06488
G1 X117.477 Y172.609 E20.07958
G1 X114.413 Y173.886 E20.24519
G1 X114.135 Y173.988 E20.25997
G1 X110.961 Y174.997 E20.42613
G1 X110.672 Y175.075 E20.44106
G1 X107.433 Y175.798 E20.60663
G1 X107.142 Y175.85 E20.62138
G1 X103.777 Y176.299 E20.79075
G1 X103.476 Y176.326 E20.80582
G1 X100.151 Y176.472 E20.97187
G1 X99.853 Y176.472 E20.98674
G1 X96.528 Y176.326 E21.15278
G1 X96.233 Y176.3 E21.16756
G1 X92.936 Y175.866 E21.33346
G1 X92.645 Y175.815 E21.3482
G1 X89.409 Y175.099 E21.51355
G1 X89.122 Y175.022 E21.52838
G1 X85.944 Y174.02 E21.69462
G1 X85.663 Y173.917 E21.70955
G1 X82.59 Y172.642 E21.87554
G1 X82.324 Y172.518 E21.89018
G1 X79.386 Y170.99 E22.0554
G1 X79.128 Y170.841 E22.07026
G1 X76.318 Y169.05 E22.23651
G1 X76.075 Y168.881 E22.25127
G1 X73.437 Y166.857 E22.41716
G1 X73.21 Y166.666 E22.43196
G1 X70.76 Y164.421 E22.59774
G1 X70.55 Y164.21 E22.6126
G1 X68.305 Y161.759 E22.77842
G1 X68.161 Y161.592 E22.78942
G1 X67.118 Y160.293 E22.87253
G1 X66.984 Y160.114 E22.88369
G1 X65.083 Y157.398 E23.04908
G1 X64.923 Y157.147 E23.06394
G1 X63.257 Y154.26 E23.23023
G1 X63.121 Y153.998 E23.24496
G1 X61.716 Y150.986 E23.41077
G1 X61.602 Y150.711 E23.42562
G1 X60.469 Y147.596 E23.59099
G1 X60.38 Y147.313 E23.60579
G1 X59.518 Y144.094 E23.77205
G1 X59.454 Y143.805 E23.78682
G1 X58.877 Y140.531 E23.95267
G1 X58.838 Y140.237 E23.96747
G1 X58.549 Y136.927 E24.13323
G1 X58.536 Y136.631 E24.14802
G1 X58.536 Y133.315 E24.31345
G1 X58.549 Y133.018 E24.32828
G1 X58.839 Y129.709 E24.494
G1 X58.877 Y129.417 E24.50869
G1 X59.453 Y126.143 E24.67454
G1 X59.518 Y125.852 E24.68942
G1 X60.381 Y122.632 E24.85573
G1 X60.47 Y122.349 E24.87053
G1 X61.605 Y119.232 E25.03603
G1 X61.719 Y118.958 E25.05084
G1 X63.123 Y115.947 E25.21658
G1 X63.26 Y115.684 E25.23138
G1 X64.926 Y112.799 E25.39759
G1 X65.085 Y112.549 E25.41237
G1 X66.987 Y109.832 E25.57783
G1 X67.168 Y109.596 E25.59267
G1 X69.306 Y107.049 E25.75858
G1 X69.506 Y106.831 E25.77334
G1 X71.859 Y104.478 E25.93935
G1 X72.078 Y104.277 E25.95418
G1 X74.626 Y102.139 E26.12013
G1 X74.861 Y101.959 E26.13489
G0 F3600 X75.091 Y102.286
G1 F1500 X77.807 Y100.385 E26.30029
G1 X78.028 Y100.245 E26.31334
G1 X80.915 Y98.579 E26.47964
G1 X81.146 Y98.458 E26.49265
G1 X84.158 Y97.053 E26.65846
G1 X84.401 Y96.953 E26.67157
G1 X87.516 Y95.82 E26.83694
G1 X87.765 Y95.741 E26.84997
G1 X90.979 Y94.88 E27.01597
G1 X91.234 Y94.824 E27.029
G1 X94.51 Y94.246 E27.19496
G1 X94.77 Y94.211 E27.20805
G1 X98.083 Y93.922 E27.37397
G1 X98.344 Y93.911 E27.387
G1 X101.66 Y93.911 E27.55243
G1 X101.858 Y93.918 E27.56232
G1 X103.525 Y94.028 E27.64567
G1 X103.719 Y94.047 E27.65539
G1 X107.013 Y94.481 E27.82115
G1 X107.27 Y94.526 E27.83417
G1 X110.506 Y95.243 E27.99953
G1 X110.759 Y95.311 E28.0126
G1 X113.938 Y96.313 E28.17889
G1 X114.186 Y96.403 E28.19205
G1 X117.257 Y97.677 E28.35793
G1 X117.491 Y97.786 E28.3708
G1 X120.435 Y99.317 E28.53636
G1 X120.663 Y99.449 E28.5495
G1 X123.465 Y101.234 E28.71525
G1 X123.68 Y101.385 E28.72835
G1 X126.314 Y103.408 E28.89405
G1 X126.513 Y103.574 E28.90698
G1 X128.965 Y105.819 E29.07284
G1 X129.151 Y106.006 E29.086
G1 X131.396 Y108.457 E29.25182
G1 X131.564 Y108.656 E29.26482
G1 X133.59 Y111.295 E29.4308
G1 X133.741 Y111.511 E29.44395
G1 X135.53 Y114.321 E29.61014
G1 X135.66 Y114.546 E29.62311
G1 X137.192 Y117.487 E29.78855
G1 X137.303 Y117.725 E29.80165
G1 X138.575 Y120.795 E29.96744
G1 X138.664 Y121.041 E29.98049
G1 X139.663 Y124.211 E30.14631
G1 X139.731 Y124.465 E30.15943
G1 X140.449 Y127.71 E30.32524
G1 X140.494 Y127.966 E30.3382
G1 X140.928 Y131.261 E30.50401
G1 X140.951 Y131.521 E30.51703
G1 X141.097 Y134.841 E30.68283
G1 X141.097 Y135.101 E30.6958
G1 X140.958 Y138.348 E30.85794
G1 X140.936 Y138.607 E30.87091
G1 X140.507 Y141.909 E31.03703
G1 X140.462 Y142.165 E31.05
G1 X139.751 Y145.406 E31.21554
G1 X139.684 Y145.66 E31.22865
G1 X138.69 Y148.831 E31.39444
G1 X138.601 Y149.076 E31.40744
G1 X137.336 Y152.148 E31.57319
G1 X137.226 Y152.386 E31.58627
G1 X135.691 Y155.348 E31.75271
G1 X135.56 Y155.575 E31.76579
G1 X133.785 Y158.372 E31.93106
G1 X133.635 Y158.588 E31.94418
G1 X131.615 Y161.229 E32.11006
G1 X131.449 Y161.427 E32.12295
G1 X129.21 Y163.883 E32.28875
G1 X129.023 Y164.071 E32.30198
G1 X126.576 Y166.319 E32.46776
G1 X126.377 Y166.486 E32.48072
G1 X123.738 Y168.52 E32.64695
G1 X123.524 Y168.671 E32.66002
G1 X120.724 Y170.462 E32.82584
G1 X120.497 Y170.594 E32.83894
G1 X117.559 Y172.13 E33.00434
G1 X117.323 Y172.24 E33.01733
G1 X114.259 Y173.517 E33.18294
G1 X114.014 Y173.607 E33.19596
G1 X110.84 Y174.616 E33.36212
G1 X110.585 Y174.685 E33.3753
G1 X107.346 Y175.408 E33.54088
G1 X107.089 Y175.454 E33.5539
G1 X103.724 Y175.903 E33.72327
G1 X103.459 Y175.926 E33.73654
G1 X100.134 Y176.072 E33.90258
G1 X99.87 Y176.072 E33.91576
G1 X96.545 Y175.926 E34.0818
G1 X96.285 Y175.903 E34.09482
G1 X92.988 Y175.469 E34.26073
G1 X92.732 Y175.424 E34.2737
G1 X89.496 Y174.708 E34.43905
G1 X89.242 Y174.64 E34.45217
G1 X86.064 Y173.638 E34.61841
G1 X85.816 Y173.548 E34.63157
G1 X82.743 Y172.273 E34.79756
G1 X82.509 Y172.164 E34.81044
G1 X79.571 Y170.636 E34.97565
G1 X79.343 Y170.504 E34.9888
G1 X76.533 Y168.713 E35.15504
G1 X76.319 Y168.563 E35.16808
G1 X73.681 Y166.539 E35.33396
G1 X73.48 Y166.371 E35.34703
G1 X71.03 Y164.126 E35.51282
G1 X70.845 Y163.94 E35.52591
G1 X68.6 Y161.489 E35.69173
G1 X68.473 Y161.341 E35.70146
G1 X67.43 Y160.042 E35.78457
G1 X67.311 Y159.884 E35.79444
G1 X65.41 Y157.168 E35.95984
G1 X65.27 Y156.947 E35.97289
G1 X63.604 Y154.06 E36.13918
G1 X63.483 Y153.829 E36.15219
G1 X62.078 Y150.817 E36.31801
G1 X61.978 Y150.574 E36.33112
G1 X60.845 Y147.459 E36.49649
G1 X60.766 Y147.21 E36.50952
G1 X59.904 Y143.991 E36.67577
G1 X59.848 Y143.736 E36.6888
G1 X59.271 Y140.462 E36.85466
G1 X59.236 Y140.202 E36.86775
G1 X58.947 Y136.892 E37.03351
G1 X58.936 Y136.631 E37.04654
G1 X58.936 Y133.315 E37.21198
G1 X58.947 Y133.053 E37.22506
G1 X59.237 Y129.744 E37.39078
G1 X59.271 Y129.486 E37.40376
G1 X59.847 Y126.212 E37.56961
G1 X59.904 Y125.955 E37.58275
G1 X60.767 Y122.735 E37.74906
G1 X60.846 Y122.486 E37.7621
G1 X61.981 Y119.369 E37.92759
G1 X62.081 Y119.127 E37.94066
G1 X63.485 Y116.116 E38.1064
G1 X63.606 Y115.884 E38.11946
G1 X65.272 Y112.999 E38.28567
G1 X65.412 Y112.779 E38.29868
G1 X67.314 Y110.062 E38.46414
G1 X67.474 Y109.853 E38.47727
G1 X69.612 Y107.306 E38.64318
G1 X69.789 Y107.114 E38.65621
G1 X72.142 Y104.761 E38.82222
G1 X72.335 Y104.584 E38.83529
G1 X74.883 Y102.446 E39.00123
G1 X75.091 Y102.286 E39.01432
G0 F3600 X75.32 Y102.614
G1 F1500 X78.036 Y100.713 E39.17972
G1 X78.227 Y100.591 E39.19103
G1 X81.114 Y98.925 E39.35732
G1 X81.315 Y98.821 E39.36861
G1 X84.327 Y97.416 E39.53442
G1 X84.537 Y97.329 E39.54576
G1 X87.652 Y96.196 E39.71113
G1 X87.868 Y96.128 E39.72243
G1 X91.082 Y95.267 E39.88843
G1 X91.303 Y95.218 E39.89973
G1 X94.579 Y94.64 E40.06569
G1 X94.805 Y94.61 E40.07706
G1 X98.118 Y94.321 E40.24298
G1 X98.344 Y94.311 E40.25426
G1 X101.66 Y94.311 E40.4197
G1 X101.831 Y94.317 E40.42824
G1 X103.498 Y94.427 E40.51159
G1 X103.667 Y94.443 E40.52005
G1 X106.961 Y94.877 E40.68581
G1 X107.183 Y94.917 E40.69707
G1 X110.419 Y95.634 E40.86243
G1 X110.639 Y95.692 E40.87378
G1 X113.818 Y96.694 E41.04007
G1 X114.032 Y96.772 E41.05143
G1 X117.103 Y98.046 E41.21731
G1 X117.307 Y98.141 E41.22853
G1 X120.251 Y99.672 E41.39409
G1 X120.448 Y99.786 E41.40544
G1 X123.25 Y101.571 E41.57119
G1 X123.437 Y101.702 E41.58258
G1 X126.071 Y103.725 E41.74828
G1 X126.243 Y103.869 E41.75947
G1 X128.695 Y106.114 E41.92533
G1 X128.856 Y106.276 E41.93672
G1 X131.101 Y108.727 E42.10255
G1 X131.246 Y108.9 E42.11381
G1 X133.272 Y111.539 E42.27979
G1 X133.403 Y111.726 E42.29118
G1 X135.192 Y114.536 E42.45738
G1 X135.305 Y114.731 E42.46862
G1 X136.837 Y117.672 E42.63406
G1 X136.933 Y117.878 E42.6454
G1 X138.205 Y120.948 E42.81119
G1 X138.283 Y121.162 E42.82255
G1 X139.282 Y124.332 E42.98837
G1 X139.341 Y124.551 E42.99969
G1 X140.059 Y127.796 E43.1655
G1 X140.098 Y128.018 E43.17674
G1 X140.532 Y131.313 E43.34255
G1 X140.551 Y131.539 E43.35386
G1 X140.697 Y134.859 E43.51966
G1 X140.698 Y135.084 E43.53089
G1 X140.559 Y138.331 E43.69303
G1 X140.539 Y138.555 E43.70425
G1 X140.11 Y141.857 E43.87037
G1 X140.072 Y142.079 E43.88161
G1 X139.361 Y145.32 E44.04715
G1 X139.302 Y145.541 E44.05856
