;FLAVOR:Marlin
;TIME:10410
;Filament used: 9.35092m
;Layer height: 0.2
;Generated with Cura_SteamEngine 2.7.0
M190 S65
M104 S210
M109 S210
G21 ;metric values
G90 ;absolute positioning
M82 ;set extruder to absolute mode
M107 ;start with the fan off
G28 X0 Y0 ;move X/Y to min endstops
G28 Z0 ;move Z to min endstops
G1 Z15.0 F9000 ;move the platform down 15mm
G92 E0 ;zero the extruded length
G1 F200 E3 ;extrude 3mm of feed stock
G92 E0 ;zero the extruded length again
G1 F9000
;Put printing message on LCD screen
M117 Printing...
;LAYER_COUNT:122
;LAYER:0
M107
G0 F3600 X82.639 Y83.337 Z0.3
G0 X82.68 Y83.297
;TYPE:SKIRT
G1 F1500 X83.166 Y82.826 E0.03376
G1 X83.577 Y82.482 E0.0605
G1 X84.036 Y82.204 E0.08728
G1 X84.53 Y81.996 E0.11402
G1 X85.05 Y81.865 E0.14077
G1 X85.671 Y81.811 E0.17187
G1 X114.328 Y81.811 E1.60157
G1 X114.863 Y81.851 E1.62834
G1 X115.386 Y81.97 E1.6551
G1 X115.885 Y82.165 E1.68183
G1 X116.35 Y82.433 E1.7086
G1 X116.875 Y82.867 E1.74259
G1 X142.125 Y108.146 E3.52513
G1 X142.475 Y108.552 E3.55188
G1 X142.76 Y109.007 E3.57866
G1 X142.975 Y109.498 E3.6054
G1 X143.114 Y110.016 E3.63216
G1 X143.178 Y110.689 E3.66589
G1 X143.189 Y159.328 E6.0925
G1 X143.149 Y159.863 E6.11926
G1 X143.03 Y160.386 E6.14602
G1 X142.835 Y160.885 E6.17275
G1 X142.568 Y161.35 E6.1995
G1 X142.135 Y161.874 E6.23342
G1 X116.885 Y187.126 E8.01501
G1 X116.478 Y187.476 E8.04179
G1 X116.024 Y187.762 E8.06856
G1 X115.533 Y187.977 E8.0953
G1 X115.015 Y188.117 E8.12207
G1 X114.34 Y188.181 E8.1559
G1 X85.672 Y188.189 E9.58615
G1 X85.137 Y188.149 E9.61292
G1 X84.614 Y188.03 E9.63968
G1 X84.115 Y187.835 E9.66641
G1 X83.65 Y187.568 E9.69316
G1 X83.126 Y187.135 E9.72707
G1 X58.337 Y162.361 E11.47554
G1 X58.299 Y162.323 E11.47822
G1 X57.828 Y161.838 E11.51195
G1 X57.484 Y161.427 E11.53869
G1 X57.206 Y160.969 E11.56542
G1 X56.998 Y160.474 E11.59221
G1 X56.866 Y159.954 E11.61897
G1 X56.811 Y159.33 E11.65022
G1 X56.811 Y110.671 E14.07783
G1 X56.851 Y110.136 E14.1046
G1 X56.97 Y109.613 E14.13136
G1 X57.165 Y109.114 E14.15809
G1 X57.433 Y108.649 E14.18486
G1 X57.865 Y108.126 E14.2187
G1 X82.639 Y83.337 E15.96717
G1 X82.68 Y83.297 E15.97003
G0 F3600 X82.922 Y83.62
G1 F1500 X82.958 Y83.584 E15.97257
G1 X83.444 Y83.113 E16.00634
G1 X83.834 Y82.791 E16.03157
G1 X84.269 Y82.534 E16.05677
G1 X84.74 Y82.349 E16.08202
G1 X85.234 Y82.241 E16.10725
G1 X85.671 Y82.211 E16.1291
G1 X114.328 Y82.211 E17.55881
G1 X114.832 Y82.251 E17.58403
G1 X115.323 Y82.37 E17.60923
G1 X115.79 Y82.564 E17.63446
G1 X116.22 Y82.83 E17.65969
G1 X116.592 Y83.15 E17.68417
G1 X141.842 Y108.429 E19.46672
G1 X142.17 Y108.813 E19.49191
G1 X142.433 Y109.245 E19.51715
G1 X142.625 Y109.713 E19.54238
G1 X142.741 Y110.205 E19.5676
G1 X142.778 Y110.689 E19.59182
G1 X142.789 Y159.328 E22.01843
G1 X142.749 Y159.832 E22.04365
G1 X142.63 Y160.324 E22.06891
G1 X142.436 Y160.79 E22.09409
G1 X142.17 Y161.22 E22.11931
G1 X141.852 Y161.592 E22.14373
G1 X116.602 Y186.844 E23.92533
G1 X116.217 Y187.172 E23.95056
G1 X115.786 Y187.435 E23.97575
G1 X115.318 Y187.628 E24.001
G1 X114.826 Y187.744 E24.02622
G1 X114.34 Y187.781 E24.05054
G1 X85.672 Y187.789 E25.48079
G1 X85.168 Y187.749 E25.50602
G1 X84.676 Y187.631 E25.53126
G1 X84.21 Y187.436 E25.55646
G1 X83.78 Y187.17 E25.58169
G1 X83.409 Y186.852 E25.60606
G1 X58.62 Y162.078 E27.35453
G1 X58.586 Y162.044 E27.35693
G1 X58.115 Y161.559 E27.39066
G1 X57.793 Y161.17 E27.41585
G1 X57.536 Y160.735 E27.44106
G1 X57.35 Y160.264 E27.46633
G1 X57.241 Y159.771 E27.49152
G1 X57.211 Y159.33 E27.51357
G1 X57.211 Y110.671 E29.94118
G1 X57.251 Y110.167 E29.9664
G1 X57.37 Y109.676 E29.9916
G1 X57.564 Y109.209 E30.01683
G1 X57.83 Y108.779 E30.04206
G1 X58.148 Y108.409 E30.0664
G1 X82.922 Y83.62 E31.81487
G1 F1500 E25.31487
G0 F3600 X84.713 Y85.414
G0 X85.621 Y86.322
G0 X85.952 Y86.093
G0 X85.914 Y86.001
;TYPE:WALL-INNER
G1 F1500 E31.81487
G1 X114.086 Y86.001 E33.22038
G1 X138.999 Y110.914 E34.97812
G1 X138.999 Y159.086 E37.38143
G1 X114.086 Y183.999 E39.13918
G1 X85.914 Y183.999 E40.54469
G1 X61.001 Y159.086 E42.30243
G1 X61.001 Y110.914 E44.70574
G1 X85.914 Y86.001 E46.46349
G0 F3600 X85.952 Y86.093
G0 X95.063 Y91.413
G0 X95.143 Y91.471
G1 F1500 X94.65 Y92.275 E46.51054
G1 X94.29 Y93.145 E46.55752
G1 X94.07 Y94.061 E46.60452
G1 X93.999 Y94.977 E46.65035
G1 X93.999 Y110.023 E47.401
G1 X94.07 Y110.939 E47.44684
G1 X94.29 Y111.855 E47.49384
G1 X94.65 Y112.725 E47.54081
G1 X95.143 Y113.529 E47.58786
G1 X95.754 Y114.246 E47.63486
G1 X96.471 Y114.857 E47.68186
G1 X97.275 Y115.35 E47.72891
G1 X98.145 Y115.71 E47.77588
G1 X99.061 Y115.93 E47.82288
G1 X100 Y116.003 E47.86987
G1 X100.939 Y115.93 E47.91686
G1 X101.855 Y115.71 E47.96386
G1 X102.725 Y115.35 E48.01083
G1 X103.529 Y114.857 E48.05788
G1 X104.246 Y114.246 E48.10488
G1 X104.857 Y113.529 E48.15188
G1 X105.35 Y112.725 E48.19893
G1 X105.71 Y111.855 E48.2459
G1 X105.93 Y110.939 E48.2929
G1 X106.001 Y110.023 E48.33874
G1 X106.001 Y94.977 E49.08939
G1 X105.93 Y94.061 E49.13522
G1 X105.71 Y93.145 E49.18222
G1 X105.35 Y92.275 E49.2292
G1 X104.857 Y91.471 E49.27625
G1 X104.246 Y90.754 E49.32325
G1 X103.529 Y90.143 E49.37024
G1 X102.725 Y89.65 E49.4173
G1 X101.855 Y89.29 E49.46427
G1 X100.939 Y89.07 E49.51127
G1 X100 Y88.997 E49.55826
G1 X99.061 Y89.07 E49.60525
G1 X98.145 Y89.29 E49.65225
G1 X97.275 Y89.65 E49.69922
G1 X96.471 Y90.143 E49.74627
G1 X95.754 Y90.754 E49.79327
G1 X95.143 Y91.471 E49.84027
G0 F3600 X95.063 Y91.413
G0 X80.356 Y100.743
G0 X80.271 Y100.795
G1 F1500 X79.942 Y100.35 E49.86788
G1 X79.543 Y99.969 E49.8954
G1 X79.087 Y99.66 E49.92288
G1 X78.584 Y99.433 E49.95041
G1 X78.05 Y99.292 E49.97797
G1 X77.5 Y99.247 E50.0055
G1 X76.95 Y99.292 E50.03303
G1 X76.416 Y99.433 E50.06059
G1 X75.913 Y99.66 E50.08812
G1 X75.457 Y99.969 E50.1156
G1 X75.058 Y100.35 E50.14312
G1 X74.729 Y100.795 E50.17073
G1 X74.482 Y101.286 E50.19815
G1 X74.32 Y101.814 E50.22571
G1 X74.249 Y102.361 E50.25323
G1 X74.273 Y102.913 E50.28079
G1 X74.388 Y103.453 E50.30834
G1 X74.595 Y103.965 E50.33589
G1 X74.884 Y104.435 E50.36342
G1 X75.248 Y104.849 E50.39092
G1 X75.678 Y105.195 E50.41845
G1 X76.159 Y105.465 E50.44597
G1 X76.68 Y105.648 E50.47352
G1 X77.224 Y105.742 E50.50106
G1 X77.776 Y105.742 E50.5286
G1 X78.32 Y105.648 E50.55615
G1 X78.841 Y105.465 E50.5837
G1 X79.322 Y105.195 E50.61122
G1 X79.752 Y104.849 E50.63875
G1 X80.116 Y104.435 E50.66625
G1 X80.405 Y103.965 E50.69378
G1 X80.612 Y103.453 E50.72133
G1 X80.727 Y102.913 E50.74888
G1 X80.751 Y102.361 E50.77644
G1 X80.68 Y101.814 E50.80396
G1 X80.518 Y101.286 E50.83152
G1 X80.271 Y100.795 E50.85894
G0 F3600 X80.356 Y100.743
G0 X80.719 Y101.806
G0 X80.79 Y102.36
G0 X80.526 Y118.9
G0 X80.523 Y118.999
G1 F1500 X69.977 Y118.999 E51.38508
G1 X69.061 Y119.07 E51.43092
G1 X68.145 Y119.29 E51.47791
G1 X67.275 Y119.65 E51.52489
G1 X66.471 Y120.143 E51.57194
G1 X65.754 Y120.754 E51.61894
G1 X65.143 Y121.471 E51.66594
G1 X64.65 Y122.275 E51.71299
G1 X64.29 Y123.145 E51.75996
G1 X64.07 Y124.061 E51.80696
G1 X63.999 Y124.977 E51.8528
G1 X63.999 Y145.023 E52.8529
G1 X64.07 Y145.939 E52.89873
G1 X64.29 Y146.855 E52.94573
G1 X64.65 Y147.725 E52.99271
G1 X65.143 Y148.529 E53.03976
G1 X65.754 Y149.246 E53.08676
G1 X66.471 Y149.857 E53.13375
G1 X67.275 Y150.35 E53.18081
G1 X68.145 Y150.71 E53.22778
G1 X69.061 Y150.93 E53.27478
G1 X69.977 Y151.001 E53.32061
G1 X80.523 Y151.001 E53.84676
G1 X81.439 Y150.93 E53.89259
G1 X82.355 Y150.71 E53.93959
G1 X83.225 Y150.35 E53.98657
G1 X84.029 Y149.857 E54.03362
G1 X84.746 Y149.246 E54.08062
G1 X85.357 Y148.529 E54.12761
G1 X85.85 Y147.725 E54.17467
G1 X86.21 Y146.855 E54.22164
G1 X86.43 Y145.939 E54.26864
G1 X86.501 Y145.023 E54.31447
G1 X86.501 Y124.977 E55.31457
G1 X86.43 Y124.061 E55.36041
G1 X86.21 Y123.145 E55.40741
G1 X85.85 Y122.275 E55.45438
G1 X85.357 Y121.471 E55.50144
G1 X84.746 Y120.754 E55.54843
G1 X84.029 Y120.143 E55.59543
G1 X83.225 Y119.65 E55.64248
G1 X82.355 Y119.29 E55.68946
G1 X81.439 Y119.07 E55.73646
G1 X80.523 Y118.999 E55.78229
G0 F3600 X80.526 Y118.9
G0 X81.445 Y119.031
G0 X82.367 Y119.252
G0 X94.195 Y123.115
G0 X94.29 Y123.145
G1 F1500 X94.07 Y124.061 E55.82929
G1 X93.999 Y124.977 E55.87513
G1 X93.999 Y145.023 E56.87523
G1 X94.07 Y145.939 E56.92106
G1 X94.29 Y146.855 E56.96806
G1 X94.65 Y147.725 E57.01504
G1 X95.143 Y148.529 E57.06209
G1 X95.754 Y149.246 E57.10909
G1 X96.471 Y149.857 E57.15608
G1 X97.275 Y150.35 E57.20314
G1 X98.145 Y150.71 E57.25011
G1 X99.061 Y150.93 E57.29711
G1 X100 Y151.003 E57.3441
G1 X100.939 Y150.93 E57.39108
G1 X101.855 Y150.71 E57.43808
G1 X102.725 Y150.35 E57.48506
G1 X103.529 Y149.857 E57.53211
G1 X104.246 Y149.246 E57.57911
G1 X104.857 Y148.529 E57.62611
G1 X105.35 Y147.725 E57.67316
G1 X105.71 Y146.855 E57.72013
G1 X105.93 Y145.939 E57.76713
G1 X106.001 Y145.023 E57.81297
G1 X106.001 Y124.977 E58.81307
G1 X105.93 Y124.061 E58.8589
G1 X105.71 Y123.145 E58.9059
G1 X105.35 Y122.275 E58.95288
G1 X104.857 Y121.471 E58.99993
G1 X104.246 Y120.754 E59.04692
G1 X103.529 Y120.143 E59.09392
G1 X102.725 Y119.65 E59.14097
G1 X101.855 Y119.29 E59.18795
G1 X100.939 Y119.07 E59.23495
G1 X100 Y118.997 E59.28194
G1 X99.061 Y119.07 E59.32892
G1 X98.145 Y119.29 E59.37592
G1 X97.275 Y119.65 E59.4229
G1 X96.471 Y120.143 E59.46995
G1 X95.754 Y120.754 E59.51695
G1 X95.143 Y121.471 E59.56394
G1 X94.65 Y122.275 E59.611
G1 X94.29 Y123.145 E59.65797
G0 F3600 X94.195 Y123.115
G0 X94.615 Y122.257
G0 X95.111 Y121.448
G0 X95.726 Y120.726
G0 X96.448 Y120.111
G0 X97.257 Y119.615
G0 X98.133 Y119.252
G0 X99.055 Y119.031
G0 X100 Y118.957
G0 X100.945 Y119.031
G0 X101.867 Y119.252
G0 X113.472 Y124.046
G0 X113.57 Y124.061
G1 F1500 X113.499 Y124.977 E59.70381
G1 X113.499 Y145.023 E60.70391
G1 X113.57 Y145.939 E60.74974
G1 X113.79 Y146.855 E60.79674
G1 X114.15 Y147.725 E60.84372
G1 X114.643 Y148.529 E60.89077
G1 X115.254 Y149.246 E60.93777
G1 X115.971 Y149.857 E60.98476
G1 X116.775 Y150.35 E61.03182
G1 X117.645 Y150.71 E61.07879
G1 X118.561 Y150.93 E61.12579
G1 X119.477 Y151.001 E61.17162
G1 X130.023 Y151.001 E61.69777
G1 X130.939 Y150.93 E61.7436
G1 X131.855 Y150.71 E61.7906
G1 X132.725 Y150.35 E61.83758
G1 X133.529 Y149.857 E61.88463
G1 X134.246 Y149.246 E61.93163
G1 X134.857 Y148.529 E61.97862
G1 X135.35 Y147.725 E62.02568
G1 X135.71 Y146.855 E62.07265
G1 X135.93 Y145.939 E62.11965
G1 X136.001 Y145.023 E62.16548
G1 X136.001 Y124.977 E63.16558
G1 X135.93 Y124.061 E63.21142
G1 X135.71 Y123.145 E63.25842
G1 X135.35 Y122.275 E63.30539
G1 X134.857 Y121.471 E63.35245
G1 X134.246 Y120.754 E63.39944
G1 X133.529 Y120.143 E63.44644
G1 X132.725 Y119.65 E63.49349
G1 X131.855 Y119.29 E63.54047
G1 X130.939 Y119.07 E63.58747
G1 X130.023 Y118.999 E63.6333
G1 X119.477 Y118.999 E64.15944
G1 X118.561 Y119.07 E64.20528
G1 X117.645 Y119.29 E64.25228
G1 X116.775 Y119.65 E64.29925
G1 X115.971 Y120.143 E64.34631
G1 X115.254 Y120.754 E64.3933
G1 X114.643 Y121.471 E64.4403
G1 X114.15 Y122.275 E64.48735
G1 X113.79 Y123.145 E64.53433
G1 X113.57 Y124.061 E64.58133
G0 F3600 X113.472 Y124.046
G0 X113.752 Y123.133
G0 X121.118 Y105.556
G0 X121.159 Y105.465
G1 F1500 X121.68 Y105.648 E64.60888
G1 X122.224 Y105.742 E64.63642
G1 X122.776 Y105.742 E64.66396
G1 X123.32 Y105.648 E64.6915
G1 X123.841 Y105.465 E64.71905
G1 X124.322 Y105.195 E64.74657
G1 X124.752 Y104.849 E64.7741
G1 X125.116 Y104.435 E64.80161
G1 X125.405 Y103.965 E64.82913
G1 X125.612 Y103.453 E64.85669
G1 X125.727 Y102.913 E64.88423
G1 X125.751 Y102.361 E64.9118
G1 X125.68 Y101.814 E64.93932
G1 X125.518 Y101.286 E64.96687
G1 X125.271 Y100.795 E64.99429
G1 X124.942 Y100.35 E65.0219
G1 X124.543 Y99.969 E65.04942
G1 X124.087 Y99.66 E65.07691
G1 X123.584 Y99.433 E65.10444
G1 X123.05 Y99.292 E65.13199
G1 X122.5 Y99.247 E65.15952
G1 X121.95 Y99.292 E65.18705
G1 X121.416 Y99.433 E65.21461
G1 X120.913 Y99.66 E65.24214
G1 X120.457 Y99.969 E65.26962
G1 X120.058 Y100.35 E65.29715
G1 X119.729 Y100.795 E65.32476
G1 X119.482 Y101.286 E65.35218
G1 X119.32 Y101.814 E65.37973
G1 X119.249 Y102.361 E65.40725
G1 X119.273 Y102.913 E65.43481
G1 X119.388 Y103.453 E65.46236
G1 X119.595 Y103.965 E65.48991
G1 X119.884 Y104.435 E65.51744
G1 X120.248 Y104.849 E65.54494
G1 X120.678 Y105.195 E65.57248
G1 X121.159 Y105.465 E65.6
G0 F3600 X121.118 Y105.556
G0 X113.752 Y123.133
G0 X105.748 Y146.867
G0 X105.385 Y147.743
G0 X101.885 Y154.195
G0 X101.855 Y154.29
G1 F1500 X100.939 Y154.07 E65.64699
G1 X100 Y153.997 E65.69398
G1 X99.061 Y154.07 E65.74097
G1 X98.145 Y154.29 E65.78797
G1 X97.275 Y154.65 E65.83494
G1 X96.471 Y155.143 E65.882
G1 X95.754 Y155.754 E65.92899
G1 X95.143 Y156.471 E65.97599
G1 X94.65 Y157.275 E66.02304
G1 X94.29 Y158.145 E66.07002
G1 X94.07 Y159.061 E66.11702
G1 X93.999 Y159.977 E66.16285
G1 X93.999 Y175.023 E66.9135
G1 X94.07 Y175.939 E66.95934
G1 X94.29 Y176.855 E67.00634
G1 X94.65 Y177.725 E67.05331
G1 X95.143 Y178.529 E67.10036
G1 X95.754 Y179.246 E67.14736
G1 X96.471 Y179.857 E67.19436
G1 X97.275 Y180.35 E67.24141
G1 X98.145 Y180.71 E67.28838
G1 X99.061 Y180.93 E67.33538
G1 X100 Y181.003 E67.38237
G1 X100.939 Y180.93 E67.42936
G1 X101.855 Y180.71 E67.47636
G1 X102.725 Y180.35 E67.52333
G1 X103.529 Y179.857 E67.57038
G1 X104.246 Y179.246 E67.61738
G1 X104.857 Y178.529 E67.66438
G1 X105.35 Y177.725 E67.71143
G1 X105.71 Y176.855 E67.75841
G1 X105.93 Y175.939 E67.8054
G1 X106.001 Y175.023 E67.85124
G1 X106.001 Y159.977 E68.60189
G1 X105.93 Y159.061 E68.64773
G1 X105.71 Y158.145 E68.69472
G1 X105.35 Y157.275 E68.7417
G1 X104.857 Y156.471 E68.78875
G1 X104.246 Y155.754 E68.83575
G1 X103.529 Y155.143 E68.88275
G1 X102.725 Y154.65 E68.9298
G1 X101.855 Y154.29 E68.97677
G0 F3600 X101.885 Y154.195
G0 X100.945 Y154.031
G0 X100 Y153.957
G0 X99.055 Y154.031
G0 X98.133 Y154.252
G0 X97.257 Y154.615
G0 X80.356 Y165.743
G0 X80.271 Y165.795
G1 F1500 X79.942 Y165.35 E69.00438
G1 X79.543 Y164.969 E69.03191
G1 X79.087 Y164.66 E69.05939
G1 X78.584 Y164.433 E69.08692
G1 X78.05 Y164.292 E69.11447
G1 X77.5 Y164.247 E69.142
G1 X76.95 Y164.292 E69.16954
G1 X76.416 Y164.433 E69.19709
G1 X75.913 Y164.66 E69.22462
G1 X75.457 Y164.969 E69.2521
G1 X75.058 Y165.35 E69.27963
G1 X74.729 Y165.795 E69.30724
G1 X74.482 Y166.286 E69.33466
G1 X74.32 Y166.814 E69.36221
G1 X74.249 Y167.361 E69.38973
G1 X74.273 Y167.913 E69.4173
G1 X74.388 Y168.453 E69.44484
G1 X74.595 Y168.965 E69.47239
G1 X74.884 Y169.435 E69.49992
G1 X75.248 Y169.849 E69.52742
G1 X75.678 Y170.195 E69.55496
G1 X76.159 Y170.465 E69.58248
G1 X76.68 Y170.648 E69.61003
G1 X77.224 Y170.742 E69.63757
G1 X77.776 Y170.742 E69.66511
G1 X78.32 Y170.648 E69.69265
G1 X78.841 Y170.465 E69.7202
G1 X79.322 Y170.195 E69.74772
G1 X79.752 Y169.849 E69.77526
G1 X80.116 Y169.435 E69.80276
G1 X80.405 Y168.965 E69.83029
G1 X80.612 Y168.453 E69.85784
G1 X80.727 Y167.913 E69.88538
G1 X80.751 Y167.361 E69.91295
G1 X80.68 Y166.814 E69.94047
G1 X80.518 Y166.286 E69.96802
G1 X80.271 Y165.795 E69.99544
G0 F3600 X80.356 Y165.743
G0 X97.257 Y154.615
G0 X98.133 Y154.252
G0 X99.055 Y154.031
G0 X100 Y153.957
G0 X100.945 Y154.031
G0 X101.867 Y154.252
G0 X102.743 Y154.615
G0 X103.552 Y155.111
G0 X119.15 Y167.357
G0 X119.249 Y167.361
G1 F1500 X119.273 Y167.913 E70.02301
G1 X119.388 Y168.453 E70.05055
G1 X119.595 Y168.965 E70.07811
G1 X119.884 Y169.435 E70.10563
G1 X120.248 Y169.849 E70.13313
G1 X120.678 Y170.195 E70.16067
G1 X121.159 Y170.465 E70.18819
G1 X121.68 Y170.648 E70.21574
G1 X122.224 Y170.742 E70.24328
G1 X122.776 Y170.742 E70.27082
G1 X123.32 Y170.648 E70.29836
G1 X123.841 Y170.465 E70.32591
G1 X124.322 Y170.195 E70.35343
G1 X124.752 Y169.849 E70.38097
G1 X125.116 Y169.435 E70.40847
