;FLAVOR:Marlin
;TIME:809
;Filament used: 0.769288m
;Layer height: 0.2
;Generated with Cura_SteamEngine 2.7.0
M190 S65
M104 S210
M109 S210
G21 ;metric values
G90 ;absolute positioning
M82 ;set extruder to absolute mode
M107 ;start with the fan off
G28 X0 Y0 ;move X/Y to min endstops
G28 Z0 ;move Z to min endstops
G1 Z15.0 F9000 ;move the platform down 15mm
G92 E0 ;zero the extruded length
G1 F200 E3 ;extrude 3mm of feed stock
G92 E0 ;zero the extruded length again
G1 F9000
;Put printing message on LCD screen
M117 Printing...
;LAYER_COUNT:50
;LAYER:0
M107
G0 F3600 X83.256 Y119.951 Z0.3
;TYPE:SKIRT
G1 F1500 X83.698 Y119.648 E0.02674
G1 X84.181 Y119.413 E0.05353
G1 X84.692 Y119.253 E0.08025
G1 X85.222 Y119.17 E0.10701
G1 X85.509 Y119.159 E0.12134
G1 X114.491 Y119.16 E1.56726
G1 X115.026 Y119.2 E1.59402
G1 X115.549 Y119.319 E1.62078
G1 X116.048 Y119.514 E1.64751
G1 X116.513 Y119.782 E1.67429
G1 X116.933 Y120.115 E1.70103
G1 X117.299 Y120.507 E1.72779
G1 X117.603 Y120.949 E1.75455
G1 X117.837 Y121.432 E1.78133
G1 X117.997 Y121.943 E1.80804
G1 X118.08 Y122.473 E1.8348
G1 X118.091 Y122.76 E1.84913
G1 X118.091 Y147.241 E3.07049
G1 X118.051 Y147.776 E3.09726
G1 X117.932 Y148.299 E3.12402
G1 X117.737 Y148.798 E3.15075
G1 X117.469 Y149.263 E3.17752
G1 X117.136 Y149.683 E3.20427
G1 X116.744 Y150.049 E3.23102
G1 X116.302 Y150.352 E3.25776
G1 X115.819 Y150.587 E3.28455
G1 X115.308 Y150.747 E3.31127
G1 X114.778 Y150.83 E3.33803
G1 X114.488 Y150.841 E3.35251
G1 X110.366 Y150.837 E3.55816
G1 X110.058 Y150.824 E3.57354
G1 X106.795 Y150.541 E3.73694
G1 X101.337 Y150.311 E4.00948
G1 X95.869 Y150.392 E4.28231
G1 X89.864 Y150.83 E4.5827
G1 X89.603 Y150.84 E4.59573
G1 X85.51 Y150.841 E4.79993
G1 X84.975 Y150.801 E4.8267
G1 X84.452 Y150.682 E4.85346
G1 X83.953 Y150.487 E4.88019
G1 X83.488 Y150.22 E4.90694
G1 X83.068 Y149.887 E4.93368
G1 X82.702 Y149.495 E4.96043
G1 X82.398 Y149.053 E4.9872
G1 X82.163 Y148.57 E5.014
G1 X82.003 Y148.059 E5.04071
G1 X81.921 Y147.529 E5.06747
G1 X81.909 Y147.241 E5.08185
G1 X81.909 Y122.759 E6.30326
G1 X81.949 Y122.224 E6.33003
G1 X82.068 Y121.701 E6.35678
G1 X82.263 Y121.202 E6.38351
G1 X82.531 Y120.737 E6.41029
G1 X82.864 Y120.317 E6.43703
G1 X83.256 Y119.951 E6.46379
G0 F3600 X83.645 Y120.158
G1 F1500 X84.078 Y119.897 E6.48901
G1 X84.546 Y119.707 E6.51421
G1 X85.039 Y119.594 E6.53944
G1 X85.509 Y119.559 E6.56296
G1 X114.491 Y119.56 E8.00887
G1 X114.995 Y119.6 E8.0341
G1 X115.487 Y119.719 E8.05935
G1 X115.953 Y119.914 E8.08455
G1 X116.383 Y120.179 E8.10975
G1 X116.766 Y120.51 E8.13501
G1 X117.092 Y120.896 E8.16022
G1 X117.353 Y121.329 E8.18544
G1 X117.543 Y121.797 E8.21064
G1 X117.656 Y122.29 E8.23587
G1 X117.691 Y122.76 E8.25938
G1 X117.691 Y147.241 E9.48075
G1 X117.651 Y147.745 E9.50597
G1 X117.532 Y148.236 E9.53118
G1 X117.338 Y148.703 E9.55641
G1 X117.072 Y149.133 E9.58163
G1 X116.742 Y149.516 E9.60685
G1 X116.355 Y149.842 E9.6321
G1 X115.922 Y150.103 E9.65732
G1 X115.454 Y150.293 E9.68252
G1 X114.961 Y150.406 E9.70775
G1 X114.488 Y150.441 E9.73142
G1 X110.366 Y150.437 E9.93706
G1 X110.093 Y150.425 E9.9507
G1 X106.826 Y150.142 E10.1143
G1 X101.347 Y149.911 E10.38789
G1 X95.869 Y149.992 E10.66122
G1 X89.835 Y150.432 E10.96306
G1 X89.603 Y150.44 E10.97464
G1 X85.51 Y150.441 E11.17884
G1 X85.006 Y150.401 E11.20406
G1 X84.514 Y150.282 E11.22932
G1 X84.048 Y150.088 E11.2545
G1 X83.618 Y149.822 E11.27972
G1 X83.235 Y149.492 E11.30495
G1 X82.909 Y149.106 E11.33015
G1 X82.647 Y148.673 E11.3554
G1 X82.457 Y148.204 E11.38065
G1 X82.344 Y147.712 E11.40583
G1 X82.309 Y147.241 E11.4294
G1 X82.309 Y122.759 E12.65081
G1 X82.349 Y122.255 E12.67603
G1 X82.468 Y121.764 E12.70124
G1 X82.662 Y121.297 E12.72647
G1 X82.928 Y120.867 E12.75169
G1 X83.258 Y120.484 E12.77691
G1 X83.645 Y120.158 E12.80216
G1 F1500 E6.30216
G0 F3600 X86.114 Y122.085
G0 X86.114 Y123.364
G0 X86.17 Y123.42
G0 X86.1 Y123.35
;TYPE:WALL-INNER
G1 F1500 E12.80216
G1 X113.9 Y123.35 E14.18911
G1 X113.9 Y146.65 E15.35155
G1 X111.001 Y146.65 E15.49618
G1 X111.001 Y126.249 E16.51399
G1 X88.999 Y126.249 E17.61167
G1 X88.999 Y146.65 E18.62948
G1 X86.1 Y146.65 E18.77412
G1 X86.1 Y123.35 E19.93656
G0 F3600 X86.17 Y123.42
G0 X88.899 Y126.649
G0 X89.399 Y126.649
;TYPE:WALL-OUTER
G1 F1500 X89.399 Y147.05 E20.95437
G1 X85.7 Y147.05 E21.13891
G1 X85.7 Y122.95 E22.34127
G1 X114.3 Y122.95 E23.76813
G1 X114.3 Y147.05 E24.97048
G1 X110.601 Y147.05 E25.15502
G1 X110.601 Y126.649 E26.17283
G1 X89.399 Y126.649 E27.23061
G0 F3600 X89.399 Y126.849
G0 X88.899 Y126.849
G0 X86.506 Y146.469
;TYPE:SKIN
G1 F1500 X86.28 Y146.243 E27.24655
G0 F3600 X86.28 Y145.677
G1 F1500 X87.072 Y146.469 E27.30243
G1 X87.142 Y146.539
G0 F3600 X87.638 Y146.469
G1 F1500 X86.28 Y145.111 E27.39825
G1 X86.21 Y145.041
G0 F3600 X86.28 Y144.546
G1 F1500 X88.203 Y146.469 E27.53392
G1 X88.273 Y146.539
G0 F3600 X88.769 Y146.469
G1 F1500 X86.28 Y143.98 E27.70954
G1 X86.21 Y143.91
G0 F3600 X86.28 Y143.414
G1 F1500 X88.818 Y145.953 E27.88864
G1 X88.888 Y146.023
G0 F3600 X88.818 Y145.387
G1 F1500 X86.28 Y142.849 E28.06771
G1 X86.21 Y142.779
G0 F3600 X86.28 Y142.283
G1 F1500 X88.818 Y144.821 E28.24678
G1 X88.888 Y144.891
G0 F3600 X88.818 Y144.256
G1 F1500 X86.28 Y141.717 E28.42588
G1 X86.21 Y141.647
G0 F3600 X86.28 Y141.151
G1 F1500 X88.818 Y143.69 E28.60499
G1 X88.888 Y143.76
G0 F3600 X88.818 Y143.124
G1 F1500 X86.28 Y140.586 E28.78406
G1 X86.21 Y140.516
G0 F3600 X86.28 Y140.02
G1 F1500 X88.818 Y142.559 E28.96316
G1 X88.888 Y142.629
G0 F3600 X88.818 Y141.993
G1 F1500 X86.28 Y139.454 E29.14227
G1 X86.21 Y139.384
G0 F3600 X86.28 Y138.889
G1 F1500 X88.818 Y141.427 E29.32134
G1 X88.888 Y141.497
G0 F3600 X88.818 Y140.862
G1 F1500 X86.28 Y138.323 E29.50044
G1 X86.21 Y138.253
G0 F3600 X86.28 Y137.757
G1 F1500 X88.818 Y140.296 E29.67955
G1 X88.888 Y140.366
G0 F3600 X88.818 Y139.73
G1 F1500 X86.28 Y137.192 E29.85862
G1 X86.21 Y137.122
G0 F3600 X86.28 Y136.626
G1 F1500 X88.818 Y139.164 E30.03769
G1 X88.888 Y139.234
G0 F3600 X88.818 Y138.599
G1 F1500 X86.28 Y136.06 E30.21679
G1 X86.21 Y135.99
G0 F3600 X86.28 Y135.495
G1 F1500 X88.818 Y138.033 E30.39586
G1 X88.888 Y138.103
G0 F3600 X88.818 Y137.467
G1 F1500 X86.28 Y134.929 E30.57493
G1 X86.21 Y134.859
G0 F3600 X86.28 Y134.363
G1 F1500 X88.818 Y136.902 E30.75404
G1 X88.888 Y136.972
G0 F3600 X88.818 Y136.336
G1 F1500 X86.28 Y133.798 E30.93311
G1 X86.21 Y133.728
G0 F3600 X86.28 Y133.232
G1 F1500 X88.818 Y135.77 E31.11218
G1 X88.888 Y135.84
G0 F3600 X88.818 Y135.205
G1 F1500 X86.28 Y132.666 E31.29128
G1 X86.21 Y132.596
G0 F3600 X86.28 Y132.1
G1 F1500 X88.818 Y134.639 E31.47039
G1 X88.888 Y134.709
G0 F3600 X88.818 Y134.073
G1 F1500 X86.28 Y131.535 E31.64946
G1 X86.21 Y131.465
G0 F3600 X86.28 Y130.969
G1 F1500 X88.818 Y133.508 E31.82856
G1 X88.888 Y133.578
G0 F3600 X88.818 Y132.942
G1 F1500 X86.28 Y130.403 E32.00766
G1 X86.21 Y130.333
G0 F3600 X86.28 Y129.838
G1 F1500 X88.818 Y132.376 E32.18673
G1 X88.888 Y132.446
G0 F3600 X88.818 Y131.811
G1 F1500 X86.28 Y129.272 E32.36584
G1 X86.21 Y129.202
G0 F3600 X86.28 Y128.706
G1 F1500 X88.818 Y131.245 E32.54494
G1 X88.888 Y131.315
G0 F3600 X88.818 Y130.679
G1 F1500 X86.28 Y128.141 E32.72401
G1 X86.21 Y128.071
G0 F3600 X86.28 Y127.575
G1 F1500 X88.818 Y130.114 E32.90312
G1 X88.888 Y130.184
G0 F3600 X88.818 Y129.548
G1 F1500 X86.28 Y127.009 E33.08222
G1 X86.21 Y126.939
G0 F3600 X86.28 Y126.444
G1 F1500 X88.818 Y128.982 E33.26129
G1 X88.888 Y129.052
G0 F3600 X88.818 Y128.416
G1 F1500 X86.28 Y125.878 E33.44036
G1 X86.21 Y125.808
G0 F3600 X86.28 Y125.312
G1 F1500 X88.818 Y127.851 E33.61947
G1 X88.888 Y127.921
G0 F3600 X88.818 Y127.285
G1 F1500 X86.28 Y124.747 E33.79854
G1 X86.21 Y124.677
G0 F3600 X86.28 Y124.181
G1 F1500 X88.818 Y126.719 E33.97761
G1 X88.888 Y126.789
G0 F3600 X88.818 Y126.154
G1 F1500 X86.28 Y123.615 E34.15671
G1 X86.21 Y123.545
G0 F3600 X86.759 Y123.529
G1 F1500 X89.298 Y126.067 E34.33582
G1 X89.368 Y126.137
G0 F3600 X89.864 Y126.067
G1 F1500 X87.325 Y123.529 E34.51492
G1 X87.255 Y123.459
G0 F3600 X87.891 Y123.529
G1 F1500 X90.429 Y126.067 E34.69399
G1 X90.499 Y126.137
G0 F3600 X90.995 Y126.067
G1 F1500 X88.456 Y123.529 E34.8731
G1 X88.386 Y123.459
G0 F3600 X89.022 Y123.529
G1 F1500 X91.561 Y126.067 E35.0522
G1 X91.631 Y126.137
G0 F3600 X92.126 Y126.067
G1 F1500 X89.588 Y123.529 E35.23127
G1 X89.518 Y123.459
G0 F3600 X90.153 Y123.529
G1 F1500 X92.692 Y126.067 E35.41038
G1 X92.762 Y126.137
G0 F3600 X93.258 Y126.067
G1 F1500 X90.719 Y123.529 E35.58948
G1 X90.649 Y123.459
G0 F3600 X91.285 Y123.529
G1 F1500 X93.823 Y126.067 E35.76855
G1 X93.893 Y126.137
G0 F3600 X94.389 Y126.067
G1 F1500 X91.851 Y123.529 E35.94762
G1 X91.781 Y123.459
G0 F3600 X92.416 Y123.529
G1 F1500 X94.955 Y126.067 E36.12672
G1 X95.025 Y126.137
G0 F3600 X95.52 Y126.067
G1 F1500 X92.982 Y123.529 E36.30579
G1 X92.912 Y123.459
G0 F3600 X93.548 Y123.529
G1 F1500 X96.086 Y126.067 E36.48486
G1 X96.156 Y126.137
G0 F3600 X96.652 Y126.067
G1 F1500 X94.113 Y123.529 E36.66397
G1 X94.043 Y123.459
G0 F3600 X94.679 Y123.529
G1 F1500 X97.217 Y126.067 E36.84304
G1 X97.287 Y126.137
G0 F3600 X97.783 Y126.067
G1 F1500 X95.245 Y123.529 E37.02211
G1 X95.175 Y123.459
G0 F3600 X95.81 Y123.529
G1 F1500 X98.349 Y126.067 E37.20121
G1 X98.419 Y126.137
G0 F3600 X98.915 Y126.067
G1 F1500 X96.376 Y123.529 E37.38032
G1 X96.306 Y123.459
G0 F3600 X96.942 Y123.529
G1 F1500 X99.48 Y126.067 E37.55939
G1 X99.55 Y126.137
G0 F3600 X100.046 Y126.067
G1 F1500 X97.507 Y123.529 E37.73849
G1 X97.437 Y123.459
G0 F3600 X98.073 Y123.529
G1 F1500 X100.612 Y126.067 E37.9176
G1 X100.682 Y126.137
G0 F3600 X101.177 Y126.067
G1 F1500 X98.639 Y123.529 E38.09667
G1 X98.569 Y123.459
G0 F3600 X99.204 Y123.529
G1 F1500 X101.743 Y126.067 E38.27577
G1 X101.813 Y126.137
G0 F3600 X102.309 Y126.067
G1 F1500 X99.77 Y123.529 E38.45488
G1 X99.7 Y123.459
G0 F3600 X100.336 Y123.529
G1 F1500 X102.874 Y126.067 E38.63395
G1 X102.944 Y126.137
G0 F3600 X103.44 Y126.067
G1 F1500 X100.902 Y123.529 E38.81302
G1 X100.832 Y123.459
G0 F3600 X101.467 Y123.529
G1 F1500 X104.006 Y126.067 E38.99212
G1 X104.076 Y126.137
G0 F3600 X104.571 Y126.067
G1 F1500 X102.033 Y123.529 E39.17119
G1 X101.963 Y123.459
G0 F3600 X102.599 Y123.529
G1 F1500 X105.137 Y126.067 E39.35026
G1 X105.207 Y126.137
G0 F3600 X105.703 Y126.067
G1 F1500 X103.164 Y123.529 E39.52936
G1 X103.094 Y123.459
G0 F3600 X103.73 Y123.529
G1 F1500 X106.268 Y126.067 E39.70843
G1 X106.338 Y126.137
G0 F3600 X106.834 Y126.067
G1 F1500 X104.296 Y123.529 E39.8875
G1 X104.226 Y123.459
G0 F3600 X104.861 Y123.529
G1 F1500 X107.4 Y126.067 E40.06661
G1 X107.47 Y126.137
G0 F3600 X107.966 Y126.067
G1 F1500 X105.427 Y123.529 E40.24571
G1 X105.357 Y123.459
G0 F3600 X105.993 Y123.529
G1 F1500 X108.531 Y126.067 E40.42478
G1 X108.601 Y126.137
G0 F3600 X109.097 Y126.067
G1 F1500 X106.558 Y123.529 E40.60389
G1 X106.488 Y123.459
G0 F3600 X107.124 Y123.529
G1 F1500 X109.663 Y126.067 E40.78299
G1 X109.733 Y126.137
G0 F3600 X110.228 Y126.067
G1 F1500 X107.69 Y123.529 E40.96206
G1 X107.62 Y123.459
G0 F3600 X108.255 Y123.529
G1 F1500 X110.794 Y126.067 E41.14117
G1 X110.864 Y126.137
G0 F3600 X111.18 Y126.454
G1 F1500 X113.72 Y128.993 E41.32034
G1 X113.79 Y129.063
G0 F3600 X113.72 Y128.428
G1 F1500 X108.821 Y123.529 E41.66599
G1 X108.751 Y123.459
G0 F3600 X109.387 Y123.529
G1 F1500 X113.72 Y127.862 E41.97171
G1 X113.79 Y127.932
G0 F3600 X113.72 Y127.296
G1 F1500 X109.952 Y123.529 E42.23753
G1 X109.882 Y123.459
G0 F3600 X110.518 Y123.529
G1 F1500 X113.72 Y126.731 E42.46345
G1 X113.79 Y126.801
G0 F3600 X113.72 Y126.165
G1 F1500 X111.084 Y123.529 E42.64943
G1 X111.014 Y123.459
G0 F3600 X111.65 Y123.529
G1 F1500 X113.72 Y125.599 E42.79548
G1 X113.79 Y125.669
G0 F3600 X113.72 Y125.034
G1 F1500 X112.215 Y123.529 E42.90167
G1 X112.145 Y123.459
G0 F3600 X112.781 Y123.529
G1 F1500 X113.72 Y124.468 E42.96792
G1 X113.79 Y124.538
G0 F3600 X113.72 Y123.902
G1 F1500 X113.347 Y123.529 E42.99423
G0 F3600 X111.18 Y127.019
G1 F1500 X113.72 Y129.559 E43.17345
G1 X113.79 Y129.629
G0 F3600 X113.72 Y130.125
G1 F1500 X111.18 Y127.585 E43.35266
G1 X111.11 Y127.515
G0 F3600 X111.18 Y128.151
G1 F1500 X113.72 Y130.691 E43.53187
G1 X113.79 Y130.761
G0 F3600 X113.72 Y131.256
G1 F1500 X111.18 Y128.716 E43.71108
G1 X111.11 Y128.646
G0 F3600 X111.18 Y129.282
G1 F1500 X113.72 Y131.822 E43.89029
G1 X113.79 Y131.892
G0 F3600 X113.72 Y132.388
G1 F1500 X111.18 Y129.848 E44.0695
G1 X111.11 Y129.778
G0 F3600 X111.18 Y130.413
G1 F1500 X113.72 Y132.953 E44.24871
G1 X113.79 Y133.023
G0 F3600 X113.72 Y133.519
G1 F1500 X111.18 Y130.979 E44.42792
G1 X111.11 Y130.909
G0 F3600 X111.18 Y131.545
G1 F1500 X113.72 Y134.085 E44.60713
G1 X113.79 Y134.155
G0 F3600 X113.72 Y134.65
G1 F1500 X111.18 Y132.11 E44.78634
G1 X111.11 Y132.04
G0 F3600 X111.18 Y132.676
G1 F1500 X113.72 Y135.216 E44.96555
G1 X113.79 Y135.286
G0 F3600 X113.72 Y135.782
G1 F1500 X111.18 Y133.242 E45.14476
G1 X111.11 Y133.172
G0 F3600 X111.18 Y133.807
G1 F1500 X113.72 Y136.347 E45.32397
G1 X113.79 Y136.417
G0 F3600 X113.72 Y136.913
G1 F1500 X111.18 Y134.373 E45.50318
G1 X111.11 Y134.303
G0 F3600 X111.18 Y134.939
G1 F1500 X113.72 Y137.479 E45.6824
G1 X113.79 Y137.549
G0 F3600 X113.72 Y138.044
G1 F1500 X111.18 Y135.504 E45.86161
G1 X111.11 Y135.434
G0 F3600 X111.18 Y136.07
G1 F1500 X113.72 Y138.61 E46.04082
G1 X113.79 Y138.68
G0 F3600 X113.72 Y139.176
G1 F1500 X111.18 Y136.636 E46.22003
G1 X111.11 Y136.566
G0 F3600 X111.18 Y137.202
G1 F1500 X113.72 Y139.741 E46.3992
G1 X113.79 Y139.811
G0 F3600 X113.72 Y140.307
G1 F1500 X111.18 Y137.767 E46.57841
G1 X111.11 Y137.697
G0 F3600 X111.18 Y138.333
G1 F1500 X113.72 Y140.873 E46.75762
G1 X113.79 Y140.943
G0 F3600 X113.72 Y141.439
G1 F1500 X111.18 Y138.899 E46.93684
G1 X111.11 Y138.829
G0 F3600 X111.18 Y139.464
G1 F1500 X113.72 Y142.004 E47.11605
G1 X113.79 Y142.074
G0 F3600 X113.72 Y142.57
G1 F1500 X111.18 Y140.03 E47.29526
G1 X111.11 Y139.96
G0 F3600 X111.18 Y140.596
G1 F1500 X113.72 Y143.136 E47.47447
G1 X113.79 Y143.206
G0 F3600 X113.72 Y143.701
G1 F1500 X111.18 Y141.161 E47.65368
G1 X111.11 Y141.091
G0 F3600 X111.18 Y141.727
G1 F1500 X113.72 Y144.267 E47.83289
G1 X113.79 Y144.337
G0 F3600 X113.72 Y144.833
G1 F1500 X111.18 Y142.293 E48.0121
G1 X111.11 Y142.223
G0 F3600 X111.18 Y142.858
G1 F1500 X113.72 Y145.398 E48.19131
G1 X113.79 Y145.468
G0 F3600 X113.72 Y145.964
G1 F1500 X111.18 Y143.424 E48.37052
G1 X111.11 Y143.354
G0 F3600 X111.18 Y143.99
G1 F1500 X113.659 Y146.469 E48.54543
G1 X113.729 Y146.539
G0 F3600 X113.093 Y146.469
G1 F1500 X111.18 Y144.555 E48.68044
G1 X111.11 Y144.485
G0 F3600 X111.18 Y145.121
G1 F1500 X112.528 Y146.469 E48.77554
G1 X112.598 Y146.539
G0 F3600 X111.962 Y146.469
G1 F1500 X111.18 Y145.687 E48.83072
G1 X111.11 Y145.617
G0 F3600 X111.18 Y146.253
G1 F1500 X111.396 Y146.469 E48.84596
G0 F3600 X111.401 Y146.25
G0 X111.029 Y126.221
G0 X86.17 Y123.42
G0 X86.1 Y123.35
;TIME_ELAPSED:46.304581
;LAYER:1
M140 S65
M106 S255
G0 F5400 X86.1 Y123.35 Z0.5
;TYPE:WALL-INNER
G1 F2250 X113.9 Y123.35 E49.77059
G1 X113.9 Y146.65 E50.54555
G1 X110.8 Y146.65 E50.64866
G1 X110.8 Y126.45 E51.32051
G1 X89.2 Y126.45 E52.03893
G1 X89.2 Y146.65 E52.71079
G1 X86.1 Y146.65 E52.81389
G1 X86.1 Y123.35 E53.58885
G0 F5400 X86.17 Y123.42
G0 X89.1 Y126.85
G0 X89.6 Y126.85
;TYPE:WALL-OUTER
G1 F1500 X89.6 Y147.05 E54.26071
G1 X85.7 Y147.05 E54.39042
G1 X85.7 Y122.95 E55.19199
G1 X114.3 Y122.95 E56.14323
G1 X114.3 Y147.05 E56.9448
G1 X110.4 Y147.05 E57.07452
G1 X110.4 Y126.85 E57.74637
G1 X89.6 Y126.85 E58.43818
G0 F5400 X89.6 Y127.05
G0 X89.1 Y127.05
G0 X86.28 Y123.588
