;FLAVOR:Marlin
;TIME:3469
;Filament used: 3.22377m
;Layer height: 0.2
;Generated with Cura_SteamEngine 2.7.0
M190 S65
M104 S210
M109 S210
G21 ;metric values
G90 ;absolute positioning
M82 ;set extruder to absolute mode
M107 ;start with the fan off
G28 X0 Y0 ;move X/Y to min endstops
G28 Z0 ;move Z to min endstops
G1 Z15.0 F9000 ;move the platform down 15mm
G92 E0 ;zero the extruded length
G1 F200 E3 ;extrude 3mm of feed stock
G92 E0 ;zero the extruded length again
G1 F9000
;Put printing message on LCD screen
M117 Printing...
;LAYER_COUNT:35
;LAYER:0
M107
G0 F3600 X82.596 Y69.389 Z0.3
G0 X82.92 Y69.078
;TYPE:SKIRT
G1 F1500 X83.218 Y68.824 E0.01954
G1 X83.662 Y68.498 E0.04702
G1 X84.378 Y68.147 E0.0868
G1 X84.947 Y67.939 E0.11702
G1 X85.477 Y67.788 E0.14452
G1 X86.256 Y67.708 E0.18359
G1 X102.353 Y67.724 E0.98667
G1 X102.757 Y67.746 E1.00685
G1 X103.961 Y67.876 E1.06727
G1 X104.301 Y67.928 E1.08443
G1 X105.491 Y68.167 E1.14499
G1 X105.817 Y68.248 E1.16175
G1 X106.978 Y68.59 E1.22213
G1 X107.305 Y68.703 E1.23939
G1 X108.432 Y69.15 E1.29988
G1 X108.744 Y69.29 E1.31694
G1 X109.823 Y69.835 E1.37725
G1 X110.116 Y69.999 E1.394
G1 X111.146 Y70.639 E1.4545
G1 X111.428 Y70.833 E1.47157
G1 X112.395 Y71.562 E1.53199
G1 X112.662 Y71.783 E1.54928
G1 X113.558 Y72.597 E1.60968
G1 X113.794 Y72.832 E1.62629
G1 X114.617 Y73.723 E1.68681
G1 X114.84 Y73.987 E1.70405
G1 X115.577 Y74.947 E1.76443
G1 X115.772 Y75.226 E1.78141
G1 X116.42 Y76.248 E1.84178
G1 X116.59 Y76.544 E1.85881
G1 X117.145 Y77.622 E1.9193
G1 X117.286 Y77.929 E1.93616
G1 X117.743 Y79.052 E1.99665
G1 X117.858 Y79.378 E2.01389
G1 X118.21 Y80.535 E2.07423
G1 X118.294 Y80.86 E2.09098
G1 X118.543 Y82.045 E2.15139
G1 X118.598 Y82.384 E2.16852
G1 X118.739 Y83.588 E2.229
G1 X118.764 Y83.926 E2.24591
G1 X118.797 Y85.136 E2.3063
G1 X118.79 Y85.482 E2.32356
G1 X118.713 Y86.691 E2.384
G1 X118.677 Y87.025 E2.40076
G1 X118.493 Y88.224 E2.46128
G1 X118.425 Y88.562 E2.47848
G1 X118.134 Y89.736 E2.53883
G1 X118.039 Y90.06 E2.55567
G1 X117.644 Y91.206 E2.61615
G1 X117.495 Y91.573 E2.63591
G1 X115.349 Y96.177 E2.88933
G1 X113.08 Y101.794 E3.19156
G1 X111.174 Y107.531 E3.49316
G1 X109.625 Y113.398 E3.7959
G1 X108.46 Y119.299 E4.09598
G1 X107.661 Y125.298 E4.39792
G1 X107.24 Y131.325 E4.69934
G1 X107.199 Y137.368 E5.00083
G1 X107.537 Y143.402 E5.30234
G1 X108.254 Y149.403 E5.60386
G1 X109.342 Y155.318 E5.90391
G1 X110.81 Y161.207 E6.20671
G1 X112.639 Y166.973 E6.5085
G1 X114.829 Y172.615 E6.81044
G1 X117.684 Y178.915 E7.15552
G1 X117.859 Y179.378 E7.18021
G1 X118.211 Y180.536 E7.2406
G1 X118.294 Y180.86 E7.25728
G1 X118.543 Y182.045 E7.31769
G1 X118.598 Y182.384 E7.33483
G1 X118.739 Y183.588 E7.39531
G1 X118.764 Y183.926 E7.41222
G1 X118.797 Y185.136 E7.4726
G1 X118.79 Y185.482 E7.48987
G1 X118.713 Y186.691 E7.55031
G1 X118.677 Y187.025 E7.56707
G1 X118.493 Y188.224 E7.62759
G1 X118.425 Y188.562 E7.64479
G1 X118.134 Y189.736 E7.70513
G1 X118.039 Y190.06 E7.72198
G1 X117.644 Y191.206 E7.78245
G1 X117.518 Y191.523 E7.79947
G1 X117.023 Y192.627 E7.85983
G1 X116.871 Y192.93 E7.87675
G1 X116.278 Y193.988 E7.93725
G1 X116.094 Y194.284 E7.95464
G1 X115.408 Y195.281 E8.01502
G1 X115.206 Y195.548 E8.03172
G1 X114.434 Y196.482 E8.09218
G1 X114.205 Y196.735 E8.1092
G1 X113.352 Y197.596 E8.16967
G1 X113.097 Y197.831 E8.18697
G1 X112.168 Y198.612 E8.24752
G1 X111.902 Y198.816 E8.26424
G1 X110.912 Y199.509 E8.32453
G1 X110.624 Y199.692 E8.34156
G1 X109.573 Y200.295 E8.40201
G1 X109.266 Y200.453 E8.41924
G1 X108.165 Y200.958 E8.47967
G1 X107.849 Y201.086 E8.49668
G1 X106.705 Y201.491 E8.55722
G1 X106.383 Y201.589 E8.57401
G1 X105.212 Y201.89 E8.63434
G1 X104.876 Y201.961 E8.65147
G1 X103.678 Y202.156 E8.71202
G1 X103.341 Y202.195 E8.72895
G1 X102.134 Y202.282 E8.78932
G1 X101.852 Y202.292 E8.8034
G1 X86.191 Y202.253 E9.58473
G1 X85.641 Y202.212 E9.61225
G1 X84.921 Y202.031 E9.64929
G1 X84.549 Y201.898 E9.669
G1 X84.045 Y201.676 E9.69647
G1 X83.675 Y201.451 E9.71808
G1 X83.355 Y201.231 E9.73745
G1 X82.925 Y200.887 E9.76492
G1 X82.616 Y200.565 E9.78719
G1 X82.362 Y200.267 E9.80672
G1 X82.036 Y199.823 E9.83421
G1 X81.817 Y199.423 E9.85696
G1 X81.65 Y199.069 E9.87648
G1 X81.452 Y198.555 E9.90396
G1 X81.351 Y198.141 E9.92523
G1 X81.279 Y197.753 E9.94491
G1 X81.215 Y197.059 E9.97968
G1 X81.234 Y72.66 E16.18598
G1 X81.274 Y72.111 E16.21344
G1 X81.453 Y71.39 E16.2505
G1 X81.585 Y71.018 E16.27019
G1 X81.806 Y70.514 E16.29765
G1 X82.033 Y70.138 E16.31956
G1 X82.252 Y69.819 E16.33887
G1 X82.596 Y69.389 E16.36634
G1 X82.92 Y69.078 E16.38874
G0 F3600 X83.179 Y69.382
G1 F1500 X83.477 Y69.128 E16.40828
G1 X83.899 Y68.822 E16.43429
G1 X84.516 Y68.523 E16.46849
G1 X85.085 Y68.315 E16.49872
G1 X85.586 Y68.174 E16.52468
G1 X86.255 Y68.108 E16.55822
G1 X102.352 Y68.124 E17.3613
G1 X102.714 Y68.144 E17.37939
G1 X103.918 Y68.274 E17.43981
G1 X104.222 Y68.321 E17.45516
G1 X105.412 Y68.56 E17.51571
G1 X105.704 Y68.632 E17.53072
G1 X106.865 Y68.974 E17.5911
G1 X107.158 Y69.075 E17.60656
G1 X108.285 Y69.522 E17.66705
G1 X108.564 Y69.647 E17.6823
G1 X109.643 Y70.192 E17.74261
G1 X109.904 Y70.339 E17.75755
G1 X110.934 Y70.979 E17.81805
G1 X111.187 Y71.152 E17.83334
G1 X112.154 Y71.881 E17.89376
G1 X112.393 Y72.079 E17.90924
G1 X113.289 Y72.893 E17.96964
G1 X113.501 Y73.103 E17.98453
G1 X114.324 Y73.994 E18.04504
G1 X114.523 Y74.231 E18.06048
G1 X115.26 Y75.191 E18.12086
G1 X115.434 Y75.44 E18.13602
G1 X116.082 Y76.462 E18.19639
G1 X116.234 Y76.727 E18.21163
G1 X116.789 Y77.805 E18.27212
G1 X116.915 Y78.079 E18.28717
G1 X117.372 Y79.202 E18.34766
G1 X117.476 Y79.494 E18.36312
G1 X117.828 Y80.651 E18.42345
G1 X117.902 Y80.942 E18.43843
G1 X118.151 Y82.127 E18.49885
G1 X118.201 Y82.431 E18.51422
G1 X118.342 Y83.635 E18.57469
G1 X118.364 Y83.937 E18.5898
G1 X118.397 Y85.147 E18.65019
G1 X118.391 Y85.456 E18.66561
G1 X118.314 Y86.665 E18.72605
G1 X118.282 Y86.965 E18.7411
G1 X118.098 Y88.164 E18.80162
G1 X118.037 Y88.466 E18.81699
G1 X117.746 Y89.64 E18.87733
G1 X117.66 Y89.93 E18.89243
G1 X117.265 Y91.076 E18.9529
G1 X117.133 Y91.404 E18.97054
G1 X114.985 Y96.013 E19.22423
G1 X112.699 Y101.672 E19.52872
G1 X110.791 Y107.414 E19.83059
G1 X109.237 Y113.3 E20.13431
G1 X108.063 Y119.247 E20.43673
G1 X107.263 Y125.247 E20.73872
G1 X106.84 Y131.311 E21.04199
G1 X106.799 Y137.372 E21.34438
G1 X107.139 Y143.441 E21.64764
G1 X107.858 Y149.458 E21.94997
G1 X108.952 Y155.409 E22.25184
G1 X110.424 Y161.313 E22.55541
G1 X112.26 Y167.098 E22.85821
G1 X114.464 Y172.776 E23.16208
G1 X117.32 Y179.08 E23.50736
G1 X117.476 Y179.494 E23.52943
G1 X117.828 Y180.652 E23.58981
G1 X117.902 Y180.942 E23.60474
G1 X118.151 Y182.127 E23.66516
G1 X118.201 Y182.431 E23.68053
G1 X118.342 Y183.635 E23.741
G1 X118.364 Y183.937 E23.75611
G1 X118.397 Y185.147 E23.8165
G1 X118.391 Y185.456 E23.83192
G1 X118.314 Y186.665 E23.89236
G1 X118.282 Y186.965 E23.90741
G1 X118.098 Y188.164 E23.96793
G1 X118.037 Y188.466 E23.9833
G1 X117.746 Y189.64 E24.04364
G1 X117.66 Y189.93 E24.05874
G1 X117.265 Y191.076 E24.11921
G1 X117.153 Y191.359 E24.13439
G1 X116.658 Y192.463 E24.19476
G1 X116.522 Y192.734 E24.20988
G1 X115.929 Y193.792 E24.27039
G1 X115.764 Y194.057 E24.28597
G1 X115.078 Y195.054 E24.34635
G1 X114.898 Y195.293 E24.36127
G1 X114.126 Y196.227 E24.42173
G1 X113.92 Y196.454 E24.43702
G1 X113.067 Y197.315 E24.49749
G1 X112.84 Y197.525 E24.51291
G1 X111.911 Y198.306 E24.57347
G1 X111.673 Y198.488 E24.58841
G1 X110.683 Y199.181 E24.6487
G1 X110.425 Y199.345 E24.66395
G1 X109.374 Y199.948 E24.72441
G1 X109.099 Y200.089 E24.73982
G1 X107.998 Y200.594 E24.80026
G1 X107.716 Y200.709 E24.81545
G1 X106.572 Y201.114 E24.876
G1 X106.283 Y201.202 E24.89107
G1 X105.112 Y201.503 E24.95139
G1 X104.812 Y201.566 E24.96668
G1 X103.614 Y201.761 E25.02724
G1 X103.312 Y201.796 E25.0424
G1 X102.105 Y201.883 E25.10278
G1 X101.853 Y201.892 E25.11536
G1 X86.192 Y201.853 E25.89669
G1 X85.672 Y201.812 E25.92271
G1 X85.055 Y201.655 E25.95448
G1 X84.683 Y201.522 E25.97419
G1 X84.208 Y201.309 E26.00016
G1 X83.902 Y201.122 E26.01805
G1 X83.582 Y200.902 E26.03742
G1 X83.176 Y200.574 E26.06346
G1 X82.92 Y200.306 E26.08195
G1 X82.666 Y200.008 E26.10149
G1 X82.36 Y199.586 E26.1275
G1 X82.179 Y199.253 E26.1464
G1 X82.012 Y198.899 E26.16593
G1 X81.826 Y198.412 E26.19194
G1 X81.744 Y198.068 E26.20958
G1 X81.672 Y197.68 E26.22927
G1 X81.615 Y197.059 E26.26038
G1 X81.634 Y72.66 E32.46667
G1 X81.674 Y72.141 E32.49264
G1 X81.83 Y71.524 E32.5244
G1 X81.962 Y71.152 E32.54409
G1 X82.173 Y70.676 E32.57006
G1 X82.363 Y70.365 E32.58825
G1 X82.582 Y70.046 E32.60755
G1 X82.909 Y69.64 E32.63356
G1 X83.179 Y69.382 E32.65219
G0 F3600 X83.439 Y69.687
G1 F1500 X83.737 Y69.433 E32.67173
G1 X84.134 Y69.147 E32.69614
G1 X84.653 Y68.898 E32.72486
G1 X85.222 Y68.69 E32.75508
G1 X85.694 Y68.56 E32.77951
G1 X86.255 Y68.508 E32.80761
G1 X102.352 Y68.524 E33.6107
G1 X102.671 Y68.541 E33.62663
G1 X103.875 Y68.671 E33.68705
G1 X104.144 Y68.713 E33.70063
G1 X105.334 Y68.952 E33.76119
G1 X105.591 Y69.015 E33.77439
G1 X106.752 Y69.357 E33.83477
G1 X107.01 Y69.446 E33.84839
G1 X108.137 Y69.893 E33.90888
G1 X108.384 Y70.004 E33.92239
G1 X109.463 Y70.549 E33.9827
G1 X109.693 Y70.679 E33.99588
G1 X110.723 Y71.319 E34.05638
G1 X110.946 Y71.471 E34.06984
G1 X111.913 Y72.2 E34.13026
G1 X112.124 Y72.376 E34.14397
G1 X113.02 Y73.19 E34.20436
G1 X113.207 Y73.374 E34.21745
G1 X114.03 Y74.265 E34.27796
G1 X114.206 Y74.474 E34.29159
G1 X114.943 Y75.434 E34.35197
G1 X115.097 Y75.655 E34.36541
G1 X115.745 Y76.677 E34.42579
G1 X115.878 Y76.91 E34.43917
G1 X116.433 Y77.988 E34.49966
G1 X116.545 Y78.23 E34.51297
G1 X117.002 Y79.353 E34.57345
G1 X117.093 Y79.611 E34.5871
G1 X117.445 Y80.768 E34.64744
G1 X117.511 Y81.024 E34.66063
G1 X117.76 Y82.209 E34.72104
G1 X117.804 Y82.477 E34.73459
G1 X117.945 Y83.681 E34.79507
G1 X117.964 Y83.948 E34.80842
G1 X117.997 Y85.158 E34.86881
G1 X117.992 Y85.431 E34.88243
G1 X117.915 Y86.64 E34.94287
G1 X117.886 Y86.904 E34.95612
G1 X117.702 Y88.103 E35.01664
G1 X117.649 Y88.37 E35.03022
G1 X117.358 Y89.544 E35.09057
G1 X117.282 Y89.8 E35.10389
G1 X116.887 Y90.946 E35.16436
G1 X116.77 Y91.235 E35.17992
G1 X114.619 Y95.849 E35.4339
G1 X112.328 Y101.523 E35.73918
G1 X110.409 Y107.298 E36.04278
G1 X108.843 Y113.229 E36.34882
G1 X107.671 Y119.167 E36.65079
G1 X106.864 Y125.214 E36.95515
G1 X106.44 Y131.296 E37.25932
G1 X106.399 Y137.392 E37.56345
G1 X106.739 Y143.462 E37.86676
G1 X107.462 Y149.514 E38.17084
G1 X108.562 Y155.496 E38.47429
G1 X110.039 Y161.422 E38.77899
G1 X111.883 Y167.233 E39.08314
G1 X114.094 Y172.928 E39.38793
G1 X116.956 Y179.245 E39.73392
G1 X117.093 Y179.611 E39.75342
G1 X117.445 Y180.769 E39.8138
G1 X117.511 Y181.024 E39.82695
G1 X117.76 Y182.209 E39.88736
G1 X117.804 Y182.477 E39.90091
G1 X117.945 Y183.681 E39.96138
G1 X117.964 Y183.948 E39.97474
G1 X117.997 Y185.158 E40.03513
G1 X117.992 Y185.431 E40.04875
G1 X117.915 Y186.64 E40.10919
G1 X117.886 Y186.904 E40.12244
G1 X117.702 Y188.103 E40.18296
G1 X117.649 Y188.37 E40.19654
G1 X117.358 Y189.544 E40.25688
G1 X117.282 Y189.8 E40.27021
G1 X116.887 Y190.946 E40.33068
G1 X116.788 Y191.195 E40.34405
G1 X116.293 Y192.299 E40.40441
G1 X116.173 Y192.539 E40.4178
G1 X115.58 Y193.597 E40.47831
G1 X115.434 Y193.831 E40.49207
G1 X114.748 Y194.828 E40.55245
G1 X114.589 Y195.038 E40.56559
G1 X113.817 Y195.972 E40.62604
G1 X113.636 Y196.172 E40.6395
G1 X112.783 Y197.033 E40.69997
G1 X112.583 Y197.218 E40.71356
G1 X111.654 Y197.999 E40.77411
G1 X111.443 Y198.161 E40.78738
G1 X110.453 Y198.854 E40.84767
G1 X110.226 Y198.998 E40.86108
G1 X109.175 Y199.601 E40.92153
G1 X108.933 Y199.726 E40.93512
G1 X107.832 Y200.231 E40.99555
G1 X107.582 Y200.332 E41.00901
G1 X106.438 Y200.737 E41.06955
G1 X106.184 Y200.815 E41.08281
G1 X105.013 Y201.116 E41.14313
G1 X104.748 Y201.171 E41.15663
G1 X103.55 Y201.366 E41.21718
G1 X103.284 Y201.397 E41.23055
G1 X102.077 Y201.484 E41.29092
G1 X101.854 Y201.492 E41.30205
G1 X86.193 Y201.453 E42.08338
G1 X85.705 Y201.412 E42.10782
G1 X85.19 Y201.278 E42.13437
G1 X84.818 Y201.145 E42.15408
G1 X84.372 Y200.943 E42.1785
G1 X84.128 Y200.792 E42.19282
G1 X83.808 Y200.572 E42.21219
G1 X83.429 Y200.263 E42.23659
G1 X83.225 Y200.046 E42.25145
G1 X82.971 Y199.748 E42.27098
G1 X82.685 Y199.351 E42.29539
G1 X82.541 Y199.082 E42.31062
G1 X82.374 Y198.728 E42.33014
G1 X82.202 Y198.27 E42.35455
G1 X82.137 Y197.995 E42.36865
G1 X82.065 Y197.607 E42.38834
G1 X82.015 Y197.06 E42.41574
G1 X82.034 Y72.661 E48.62203
G1 X82.074 Y72.173 E48.64646
G1 X82.207 Y71.658 E48.673
G1 X82.339 Y71.286 E48.69269
G1 X82.539 Y70.839 E48.71712
G1 X82.693 Y70.591 E48.73168
G1 X82.912 Y70.272 E48.75099
G1 X83.221 Y69.892 E48.77542
G1 X83.439 Y69.687 E48.79035
G0 F3600 X83.698 Y69.991
G1 F1500 X83.996 Y69.737 E48.80989
G1 X84.368 Y69.473 E48.83265
G1 X84.79 Y69.274 E48.85592
G1 X85.359 Y69.066 E48.88615
G1 X85.799 Y68.948 E48.90888
G1 X86.255 Y68.908 E48.93171
G1 X102.352 Y68.924 E49.7348
G1 X102.628 Y68.939 E49.74859
G1 X103.832 Y69.069 E49.809
G1 X104.065 Y69.105 E49.82077
G1 X105.255 Y69.344 E49.88132
G1 X105.478 Y69.399 E49.89278
G1 X106.639 Y69.741 E49.95316
G1 X106.863 Y69.818 E49.96498
G1 X107.99 Y70.265 E50.02547
G1 X108.203 Y70.361 E50.03712
G1 X109.282 Y70.906 E50.09743
G1 X109.482 Y71.019 E50.10889
G1 X110.512 Y71.659 E50.16939
G1 X110.705 Y71.791 E50.18106
G1 X111.672 Y72.52 E50.24147
G1 X111.855 Y72.672 E50.25334
G1 X112.751 Y73.486 E50.31374
G1 X112.913 Y73.646 E50.3251
G1 X113.736 Y74.537 E50.38561
G1 X113.888 Y74.718 E50.3974
G1 X114.625 Y75.678 E50.45778
G1 X114.759 Y75.869 E50.46942
G1 X115.407 Y76.891 E50.5298
G1 X115.523 Y77.093 E50.54142
G1 X116.078 Y78.171 E50.60191
G1 X116.174 Y78.381 E50.61343
G1 X116.631 Y79.504 E50.67392
G1 X116.71 Y79.727 E50.68572
G1 X117.062 Y80.884 E50.74605
G1 X117.119 Y81.106 E50.75749
G1 X117.368 Y82.291 E50.8179
G1 X117.406 Y82.524 E50.82968
G1 X117.547 Y83.728 E50.89016
G1 X117.564 Y83.959 E50.90171
G1 X117.597 Y85.169 E50.9621
G1 X117.593 Y85.405 E50.97388
G1 X117.516 Y86.614 E51.03432
G1 X117.491 Y86.843 E51.04581
G1 X117.307 Y88.042 E51.10633
G1 X117.261 Y88.274 E51.11813
G1 X116.97 Y89.448 E51.17847
G1 X116.904 Y89.669 E51.18998
G1 X116.509 Y90.815 E51.25045
G1 X116.408 Y91.066 E51.26395
G1 X114.25 Y95.695 E51.51876
G1 X111.949 Y101.393 E51.82534
G1 X110.025 Y107.182 E52.12968
G1 X108.455 Y113.128 E52.4365
G1 X107.273 Y119.116 E52.741
G1 X106.467 Y125.167 E53.04556
G1 X106.04 Y131.281 E53.35133
G1 X105.999 Y137.395 E53.65636
G1 X106.341 Y143.502 E53.96152
G1 X107.068 Y149.587 E54.26726
G1 X108.168 Y155.569 E54.57071
G1 X109.657 Y161.543 E54.87787
G1 X111.502 Y167.358 E55.18223
G1 X113.727 Y173.089 E55.48895
G1 X116.591 Y179.41 E55.83516
G1 X116.711 Y179.727 E55.85207
G1 X117.063 Y180.885 E55.91246
G1 X117.119 Y181.106 E55.92383
G1 X117.368 Y182.291 E55.98424
G1 X117.406 Y182.524 E55.99602
G1 X117.547 Y183.728 E56.0565
G1 X117.564 Y183.959 E56.06805
G1 X117.597 Y185.169 E56.12844
G1 X117.593 Y185.405 E56.14022
G1 X117.516 Y186.614 E56.20066
G1 X117.491 Y186.843 E56.21215
G1 X117.307 Y188.042 E56.27267
G1 X117.261 Y188.274 E56.28447
G1 X116.97 Y189.448 E56.34481
G1 X116.904 Y189.669 E56.35632
G1 X116.509 Y190.815 E56.4168
G1 X116.423 Y191.032 E56.42844
G1 X115.928 Y192.136 E56.4888
G1 X115.824 Y192.343 E56.50036
G1 X115.231 Y193.401 E56.56087
G1 X115.105 Y193.604 E56.57279
G1 X114.419 Y194.601 E56.63317
G1 X114.281 Y194.783 E56.64456
G1 X113.509 Y195.717 E56.70502
G1 X113.352 Y195.891 E56.71671
G1 X112.499 Y196.752 E56.77718
G1 X112.325 Y196.912 E56.78897
G1 X111.396 Y197.693 E56.84952
