;FLAVOR:Marlin
;TIME:3368
;Filament used: 3.09803m
;Layer height: 0.2
;Generated with Cura_SteamEngine 2.7.0
M190 S65
M104 S210
M109 S210
G21 ;metric values
G90 ;absolute positioning
M82 ;set extruder to absolute mode
M107 ;start with the fan off
G28 X0 Y0 ;move X/Y to min endstops
G28 Z0 ;move Z to min endstops
G1 Z15.0 F9000 ;move the platform down 15mm
G92 E0 ;zero the extruded length
G1 F200 E3 ;extrude 3mm of feed stock
G92 E0 ;zero the extruded length again
G1 F9000
;Put printing message on LCD screen
M117 Printing...
;LAYER_COUNT:35
;LAYER:0
M107
G0 F3600 X82.701 Y69.591 Z0.3
G0 X82.992 Y69.3
;TYPE:SKIRT
G1 F1500 X83.269 Y69.054 E0.01848
G1 X83.696 Y68.729 E0.04525
G1 X84.057 Y68.523 E0.06599
G1 X84.421 Y68.342 E0.08627
G1 X84.918 Y68.139 E0.11306
G1 X85.439 Y68.013 E0.1398
G1 X85.861 Y67.969 E0.16097
G1 X87.122 Y67.912 E0.22394
G1 X87.287 Y67.908 E0.23218
G1 X101.753 Y67.915 E0.95389
G1 X101.984 Y67.923 E0.96542
G1 X103.22 Y68.003 E1.02721
G1 X103.601 Y68.048 E1.04635
G1 X105.283 Y68.339 E1.13151
G1 X105.67 Y68.428 E1.15133
G1 X106.824 Y68.762 E1.21126
G1 X107.13 Y68.866 E1.22739
G1 X108.257 Y69.305 E1.28773
G1 X108.552 Y69.435 E1.30381
G1 X109.663 Y69.987 E1.3657
G1 X109.951 Y70.147 E1.38214
G1 X110.969 Y70.775 E1.44182
G1 X111.231 Y70.953 E1.45762
G1 X112.191 Y71.669 E1.51737
G1 X112.444 Y71.876 E1.53368
G1 X113.362 Y72.7 E1.59522
G1 X113.591 Y72.925 E1.61124
G1 X114.392 Y73.785 E1.66987
G1 X114.6 Y74.029 E1.68586
G1 X115.352 Y74.996 E1.74698
G1 X115.539 Y75.261 E1.76316
G1 X116.197 Y76.286 E1.82393
G1 X116.359 Y76.565 E1.84002
G1 X116.915 Y77.63 E1.89996
G1 X117.051 Y77.92 E1.91594
G1 X117.513 Y79.037 E1.97625
G1 X117.625 Y79.349 E1.99279
G1 X117.987 Y80.519 E2.05389
G1 X118.067 Y80.826 E2.06972
G1 X118.319 Y81.997 E2.12947
G1 X118.373 Y82.315 E2.14557
G1 X118.522 Y83.529 E2.20659
G1 X118.547 Y83.853 E2.2228
G1 X118.585 Y85.044 E2.28225
G1 X118.581 Y85.366 E2.29832
G1 X118.51 Y86.597 E2.35983
G1 X118.459 Y87.03 E2.38158
G1 X118.111 Y88.955 E2.47918
G1 X118.016 Y89.351 E2.4995
G1 X117.676 Y90.483 E2.55846
G1 X117.527 Y90.888 E2.57999
G1 X114.141 Y98.637 E3.00189
G1 X112.139 Y104.005 E3.28772
G1 X110.54 Y109.193 E3.55856
G1 X109.218 Y114.533 E3.83302
G1 X108.674 Y117.212 E3.9694
G1 X108.223 Y119.821 E4.1015
G1 X107.514 Y125.274 E4.37584
G1 X107.119 Y130.687 E4.64661
G1 X107.03 Y136.165 E4.91995
G1 X107.249 Y141.604 E5.19152
G1 X107.775 Y147.02 E5.463
G1 X108.615 Y152.447 E5.73698
G1 X109.13 Y155.051 E5.86941
G1 X110.427 Y160.385 E6.14327
G1 X112.012 Y165.608 E6.41559
G1 X113.891 Y170.731 E6.68782
G1 X114.932 Y173.238 E6.82325
G1 X117.323 Y178.533 E7.1131
G1 X117.497 Y179.005 E7.1382
G1 X118.17 Y181.307 E7.25786
G1 X118.272 Y181.761 E7.28107
G1 X118.459 Y182.957 E7.34146
G1 X118.494 Y183.276 E7.35747
G1 X118.574 Y184.488 E7.41807
G1 X118.581 Y184.815 E7.43439
G1 X118.551 Y186.017 E7.49438
G1 X118.522 Y186.387 E7.51289
G1 X118.311 Y188.025 E7.59529
G1 X118.214 Y188.512 E7.62006
G1 X117.701 Y190.394 E7.71738
G1 X117.569 Y190.787 E7.73807
G1 X117.118 Y191.912 E7.79853
G1 X116.985 Y192.206 E7.81463
G1 X116.425 Y193.305 E7.87617
G1 X116.261 Y193.592 E7.89266
G1 X115.616 Y194.614 E7.95295
G1 X115.434 Y194.877 E7.96891
G1 X114.7 Y195.839 E8.02928
G1 X114.487 Y196.092 E8.04578
G1 X113.648 Y197.004 E8.1076
G1 X113.422 Y197.229 E8.12351
G1 X112.554 Y198.019 E8.18207
G1 X112.311 Y198.222 E8.19787
G1 X111.369 Y198.939 E8.25693
G1 X111.104 Y199.122 E8.273
G1 X110.06 Y199.778 E8.33451
G1 X109.772 Y199.941 E8.35102
G1 X108.673 Y200.498 E8.41249
G1 X108.328 Y200.651 E8.43132
G1 X106.767 Y201.246 E8.51466
G1 X106.296 Y201.389 E8.53922
G1 X104.432 Y201.82 E8.63467
G1 X103.928 Y201.9 E8.66013
G1 X101.845 Y202.078 E8.76443
G1 X101.533 Y202.091 E8.78001
G1 X86.462 Y202.069 E9.5319
G1 X85.927 Y202.028 E9.55867
G1 X85.603 Y201.964 E9.57515
G1 X84.988 Y201.812 E9.60676
G1 X84.479 Y201.645 E9.63348
G1 X84 Y201.404 E9.66023
G1 X83.492 Y201.035 E9.69156
G1 X82.922 Y200.54 E9.72922
G1 X82.544 Y200.159 E9.756
G1 X82.227 Y199.727 E9.78273
G1 X81.89 Y199.027 E9.82149
G1 X81.646 Y198.34 E9.85786
G1 X81.504 Y197.823 E9.88461
G1 X81.438 Y197.136 E9.91904
G1 X81.416 Y72.958 E16.11431
G1 X81.456 Y72.423 E16.14107
G1 X81.509 Y72.146 E16.15514
G1 X81.654 Y71.519 E16.18725
G1 X81.813 Y71.007 E16.214
G1 X82.152 Y70.354 E16.2507
G1 X82.374 Y70.016 E16.27088
G1 X82.701 Y69.591 E16.29763
G1 X82.992 Y69.3 E16.31816
G0 F3600 X83.258 Y69.599
G1 F1500 X83.535 Y69.353 E16.33665
G1 X83.938 Y69.049 E16.36183
G1 X84.235 Y68.881 E16.37886
G1 X84.599 Y68.7 E16.39914
G1 X85.068 Y68.511 E16.42436
G1 X85.561 Y68.399 E16.44959
G1 X85.88 Y68.368 E16.46558
G1 X87.141 Y68.311 E16.52855
G1 X87.287 Y68.308 E16.53584
G1 X101.753 Y68.315 E17.25755
G1 X101.958 Y68.322 E17.26778
G1 X103.194 Y68.402 E17.32958
G1 X103.533 Y68.442 E17.34661
G1 X105.215 Y68.733 E17.43177
G1 X105.559 Y68.812 E17.44938
G1 X106.713 Y69.146 E17.50931
G1 X106.984 Y69.238 E17.52359
G1 X108.111 Y69.677 E17.58393
G1 X108.374 Y69.793 E17.59827
G1 X109.485 Y70.345 E17.66017
G1 X109.741 Y70.488 E17.6748
G1 X110.759 Y71.116 E17.73447
G1 X110.992 Y71.274 E17.74852
G1 X111.952 Y71.99 E17.80826
G1 X112.177 Y72.174 E17.82276
G1 X113.095 Y72.998 E17.88431
G1 X113.299 Y73.198 E17.89856
G1 X114.1 Y74.058 E17.95719
G1 X114.284 Y74.275 E17.97139
G1 X115.036 Y75.242 E18.0325
G1 X115.203 Y75.477 E18.04689
G1 X115.861 Y76.502 E18.10765
G1 X116.005 Y76.75 E18.12196
G1 X116.561 Y77.815 E18.1819
G1 X116.681 Y78.073 E18.19609
G1 X117.143 Y79.19 E18.2564
G1 X117.243 Y79.467 E18.27109
G1 X117.605 Y80.637 E18.3322
G1 X117.676 Y80.91 E18.34627
G1 X117.928 Y82.081 E18.40603
G1 X117.976 Y82.364 E18.42035
G1 X118.125 Y83.578 E18.48137
G1 X118.147 Y83.866 E18.49578
G1 X118.185 Y85.057 E18.55523
G1 X118.182 Y85.343 E18.5695
G1 X118.111 Y86.574 E18.63101
G1 X118.065 Y86.959 E18.65036
G1 X117.717 Y88.884 E18.74795
G1 X117.633 Y89.236 E18.76601
G1 X117.293 Y90.368 E18.82498
G1 X117.16 Y90.728 E18.84412
G1 X113.771 Y98.486 E19.26649
G1 X111.765 Y103.863 E19.55281
G1 X110.149 Y109.106 E19.82653
G1 X108.831 Y114.431 E20.10021
G1 X108.282 Y117.13 E20.23762
G1 X107.825 Y119.775 E20.37154
G1 X107.116 Y125.227 E20.64583
G1 X106.719 Y130.669 E20.91805
G1 X106.629 Y136.174 E21.19273
G1 X106.849 Y141.623 E21.46481
G1 X107.38 Y147.087 E21.73869
G1 X108.219 Y152.508 E22.01237
G1 X108.739 Y155.137 E22.14607
G1 X110.04 Y160.487 E22.42076
G1 X111.635 Y165.741 E22.6947
G1 X113.513 Y170.861 E22.96677
G1 X114.574 Y173.418 E23.10489
G1 X116.958 Y178.698 E23.39392
G1 X117.113 Y179.117 E23.41621
G1 X117.786 Y181.419 E23.53586
G1 X117.877 Y181.823 E23.55652
G1 X118.064 Y183.019 E23.61691
G1 X118.095 Y183.302 E23.63112
G1 X118.175 Y184.514 E23.69172
G1 X118.181 Y184.805 E23.70624
G1 X118.151 Y186.007 E23.76622
G1 X118.126 Y186.336 E23.78269
G1 X117.915 Y187.974 E23.86508
G1 X117.828 Y188.407 E23.88711
G1 X117.315 Y190.289 E23.98443
G1 X117.198 Y190.638 E24.0028
G1 X116.747 Y191.763 E24.06327
G1 X116.628 Y192.025 E24.07762
G1 X116.068 Y193.124 E24.13916
G1 X115.923 Y193.379 E24.15379
G1 X115.278 Y194.401 E24.21409
G1 X115.116 Y194.634 E24.22825
G1 X114.382 Y195.596 E24.28862
G1 X114.193 Y195.822 E24.30331
G1 X113.354 Y196.734 E24.36514
G1 X113.153 Y196.934 E24.37928
G1 X112.285 Y197.724 E24.43784
G1 X112.069 Y197.903 E24.45184
G1 X111.127 Y198.62 E24.5109
G1 X110.892 Y198.784 E24.52519
G1 X109.848 Y199.44 E24.58671
G1 X109.592 Y199.584 E24.60136
G1 X108.493 Y200.141 E24.66283
G1 X108.186 Y200.277 E24.67958
G1 X106.625 Y200.872 E24.76293
G1 X106.206 Y201 E24.78479
G1 X104.342 Y201.431 E24.88023
G1 X103.893 Y201.501 E24.90291
G1 X101.81 Y201.679 E25.00721
G1 X101.533 Y201.691 E25.02104
G1 X86.462 Y201.669 E25.77293
G1 X85.958 Y201.628 E25.79816
G1 X85.699 Y201.576 E25.81134
G1 X85.084 Y201.424 E25.84295
G1 X84.605 Y201.264 E25.86814
G1 X84.156 Y201.031 E25.89338
G1 X83.754 Y200.733 E25.91834
G1 X83.184 Y200.238 E25.95601
G1 X82.829 Y199.877 E25.98127
G1 X82.536 Y199.466 E26.00645
G1 X82.267 Y198.893 E26.03803
G1 X82.023 Y198.206 E26.0744
G1 X81.892 Y197.718 E26.09961
G1 X81.838 Y197.136 E26.12877
G1 X81.816 Y72.958 E32.32404
G1 X81.898 Y72.236 E32.36029
G1 X82.043 Y71.609 E32.3924
G1 X82.196 Y71.127 E32.41763
G1 X82.486 Y70.573 E32.44882
G1 X82.708 Y70.235 E32.469
G1 X83.018 Y69.836 E32.49421
G1 X83.258 Y69.599 E32.51103
G1 F1500 E26.01103
G0 F3600 X85.017 Y71.412
G0 X85.85 Y72.388
G0 X85.91 Y72.441
G0 X85.836 Y72.375
;TYPE:WALL-INNER
G1 F1500 E32.51103
G1 X86.015 Y72.222 E32.52278
G1 X86.225 Y72.123 E32.53437
G1 X86.305 Y72.108 E32.53843
G1 X101.488 Y72.108 E33.29591
G1 X102.309 Y72.124 E33.33688
G1 X103.47 Y72.249 E33.39513
G1 X104.589 Y72.473 E33.45207
G1 X105.712 Y72.805 E33.51049
G1 X106.784 Y73.229 E33.56801
G1 X107.814 Y73.749 E33.62557
G1 X108.807 Y74.366 E33.6839
G1 X109.725 Y75.06 E33.74131
G1 X110.576 Y75.831 E33.7986
G1 X111.365 Y76.684 E33.85657
G1 X112.077 Y77.612 E33.91492
G1 X112.687 Y78.577 E33.97188
G1 X113.224 Y79.618 E34.03032
G1 X113.657 Y80.685 E34.08777
G1 X113.992 Y81.782 E34.14499
G1 X114.232 Y82.931 E34.20355
G1 X114.365 Y84.07 E34.26077
G1 X114.398 Y85.224 E34.31836
G1 X114.323 Y86.389 E34.3766
G1 X114.148 Y87.533 E34.43434
G1 X113.87 Y88.652 E34.49187
G1 X113.494 Y89.745 E34.54953
G1 X113.012 Y90.817 E34.60817
G1 X111.314 Y94.42 E34.80689
G1 X108.948 Y100.278 E35.12208
G1 X106.954 Y106.276 E35.43743
G1 X105.342 Y112.386 E35.75269
G1 X104.116 Y118.586 E36.068
G1 X103.281 Y124.851 E36.38332
G1 X102.841 Y131.155 E36.6986
G1 X102.798 Y137.475 E37.01391
G1 X103.152 Y143.784 E37.32916
G1 X103.901 Y150.06 E37.64449
G1 X105.044 Y156.276 E37.95981
G1 X106.574 Y162.408 E38.27512
G1 X108.486 Y168.43 E38.59033
G1 X110.773 Y174.322 E38.90566
G1 X113.412 Y180.033 E39.21953
G1 X113.653 Y180.671 E39.25355
G1 X113.992 Y181.782 E39.3115
G1 X114.232 Y182.931 E39.37006
G1 X114.365 Y184.07 E39.42728
G1 X114.398 Y185.224 E39.48487
G1 X114.323 Y186.389 E39.54311
G1 X114.148 Y187.533 E39.60085
G1 X113.87 Y188.652 E39.65838
G1 X113.493 Y189.745 E39.71606
G1 X113.02 Y190.801 E39.77379
G1 X112.455 Y191.808 E39.83139
G1 X111.79 Y192.776 E39.88999
G1 X111.068 Y193.649 E39.94651
G1 X110.244 Y194.48 E40.00489
G1 X109.358 Y195.226 E40.06268
G1 X108.405 Y195.892 E40.12068
G1 X107.412 Y196.461 E40.17778
G1 X106.345 Y196.951 E40.23636
G1 X105.267 Y197.333 E40.29341
G1 X104.139 Y197.623 E40.35152
G1 X102.997 Y197.809 E40.40925
G1 X101.846 Y197.892 E40.46682
G1 X86.612 Y197.884 E41.22685
G1 X86.326 Y197.861 E41.24116
G1 X86.106 Y197.783 E41.25281
G1 X85.914 Y197.65 E41.26446
G1 X85.761 Y197.471 E41.27621
G1 X85.662 Y197.26 E41.28783
G1 X85.615 Y197.008 E41.30062
G1 X85.602 Y73.072 E47.48382
G1 X85.626 Y72.786 E47.49813
G1 X85.703 Y72.568 E47.50967
G1 X85.836 Y72.375 E47.52136
G0 F3600 X85.91 Y72.441
G0 X85.701 Y73.076
G0 X85.202 Y73.051
;TYPE:WALL-OUTER
G1 F1500 X85.231 Y72.702 E47.53883
G1 X85.343 Y72.386 E47.55556
G1 X85.538 Y72.103 E47.57271
G1 X85.794 Y71.885 E47.58948
G1 X86.102 Y71.739 E47.60649
G1 X86.27 Y71.708 E47.61501
G1 X101.496 Y71.708 E48.37464
G1 X102.337 Y71.724 E48.4166
G1 X103.526 Y71.852 E48.47627
G1 X104.689 Y72.085 E48.53544
G1 X105.84 Y72.425 E48.59532
G1 X106.946 Y72.863 E48.65467
G1 X108.013 Y73.402 E48.71431
G1 X109.03 Y74.034 E48.77404
G1 X109.982 Y74.753 E48.83356
G1 X110.857 Y75.546 E48.89248
G1 X111.672 Y76.428 E48.95239
G1 X112.405 Y77.383 E49.01245
G1 X113.036 Y78.38 E49.07132
G1 X113.589 Y79.453 E49.13154
G1 X114.035 Y80.55 E49.19062
G1 X114.38 Y81.683 E49.24971
G1 X114.626 Y82.858 E49.3096
G1 X114.765 Y84.047 E49.36932
G1 X114.798 Y85.228 E49.42827
G1 X114.721 Y86.43 E49.48836
G1 X114.54 Y87.612 E49.54802
G1 X114.254 Y88.766 E49.60733
G1 X113.864 Y89.897 E49.66702
G1 X113.374 Y90.988 E49.72668
G1 X111.681 Y94.58 E49.9248
G1 X109.324 Y100.416 E50.23881
G1 X107.338 Y106.39 E50.55289
G1 X105.732 Y112.476 E50.86691
G1 X104.511 Y118.651 E51.18095
G1 X103.679 Y124.891 E51.49502
G1 X103.241 Y131.17 E51.80904
G1 X103.198 Y137.465 E52.12311
G1 X103.551 Y143.749 E52.43711
G1 X104.297 Y150 E52.75119
G1 X105.435 Y156.191 E53.06523
G1 X106.959 Y162.299 E53.37931
G1 X108.863 Y168.297 E53.69326
G1 X111.141 Y174.166 E54.00735
G1 X113.779 Y179.874 E54.32107
G1 X114.036 Y180.554 E54.35733
G1 X114.38 Y181.683 E54.41622
G1 X114.626 Y182.858 E54.47611
G1 X114.765 Y184.047 E54.53583
G1 X114.798 Y185.228 E54.59477
G1 X114.721 Y186.43 E54.65487
G1 X114.54 Y187.612 E54.71452
G1 X114.254 Y188.766 E54.77384
G1 X113.864 Y189.897 E54.83352
G1 X113.377 Y190.982 E54.89286
G1 X112.794 Y192.022 E54.95234
G1 X112.114 Y193.011 E55.01222
G1 X111.362 Y193.921 E55.07112
G1 X110.515 Y194.775 E55.13112
G1 X109.604 Y195.542 E55.19054
G1 X108.62 Y196.23 E55.25044
G1 X107.591 Y196.82 E55.30961
G1 X106.5 Y197.321 E55.36951
G1 X105.388 Y197.715 E55.42837
G1 X104.216 Y198.016 E55.48874
G1 X103.045 Y198.207 E55.54793
G1 X101.861 Y198.292 E55.60715
G1 X86.592 Y198.284 E56.36893
G1 X86.241 Y198.256 E56.38649
G1 X85.925 Y198.143 E56.40324
G1 X85.642 Y197.948 E56.42038
G1 X85.424 Y197.692 E56.43716
G1 X85.278 Y197.384 E56.45416
G1 X85.215 Y197.042 E56.47151
G1 X85.202 Y73.051 E62.65745
G0 F3600 X85.218 Y72.852
G0 X85.716 Y72.894
G0 X108.049 Y74.108
;TYPE:SKIN
G1 F1500 X112.396 Y78.455 E62.96415
G1 X112.466 Y78.525
G0 F3600 X113.048 Y79.673
G1 F1500 X106.83 Y73.454 E63.4029
G1 X106.76 Y73.384
G0 F3600 X105.872 Y73.062
G1 F1500 X113.441 Y80.631 E63.93693
G1 X113.511 Y80.701
G0 F3600 X113.706 Y81.462
G1 F1500 X105.038 Y72.794 E64.54851
G1 X104.968 Y72.724
G0 F3600 X104.271 Y72.592
G1 F1500 X113.899 Y82.22 E65.22782
G1 X113.969 Y82.29
G0 F3600 X114.049 Y82.936
G1 F1500 X103.563 Y72.45 E65.96766
G1 X103.493 Y72.38
G0 F3600 X102.917 Y72.37
G1 F1500 X114.125 Y83.578 E66.75844
G1 X114.195 Y83.648
G0 F3600 X114.187 Y84.206
G1 F1500 X102.285 Y72.303 E67.59823
G1 X102.215 Y72.233
G0 F3600 X101.708 Y72.293
G1 F1500 X114.204 Y84.789 E68.47989
G1 X114.274 Y84.859
G0 F3600 X114.208 Y85.358
G1 F1500 X101.138 Y72.288 E69.40205
G1 X101.068 Y72.218
G0 F3600 X100.572 Y72.288
G1 F1500 X114.173 Y85.889 E70.36167
G1 X114.243 Y85.959
G0 F3600 X114.135 Y86.416
G1 F1500 X100.006 Y72.288 E71.35852
G1 X99.936 Y72.218
G0 F3600 X99.441 Y72.288
G1 F1500 X114.06 Y86.907 E72.38997
G1 X114.13 Y86.977
G0 F3600 X113.986 Y87.399
G1 F1500 X98.875 Y72.288 E73.45613
G1 X98.805 Y72.218
G0 F3600 X98.309 Y72.288
G1 F1500 X113.881 Y87.86 E74.55482
G1 X113.951 Y87.93
G0 F3600 X113.768 Y88.312
G1 F1500 X97.744 Y72.288 E75.6854
G1 X97.674 Y72.218
G0 F3600 X97.178 Y72.288
G1 F1500 X113.644 Y88.753 E76.84713
G1 X113.714 Y88.823
G0 F3600 X113.499 Y89.175
G1 F1500 X96.612 Y72.288 E78.0386
G1 X96.542 Y72.218
G0 F3600 X96.047 Y72.288
G1 F1500 X113.354 Y89.596 E79.25973
G1 X113.424 Y89.666
G0 F3600 X113.185 Y89.992
G1 F1500 X95.481 Y72.288 E80.50885
G1 X95.411 Y72.218
G0 F3600 X94.915 Y72.288
G1 F1500 X113.009 Y90.382 E81.78548
G1 X113.079 Y90.452
G0 F3600 X112.833 Y90.772
G1 F1500 X94.349 Y72.288 E83.08962
G1 X94.279 Y72.218
G0 F3600 X93.784 Y72.288
G1 F1500 X112.652 Y91.156 E84.42086
G1 X112.722 Y91.226
G0 F3600 X112.471 Y91.541
G1 F1500 X93.218 Y72.288 E85.77926
G1 X93.148 Y72.218
G0 F3600 X92.652 Y72.288
G1 F1500 X112.29 Y91.926 E87.16483
G1 X112.36 Y91.996
G0 F3600 X112.108 Y92.309
G1 F1500 X92.087 Y72.288 E88.57742
G1 X92.017 Y72.218
G0 F3600 X91.521 Y72.288
G1 F1500 X111.927 Y92.694 E90.01717
G1 X111.997 Y92.764
G0 F3600 X111.746 Y93.079
G1 F1500 X90.955 Y72.288 E91.48409
G1 X90.885 Y72.218
G0 F3600 X90.39 Y72.288
G1 F1500 X111.565 Y93.463 E92.9781
G1 X111.635 Y93.533
G0 F3600 X111.384 Y93.848
G1 F1500 X89.824 Y72.288 E94.49928
G1 X89.754 Y72.218
G0 F3600 X89.258 Y72.288
