;FLAVOR:Marlin
;TIME:4130
;Filament used: 3.87141m
;Layer height: 0.2
;Generated with Cura_SteamEngine 2.7.0
M190 S65
M104 S210
M109 S210
G21 ;metric values
G90 ;absolute positioning
M82 ;set extruder to absolute mode
M107 ;start with the fan off
G28 X0 Y0 ;move X/Y to min endstops
G28 Z0 ;move Z to min endstops
G1 Z15.0 F9000 ;move the platform down 15mm
G92 E0 ;zero the extruded length
G1 F200 E3 ;extrude 3mm of feed stock
G92 E0 ;zero the extruded length again
G1 F9000
;Put printing message on LCD screen
M117 Printing...
;LAYER_COUNT:122
;LAYER:0
M107
G0 F3600 X70.406 Y113.23 Z0.3
;TYPE:SKIRT
G1 F1500 X71.02 Y112.851 E0.036
G1 X71.537 Y112.587 E0.06496
G1 X72.21 Y112.309 E0.10129
G1 X72.719 Y112.141 E0.12803
G1 X73.019 Y112.081 E0.14329
G1 X74.435 Y111.856 E0.21482
G1 X75 Y111.811 E0.2431
G1 X124.999 Y111.811 E2.73756
G1 X125.542 Y111.852 E2.76473
G1 X126.878 Y112.056 E2.83215
G1 X127.401 Y112.176 E2.85893
G1 X127.669 Y112.271 E2.87311
G1 X128.431 Y112.575 E2.91404
G1 X129.087 Y112.919 E2.951
G1 X129.883 Y113.447 E2.99865
G1 X130.493 Y113.957 E3.03832
G1 X131.31 Y114.81 E3.09725
G1 X131.651 Y115.224 E3.12401
G1 X131.837 Y115.516 E3.14128
G1 X132.314 Y116.352 E3.1893
G1 X132.629 Y117.082 E3.22896
G1 X132.952 Y118.137 E3.28401
G1 X133.071 Y118.66 E3.31077
G1 X133.103 Y118.961 E3.32587
G1 X133.192 Y120.351 E3.39536
G1 X133.199 Y120.584 E3.40699
G1 X133.171 Y150.304 E4.88973
G1 X133.087 Y151.076 E4.92847
G1 X132.788 Y152.432 E4.99775
G1 X132.633 Y152.946 E5.02453
G1 X132.443 Y153.362 E5.04735
G1 X131.886 Y154.398 E5.10603
G1 X131.597 Y154.85 E5.13279
G1 X131.185 Y155.312 E5.16368
G1 X129.965 Y156.463 E5.24736
G1 X129.549 Y156.8 E5.27407
G1 X129.215 Y157.007 E5.29367
G1 X128.586 Y157.349 E5.32939
G1 X128.076 Y157.577 E5.35726
G1 X127.423 Y157.81 E5.39185
G1 X126.733 Y157.981 E5.42732
G1 X125.609 Y158.145 E5.48399
G1 X125.088 Y158.183 E5.51005
G1 X74.698 Y158.171 E8.02402
G1 X73.924 Y158.087 E8.06286
G1 X72.568 Y157.788 E8.13213
G1 X72.054 Y157.633 E8.15892
G1 X71.635 Y157.441 E8.18191
G1 X70.598 Y156.882 E8.24069
G1 X70.146 Y156.593 E8.26745
G1 X69.768 Y156.266 E8.29239
G1 X68.759 Y155.263 E8.36337
G1 X68.408 Y154.858 E8.39011
G1 X68.23 Y154.595 E8.40595
G1 X67.846 Y153.97 E8.44255
G1 X67.586 Y153.461 E8.47106
G1 X67.308 Y152.789 E8.50734
G1 X67.141 Y152.28 E8.53407
G1 X67.079 Y151.976 E8.54955
G1 X66.855 Y150.562 E8.62097
G1 X66.811 Y149.999 E8.64915
G1 X66.811 Y120 E10.1458
G1 X66.852 Y119.456 E10.17302
G1 X67.056 Y118.121 E10.2404
G1 X67.177 Y117.599 E10.26713
G1 X67.271 Y117.333 E10.2812
G1 X67.569 Y116.585 E10.32137
G1 X67.907 Y115.936 E10.35788
G1 X68.441 Y115.126 E10.40628
G1 X68.769 Y114.701 E10.43307
G1 X68.957 Y114.507 E10.44655
G1 X69.807 Y113.693 E10.50526
G1 X70.406 Y113.23 E10.54303
G0 F3600 X70.616 Y113.57
G1 F1500 X71.23 Y113.191 E10.57903
G1 X71.689 Y112.956 E10.60476
G1 X72.362 Y112.678 E10.64108
G1 X73.082 Y112.476 E10.67839
G1 X74.498 Y112.251 E10.74992
G1 X75 Y112.211 E10.77505
G1 X124.999 Y112.211 E13.26951
G1 X125.482 Y112.248 E13.29368
G1 X126.818 Y112.452 E13.3611
G1 X127.521 Y112.643 E13.39745
G1 X128.283 Y112.947 E13.43838
G1 X128.866 Y113.252 E13.4712
G1 X129.662 Y113.78 E13.51886
G1 X130.204 Y114.234 E13.55413
G1 X131.021 Y115.087 E13.61306
G1 X131.341 Y115.478 E13.63826
G1 X131.489 Y115.714 E13.65216
G1 X131.966 Y116.55 E13.70018
G1 X132.247 Y117.199 E13.73547
G1 X132.57 Y118.254 E13.79051
G1 X132.703 Y118.987 E13.82768
G1 X132.792 Y120.377 E13.89717
G1 X132.799 Y120.584 E13.9075
G1 X132.771 Y150.304 E15.39024
G1 X132.696 Y150.99 E15.42467
G1 X132.397 Y152.346 E15.49394
G1 X132.249 Y152.83 E15.51919
G1 X132.09 Y153.172 E15.53801
G1 X131.533 Y154.208 E15.59669
G1 X131.26 Y154.633 E15.62189
G1 X130.911 Y155.021 E15.64793
G1 X129.691 Y156.172 E15.73161
G1 X129.297 Y156.488 E15.75681
G1 X129.024 Y156.655 E15.77277
G1 X128.395 Y156.997 E15.80849
G1 X127.941 Y157.2 E15.8333
G1 X127.288 Y157.433 E15.86789
G1 X126.675 Y157.585 E15.8994
G1 X125.551 Y157.749 E15.95607
G1 X125.088 Y157.783 E15.97923
G1 X74.698 Y157.771 E18.4932
G1 X74.01 Y157.696 E18.52773
G1 X72.654 Y157.397 E18.59701
G1 X72.17 Y157.249 E18.62226
G1 X71.825 Y157.089 E18.64123
G1 X70.788 Y156.53 E18.7
G1 X70.363 Y156.256 E18.72523
G1 X70.05 Y155.982 E18.74598
G1 X69.041 Y154.979 E18.81696
G1 X68.712 Y154.596 E18.84215
G1 X68.57 Y154.385 E18.85484
G1 X68.186 Y153.76 E18.89144
G1 X67.956 Y153.308 E18.91674
G1 X67.678 Y152.636 E18.95302
G1 X67.474 Y151.914 E18.99045
G1 X67.25 Y150.5 E19.06188
G1 X67.211 Y149.999 E19.08695
G1 X67.211 Y120 E20.5836
G1 X67.248 Y119.517 E20.60777
G1 X67.452 Y118.182 E20.67515
G1 X67.642 Y117.481 E20.71138
G1 X67.94 Y116.733 E20.75155
G1 X68.241 Y116.156 E20.78402
G1 X68.775 Y115.346 E20.83242
G1 X69.234 Y114.796 E20.86816
G1 X70.084 Y113.982 E20.92688
G1 X70.616 Y113.57 E20.96045
G1 F1500 E14.46045
G0 F3600 X71.987 Y115.691
G0 X72.659 Y116.785
G0 X72.706 Y116.849
G0 X72.648 Y116.769
;TYPE:WALL-INNER
G1 F1500 E20.96045
G1 X73.187 Y116.439 E20.99198
G1 X73.769 Y116.198 E21.02341
G1 X74.372 Y116.054 E21.05434
G1 X75.024 Y116.001 E21.08697
G1 X124.976 Y116.001 E23.57909
G1 X125.628 Y116.054 E23.61172
G1 X126.231 Y116.198 E23.64265
G1 X126.813 Y116.439 E23.67408
G1 X127.352 Y116.769 E23.70561
G1 X127.825 Y117.175 E23.73671
G1 X128.231 Y117.648 E23.76781
G1 X128.561 Y118.187 E23.79934
G1 X128.802 Y118.769 E23.83077
G1 X128.946 Y119.372 E23.8617
G1 X128.999 Y120.02 E23.89413
G1 X128.999 Y149.98 E25.38884
G1 X128.946 Y150.628 E25.42128
G1 X128.802 Y151.231 E25.45221
G1 X128.561 Y151.813 E25.48364
G1 X128.231 Y152.352 E25.51517
G1 X127.825 Y152.825 E25.54627
G1 X127.352 Y153.231 E25.57737
G1 X126.813 Y153.561 E25.6089
G1 X126.231 Y153.802 E25.64032
G1 X125.628 Y153.946 E25.67125
G1 X124.976 Y153.999 E25.70389
G1 X75.024 Y153.999 E28.196
G1 X74.372 Y153.946 E28.22864
G1 X73.769 Y153.802 E28.25957
G1 X73.187 Y153.561 E28.291
G1 X72.648 Y153.231 E28.32253
G1 X72.175 Y152.825 E28.35363
G1 X71.769 Y152.352 E28.38473
G1 X71.439 Y151.813 E28.41626
G1 X71.198 Y151.231 E28.44768
G1 X71.054 Y150.628 E28.47861
G1 X71.001 Y149.98 E28.51105
G1 X71.001 Y120.02 E30.00576
G1 X71.054 Y119.372 E30.0382
G1 X71.198 Y118.769 E30.06913
G1 X71.439 Y118.187 E30.10055
G1 X71.769 Y117.648 E30.13208
G1 X72.175 Y117.175 E30.16318
G1 X72.648 Y116.769 E30.19428
G0 F3600 X72.706 Y116.849
G0 X76.883 Y131.839
G0 X76.916 Y131.933
G1 F1500 X76.413 Y132.16 E30.22181
G1 X75.957 Y132.469 E30.2493
G1 X75.558 Y132.85 E30.27682
G1 X75.229 Y133.295 E30.30443
G1 X74.982 Y133.786 E30.33185
G1 X74.82 Y134.314 E30.3594
G1 X74.749 Y134.861 E30.38692
G1 X74.773 Y135.413 E30.41449
G1 X74.888 Y135.953 E30.44203
G1 X75.095 Y136.465 E30.46959
G1 X75.384 Y136.935 E30.49711
G1 X75.748 Y137.349 E30.52462
G1 X76.178 Y137.695 E30.55215
G1 X76.659 Y137.965 E30.57967
G1 X77.18 Y138.148 E30.60722
G1 X77.724 Y138.242 E30.63476
G1 X78.276 Y138.242 E30.6623
G1 X78.82 Y138.148 E30.68984
G1 X79.341 Y137.965 E30.71739
G1 X79.822 Y137.695 E30.74491
G1 X80.252 Y137.349 E30.77245
G1 X80.616 Y136.935 E30.79995
G1 X80.905 Y136.465 E30.82748
G1 X81.112 Y135.953 E30.85503
G1 X81.227 Y135.413 E30.88258
G1 X81.251 Y134.861 E30.91014
G1 X81.18 Y134.314 E30.93766
G1 X81.018 Y133.786 E30.96521
G1 X80.771 Y133.295 E30.99263
G1 X80.442 Y132.85 E31.02024
G1 X80.043 Y132.469 E31.04777
G1 X79.587 Y132.16 E31.07525
G1 X79.084 Y131.933 E31.10278
G1 X78.55 Y131.792 E31.13034
G1 X78 Y131.747 E31.15787
G1 X77.45 Y131.792 E31.1854
G1 X76.916 Y131.933 E31.21295
G0 F3600 X76.883 Y131.839
G0 X78 Y131.707
G0 X118.65 Y134.857
G0 X118.749 Y134.861
G1 F1500 X118.773 Y135.413 E31.24052
G1 X118.888 Y135.953 E31.26806
G1 X119.095 Y136.465 E31.29562
G1 X119.384 Y136.935 E31.32314
G1 X119.748 Y137.349 E31.35064
G1 X120.178 Y137.695 E31.37818
G1 X120.659 Y137.965 E31.4057
G1 X121.18 Y138.148 E31.43325
G1 X121.724 Y138.242 E31.46079
G1 X122.276 Y138.242 E31.48833
G1 X122.82 Y138.148 E31.51587
G1 X123.341 Y137.965 E31.54342
G1 X123.822 Y137.695 E31.57094
G1 X124.252 Y137.349 E31.59848
G1 X124.616 Y136.935 E31.62598
G1 X124.905 Y136.465 E31.65351
G1 X125.112 Y135.953 E31.68106
G1 X125.227 Y135.413 E31.7086
G1 X125.251 Y134.861 E31.73617
G1 X125.18 Y134.314 E31.76369
G1 X125.018 Y133.786 E31.79124
G1 X124.771 Y133.295 E31.81866
G1 X124.442 Y132.85 E31.84627
G1 X124.043 Y132.469 E31.8738
G1 X123.587 Y132.16 E31.90128
G1 X123.084 Y131.933 E31.92881
G1 X122.55 Y131.792 E31.95637
G1 X122 Y131.747 E31.9839
G1 X121.45 Y131.792 E32.01143
G1 X120.916 Y131.933 E32.03898
G1 X120.413 Y132.16 E32.06651
G1 X119.957 Y132.469 E32.094
G1 X119.558 Y132.85 E32.12152
G1 X119.229 Y133.295 E32.14913
G1 X118.982 Y133.786 E32.17655
G1 X118.82 Y134.314 E32.2041
G1 X118.749 Y134.861 E32.23162
G0 F3600 X119.15 Y134.878
;TYPE:WALL-OUTER
G1 F1500 X119.171 Y135.362 E32.25579
G1 X119.272 Y135.836 E32.27997
G1 X119.453 Y136.284 E32.30408
G1 X119.707 Y136.696 E32.32822
G1 X120.026 Y137.059 E32.35233
G1 X120.403 Y137.363 E32.3765
G1 X120.824 Y137.599 E32.40057
G1 X121.281 Y137.76 E32.42475
G1 X121.758 Y137.842 E32.44889
G1 X122.242 Y137.842 E32.47304
G1 X122.719 Y137.76 E32.49719
G1 X123.176 Y137.599 E32.52136
G1 X123.597 Y137.363 E32.54544
G1 X123.974 Y137.059 E32.5696
G1 X124.293 Y136.696 E32.59371
G1 X124.547 Y136.284 E32.61786
G1 X124.728 Y135.836 E32.64196
G1 X124.829 Y135.362 E32.66614
G1 X124.85 Y134.878 E32.69031
G1 X124.788 Y134.399 E32.71441
G1 X124.646 Y133.936 E32.73857
G1 X124.429 Y133.505 E32.76265
G1 X124.141 Y133.115 E32.78683
G1 X123.791 Y132.781 E32.81097
G1 X123.391 Y132.51 E32.83507
G1 X122.95 Y132.311 E32.85921
G1 X122.482 Y132.188 E32.88335
G1 X122 Y132.148 E32.90748
G1 X121.518 Y132.188 E32.93161
G1 X121.05 Y132.311 E32.95575
G1 X120.609 Y132.51 E32.97989
G1 X120.209 Y132.781 E33.004
G1 X119.859 Y133.115 E33.02813
G1 X119.571 Y133.505 E33.05232
G1 X119.354 Y133.936 E33.0764
G1 X119.212 Y134.399 E33.10056
G1 X119.15 Y134.878 E33.12465
G0 F3600 X119.158 Y135.078
G0 X118.659 Y135.099
G0 X118.781 Y134.306
G0 X118.945 Y133.772
G0 X119.195 Y133.275
G0 X128.9 Y120.024
G0 X129.399 Y120
G1 F1500 X129.399 Y150 E34.62136
G1 X129.343 Y150.689 E34.65585
G1 X129.183 Y151.357 E34.69012
G1 X128.92 Y151.993 E34.72445
G1 X128.555 Y152.588 E34.75928
G1 X128.109 Y153.109 E34.79349
G1 X127.588 Y153.555 E34.82771
G1 X126.993 Y153.92 E34.86253
G1 X126.357 Y154.183 E34.89687
G1 X125.689 Y154.343 E34.93114
G1 X124.996 Y154.399 E34.96583
G1 X75.004 Y154.399 E37.45994
G1 X74.311 Y154.343 E37.49462
G1 X73.643 Y154.183 E37.52889
G1 X73.007 Y153.92 E37.56323
G1 X72.412 Y153.555 E37.59805
G1 X71.891 Y153.109 E37.63227
G1 X71.445 Y152.588 E37.66649
G1 X71.08 Y151.993 E37.70131
G1 X70.817 Y151.357 E37.73565
G1 X70.657 Y150.689 E37.76992
G1 X70.601 Y150 E37.8044
G1 X70.601 Y120 E39.30111
G1 X70.657 Y119.311 E39.3356
G1 X70.817 Y118.643 E39.36987
G1 X71.08 Y118.007 E39.4042
G1 X71.445 Y117.412 E39.43903
G1 X71.891 Y116.891 E39.47324
G1 X72.412 Y116.445 E39.50746
G1 X73.007 Y116.08 E39.54229
G1 X73.643 Y115.817 E39.57662
G1 X74.311 Y115.657 E39.61089
G1 X75.004 Y115.601 E39.64558
G1 X124.996 Y115.601 E42.13969
G1 X125.689 Y115.657 E42.17438
G1 X126.357 Y115.817 E42.20864
G1 X126.993 Y116.08 E42.24298
G1 X127.588 Y116.445 E42.27781
G1 X128.109 Y116.891 E42.31202
G1 X128.555 Y117.412 E42.34624
G1 X128.92 Y118.007 E42.38106
G1 X129.183 Y118.643 E42.4154
G1 X129.343 Y119.311 E42.44967
G1 X129.399 Y120 E42.48416
G0 F3600 X129.399 Y120.2
G0 X128.899 Y120.2
G0 X81.266 Y134.254
G0 X80.788 Y134.399
G1 F1500 X80.646 Y133.936 E42.50832
G1 X80.429 Y133.505 E42.53239
G1 X80.141 Y133.115 E42.55658
G1 X79.791 Y132.781 E42.58072
G1 X79.391 Y132.51 E42.60482
G1 X78.95 Y132.311 E42.62896
G1 X78.482 Y132.188 E42.6531
G1 X78 Y132.148 E42.67723
G1 X77.518 Y132.188 E42.70136
G1 X77.05 Y132.311 E42.7255
G1 X76.609 Y132.51 E42.74964
G1 X76.209 Y132.781 E42.77374
G1 X75.859 Y133.115 E42.79788
G1 X75.571 Y133.505 E42.82207
G1 X75.354 Y133.936 E42.84614
G1 X75.212 Y134.399 E42.8703
G1 X75.15 Y134.878 E42.8944
G1 X75.171 Y135.362 E42.91857
G1 X75.272 Y135.836 E42.94275
G1 X75.453 Y136.284 E42.96685
G1 X75.707 Y136.696 E42.991
G1 X76.026 Y137.059 E43.01511
G1 X76.403 Y137.363 E43.03927
G1 X76.824 Y137.599 E43.06335
G1 X77.281 Y137.76 E43.08752
G1 X77.758 Y137.842 E43.11167
G1 X78.242 Y137.842 E43.13582
G1 X78.719 Y137.76 E43.15996
G1 X79.176 Y137.599 E43.18414
G1 X79.597 Y137.363 E43.20822
G1 X79.974 Y137.059 E43.23238
G1 X80.293 Y136.696 E43.25649
G1 X80.547 Y136.284 E43.28063
G1 X80.728 Y135.836 E43.30474
G1 X80.829 Y135.362 E43.32892
G1 X80.85 Y134.878 E43.35309
G1 X80.788 Y134.399 E43.37719
G0 F3600 X80.73 Y134.208
G0 X81.207 Y134.063
G0 X81.29 Y134.86
G0 X81.266 Y135.418
G0 X81.15 Y135.964
G0 X80.94 Y136.483
G0 X72.759 Y153.087
;TYPE:SKIN
G1 F1500 X71.911 Y152.238 E43.43705
G1 X71.841 Y152.168
G0 F3600 X71.356 Y151.118
G1 F1500 X73.879 Y153.641 E43.61506
G1 X73.949 Y153.711
G0 F3600 X74.586 Y153.782
G1 F1500 X71.215 Y150.411 E43.85291
G1 X71.145 Y150.341
G0 F3600 X71.18 Y149.811
G1 F1500 X75.188 Y153.818 E44.13566
G1 X75.258 Y153.888
G0 F3600 X75.753 Y153.818
G1 F1500 X71.18 Y149.245 E44.45831
G1 X71.11 Y149.175
G0 F3600 X71.18 Y148.679
G1 F1500 X76.319 Y153.818 E44.82089
G1 X76.389 Y153.888
G0 F3600 X76.885 Y153.818
G1 F1500 X71.18 Y148.114 E45.22337
G1 X71.11 Y148.044
G0 F3600 X71.18 Y147.548
G1 F1500 X77.45 Y153.818 E45.66576
G1 X77.52 Y153.888
G0 F3600 X78.016 Y153.818
G1 F1500 X71.18 Y146.982 E46.14807
G1 X71.11 Y146.912
G0 F3600 X71.18 Y146.417
G1 F1500 X78.582 Y153.818 E46.67029
G1 X78.652 Y153.888
G0 F3600 X79.147 Y153.818
G1 F1500 X71.18 Y145.851 E47.2324
G1 X71.11 Y145.781
G0 F3600 X71.18 Y145.285
G1 F1500 X79.713 Y153.818 E47.83445
G1 X79.783 Y153.888
G0 F3600 X80.279 Y153.818
G1 F1500 X71.18 Y144.72 E48.4764
G1 X71.11 Y144.65
G0 F3600 X71.18 Y144.154
G1 F1500 X80.844 Y153.818 E49.15825
G1 X80.914 Y153.888
G0 F3600 X81.41 Y153.818
G1 F1500 X71.18 Y143.588 E49.88003
G1 X71.11 Y143.518
G0 F3600 X71.18 Y143.022
G1 F1500 X81.976 Y153.818 E50.64175
G1 X82.046 Y153.888
G0 F3600 X82.541 Y153.818
G1 F1500 X71.18 Y142.457 E51.44333
G1 X71.11 Y142.387
G0 F3600 X71.18 Y141.891
G1 F1500 X83.107 Y153.818 E52.28484
G1 X83.177 Y153.888
G0 F3600 X83.673 Y153.818
G1 F1500 X71.18 Y141.325 E53.16629
G1 X71.11 Y141.255
G0 F3600 X71.18 Y140.76
G1 F1500 X84.239 Y153.818 E54.08764
G1 X84.309 Y153.888
G0 F3600 X84.804 Y153.818
G1 F1500 X71.18 Y140.194 E55.04888
G1 X71.11 Y140.124
G0 F3600 X71.18 Y139.628
G1 F1500 X85.37 Y153.818 E56.05006
G1 X85.44 Y153.888
G0 F3600 X85.936 Y153.818
G1 F1500 X71.18 Y139.063 E57.09115
G1 X71.11 Y138.993
G0 F3600 X71.18 Y138.497
G1 F1500 X86.501 Y153.818 E58.17212
G1 X86.571 Y153.888
G0 F3600 X87.067 Y153.818
G1 F1500 X71.18 Y137.931 E59.29304
G1 X71.11 Y137.861
G0 F3600 X71.18 Y137.366
G1 F1500 X87.633 Y153.818 E60.45385
G1 X87.703 Y153.888
G0 F3600 X88.198 Y153.818
G1 F1500 X71.18 Y136.8 E61.65456
G1 X71.11 Y136.73
G0 F3600 X71.18 Y136.234
G1 F1500 X88.764 Y153.818 E62.89521
G1 X88.834 Y153.888
G0 F3600 X89.33 Y153.818
G1 F1500 X71.18 Y135.669 E64.17575
G1 X71.11 Y135.599
G0 F3600 X71.18 Y135.103
G1 F1500 X89.895 Y153.818 E65.4962
G1 X89.965 Y153.888
G0 F3600 X90.461 Y153.818
G1 F1500 X71.18 Y134.537 E66.85658
G1 X71.11 Y134.467
G0 F3600 X71.18 Y133.971
G1 F1500 X91.027 Y153.818 E68.25689
G1 X91.097 Y153.888
G0 F3600 X91.592 Y153.818
G1 F1500 X71.18 Y133.406 E69.69707
G1 X71.11 Y133.336
G0 F3600 X71.18 Y132.84
G1 F1500 X75.011 Y136.671 E69.96736
G1 X75.081 Y136.741
G0 F3600 X74.663 Y135.757
G1 F1500 X71.18 Y132.274 E70.21311
G1 X71.11 Y132.204
G0 F3600 X71.18 Y131.709
G1 F1500 X74.579 Y135.108 E70.45293
