;FLAVOR:Marlin
;TIME:1545
;Filament used: 1.44347m
;Layer height: 0.2
;Generated with Cura_SteamEngine 2.7.0
M190 S65
M104 S210
M109 S210
G21 ;metric values
G90 ;absolute positioning
M82 ;set extruder to absolute mode
M107 ;start with the fan off
G28 X0 Y0 ;move X/Y to min endstops
G28 Z0 ;move Z to min endstops
G1 Z15.0 F9000 ;move the platform down 15mm
G92 E0 ;zero the extruded length
G1 F200 E3 ;extrude 3mm of feed stock
G92 E0 ;zero the extruded length again
G1 F9000
;Put printing message on LCD screen
M117 Printing...
;LAYER_COUNT:60
;LAYER:0
M107
G0 F3600 X90.888 Y122.309 Z0.3
;TYPE:SKIRT
G1 F1500 X91.307 Y122.025 E0.02525
G1 X93.098 Y120.988 E0.1285
G1 X93.539 Y120.771 E0.15302
G1 X94.69 Y120.3 E0.21507
G1 X95.171 Y120.142 E0.24033
G1 X97.193 Y119.631 E0.34438
G1 X97.795 Y119.532 E0.37482
G1 X99.72 Y119.382 E0.47115
G1 X100.174 Y119.375 E0.4938
G1 X101.396 Y119.434 E0.55484
G1 X101.899 Y119.494 E0.58011
G1 X103.961 Y119.889 E0.68485
G1 X104.563 Y120.06 E0.71607
G1 X106.515 Y120.802 E0.82026
G1 X106.927 Y120.989 E0.84283
G1 X107.69 Y121.395 E0.88595
G1 X108.066 Y121.626 E0.90797
G1 X109.831 Y122.864 E1.01552
G1 X110.211 Y123.171 E1.0399
G1 X111.071 Y123.968 E1.09839
G1 X111.405 Y124.321 E1.12264
G1 X112.641 Y125.824 E1.21972
G1 X112.975 Y126.306 E1.24898
G1 X114.012 Y128.096 E1.35219
G1 X114.229 Y128.539 E1.3768
G1 X114.7 Y129.691 E1.43889
G1 X114.858 Y130.171 E1.4641
G1 X115.369 Y132.193 E1.56815
G1 X115.468 Y132.795 E1.59859
G1 X115.618 Y134.719 E1.69487
G1 X115.625 Y135.172 E1.71747
G1 X115.566 Y136.395 E1.77856
G1 X115.506 Y136.899 E1.80388
G1 X115.111 Y138.961 E1.90862
G1 X115.026 Y139.308 E1.92645
G1 X113.834 Y143.324 E2.13545
G1 X112.518 Y148.678 E2.41051
G1 X111.986 Y151.315 E2.54472
G1 X111.137 Y156.7 E2.8167
G1 X110.488 Y163.102 E3.13773
G1 X110.41 Y163.565 E3.16115
G1 X109.93 Y165.6 E3.26547
G1 X109.769 Y166.11 E3.29215
G1 X109.244 Y167.424 E3.36274
G1 X109.018 Y167.889 E3.38854
G1 X107.978 Y169.689 E3.49225
G1 X107.707 Y170.092 E3.51648
G1 X106.938 Y171.085 E3.57914
G1 X106.655 Y171.409 E3.6006
G1 X105.565 Y172.514 E3.67804
G1 X105.225 Y172.817 E3.70076
G1 X104.112 Y173.691 E3.77136
G1 X103.693 Y173.975 E3.79662
G1 X101.902 Y175.012 E3.89987
G1 X101.461 Y175.229 E3.92439
G1 X100.31 Y175.7 E3.98643
G1 X99.829 Y175.858 E4.01169
G1 X97.807 Y176.369 E4.11574
G1 X97.205 Y176.468 E4.14618
G1 X95.28 Y176.618 E4.24251
G1 X94.826 Y176.625 E4.26516
G1 X93.604 Y176.566 E4.3262
G1 X93.127 Y176.511 E4.35015
G1 X91.252 Y176.166 E4.44527
G1 X90.674 Y176.009 E4.47515
G1 X88.687 Y175.287 E4.58062
G1 X88.118 Y175.022 E4.61194
G1 X86.323 Y173.987 E4.71531
G1 X85.797 Y173.617 E4.74739
G1 X84.059 Y172.148 E4.86093
G1 X83.646 Y171.738 E4.88996
G1 X82.629 Y170.548 E4.96806
G1 X82.305 Y170.104 E4.99548
G1 X81.191 Y168.305 E5.10105
G1 X80.967 Y167.883 E5.12488
G1 X80.537 Y166.924 E5.17732
G1 X80.381 Y166.51 E5.19939
G1 X79.816 Y164.674 E5.29523
G1 X79.698 Y164.158 E5.32163
G1 X79.458 Y162.585 E5.40102
G1 X79.42 Y162.185 E5.42107
G1 X79.372 Y160.98 E5.48123
G1 X79.374 Y160.64 E5.49819
G1 X79.43 Y159.618 E5.54926
G1 X79.483 Y159.172 E5.57167
G1 X79.827 Y157.278 E5.6677
G1 X79.923 Y156.878 E5.68823
G1 X80.993 Y153.345 E5.8724
G1 X82.338 Y148.03 E6.14592
G1 X82.902 Y145.336 E6.28324
G1 X83.366 Y142.727 E6.41544
G1 X84.105 Y137.273 E6.69003
G1 X84.603 Y132.362 E6.9363
G1 X84.716 Y131.763 E6.96671
G1 X85.227 Y129.921 E7.06208
G1 X85.409 Y129.415 E7.08891
G1 X86.118 Y127.828 E7.17562
G1 X86.345 Y127.399 E7.19984
G1 X87.079 Y126.215 E7.26934
G1 X87.293 Y125.908 E7.28801
G1 X88.062 Y124.915 E7.35067
G1 X88.345 Y124.591 E7.37213
G1 X89.435 Y123.486 E7.44957
G1 X89.775 Y123.183 E7.47229
G1 X90.888 Y122.309 E7.54289
G0 F3600 X91.135 Y122.623
G1 F1500 X91.508 Y122.371 E7.56535
G1 X93.299 Y121.334 E7.6686
G1 X93.69 Y121.141 E7.69035
G1 X94.841 Y120.67 E7.7524
G1 X95.269 Y120.53 E7.77486
G1 X97.291 Y120.019 E7.87891
G1 X97.826 Y119.931 E7.90596
G1 X99.751 Y119.781 E8.00229
G1 X100.154 Y119.775 E8.0224
G1 X101.376 Y119.834 E8.08344
G1 X101.824 Y119.887 E8.10595
G1 X103.886 Y120.282 E8.21069
G1 X104.421 Y120.434 E8.23844
G1 X106.373 Y121.176 E8.34262
G1 X106.739 Y121.342 E8.36267
G1 X107.502 Y121.748 E8.40579
G1 X107.837 Y121.953 E8.42539
G1 X109.602 Y123.191 E8.53294
G1 X109.939 Y123.464 E8.55458
G1 X110.799 Y124.261 E8.61308
G1 X111.096 Y124.575 E8.63464
G1 X112.332 Y126.078 E8.73173
G1 X112.629 Y126.507 E8.75776
G1 X113.666 Y128.297 E8.86096
G1 X113.859 Y128.69 E8.88281
G1 X114.33 Y129.842 E8.9449
G1 X114.47 Y130.269 E8.96732
G1 X114.981 Y132.291 E9.07137
G1 X115.069 Y132.826 E9.09842
G1 X115.219 Y134.75 E9.1947
G1 X115.225 Y135.153 E9.21481
G1 X115.166 Y136.376 E9.27589
G1 X115.113 Y136.824 E9.2984
G1 X114.718 Y138.886 E9.40314
G1 X114.643 Y139.194 E9.41896
G1 X113.442 Y143.241 E9.62957
G1 X112.131 Y148.572 E9.90346
G1 X111.593 Y151.243 E10.03939
G1 X110.739 Y156.651 E10.31254
G1 X110.09 Y163.062 E10.63402
G1 X110.021 Y163.474 E10.65486
G1 X109.541 Y165.509 E10.75917
G1 X109.398 Y165.961 E10.78282
G1 X108.873 Y167.275 E10.85342
G1 X108.672 Y167.689 E10.87638
G1 X107.632 Y169.489 E10.98009
G1 X107.391 Y169.847 E11.00162
G1 X106.622 Y170.84 E11.06428
G1 X106.37 Y171.128 E11.08338
G1 X105.28 Y172.233 E11.16081
G1 X104.978 Y172.503 E11.18102
G1 X103.865 Y173.377 E11.25163
G1 X103.492 Y173.629 E11.27408
G1 X101.701 Y174.666 E11.37733
G1 X101.31 Y174.859 E11.39909
G1 X100.159 Y175.33 E11.46113
G1 X99.731 Y175.47 E11.4836
G1 X97.709 Y175.981 E11.58765
G1 X97.174 Y176.069 E11.6147
G1 X95.249 Y176.219 E11.71103
G1 X94.846 Y176.225 E11.73114
G1 X93.624 Y176.166 E11.79217
G1 X93.199 Y176.117 E11.81352
G1 X91.324 Y175.772 E11.90863
G1 X90.81 Y175.633 E11.9352
G1 X88.823 Y174.911 E12.04067
G1 X88.318 Y174.675 E12.06848
G1 X86.523 Y173.64 E12.17185
G1 X86.055 Y173.312 E12.20036
G1 X84.317 Y171.843 E12.3139
G1 X83.95 Y171.478 E12.33972
G1 X82.933 Y170.288 E12.41782
G1 X82.645 Y169.894 E12.44217
G1 X81.531 Y168.095 E12.54773
G1 X81.332 Y167.719 E12.56896
G1 X80.902 Y166.76 E12.62139
G1 X80.764 Y166.392 E12.641
G1 X80.199 Y164.556 E12.73684
G1 X80.094 Y164.098 E12.76028
G1 X79.854 Y162.525 E12.83966
G1 X79.82 Y162.169 E12.85751
G1 X79.772 Y160.964 E12.91767
G1 X79.774 Y160.662 E12.93274
G1 X79.83 Y159.64 E12.9838
G1 X79.877 Y159.243 E13.00375
G1 X80.221 Y157.349 E13.09979
G1 X80.306 Y156.994 E13.118
G1 X81.378 Y153.452 E13.30262
G1 X82.73 Y148.113 E13.5774
G1 X83.286 Y145.454 E13.71292
G1 X83.762 Y142.777 E13.84857
G1 X84.503 Y137.31 E14.12382
G1 X85.001 Y132.402 E14.36994
G1 X85.101 Y131.87 E14.39694
G1 X85.612 Y130.028 E14.49231
G1 X85.774 Y129.578 E14.51617
G1 X86.483 Y127.991 E14.60289
G1 X86.685 Y127.61 E14.6244
G1 X87.419 Y126.426 E14.6939
G1 X87.609 Y126.153 E14.7105
G1 X88.378 Y125.16 E14.77316
G1 X88.63 Y124.872 E14.79225
G1 X89.72 Y123.767 E14.86969
G1 X90.022 Y123.497 E14.8899
G1 X91.135 Y122.623 E14.9605
G1 F1500 E8.4605
G0 F3600 X92.628 Y124.655
G0 X93.376 Y125.674
G0 X93.484 Y125.717
G0 X93.427 Y125.636
;TYPE:WALL-INNER
G1 F1500 E14.9605
G1 X93.843 Y125.359 E14.98543
G1 X94.277 Y125.095 E15.01078
G1 X94.73 Y124.846 E15.03657
G1 X95.169 Y124.63 E15.06098
G1 X95.612 Y124.436 E15.0851
G1 X96.101 Y124.245 E15.1113
G1 X96.557 Y124.09 E15.13532
G1 X97.052 Y123.946 E15.16104
G1 X97.523 Y123.83 E15.18524
G1 X98.004 Y123.735 E15.2097
G1 X98.498 Y123.659 E15.23464
G1 X99.007 Y123.604 E15.26018
G1 X99.499 Y123.572 E15.28478
G1 X100 Y123.56 E15.30978
G1 X100.501 Y123.572 E15.33478
G1 X100.993 Y123.604 E15.35938
G1 X101.502 Y123.659 E15.38492
G1 X101.996 Y123.735 E15.40986
G1 X102.477 Y123.83 E15.43432
G1 X102.948 Y123.946 E15.45852
G1 X103.443 Y124.09 E15.48424
G1 X103.899 Y124.245 E15.50827
G1 X104.388 Y124.436 E15.53446
G1 X104.831 Y124.63 E15.55859
G1 X105.27 Y124.846 E15.583
G1 X105.723 Y125.095 E15.60879
G1 X106.157 Y125.359 E15.63413
G1 X106.573 Y125.636 E15.65906
G1 X106.961 Y125.921 E15.68308
G1 X107.343 Y126.228 E15.70753
G1 X107.732 Y126.569 E15.73334
G1 X108.086 Y126.907 E15.75776
G1 X108.431 Y127.268 E15.78267
G1 X108.766 Y127.65 E15.80802
G1 X109.074 Y128.033 E15.83254
G1 X109.364 Y128.427 E15.85695
G1 X109.641 Y128.843 E15.88188
G1 X109.914 Y129.292 E15.9081
G1 X110.142 Y129.706 E15.93168
G1 X110.37 Y130.169 E15.95743
G1 X110.564 Y130.612 E15.98155
G1 X110.755 Y131.101 E16.00774
G1 X110.907 Y131.548 E16.0313
G1 X111.052 Y132.044 E16.05708
G1 X111.167 Y132.511 E16.08108
G1 X111.264 Y133 E16.10595
G1 X111.34 Y133.493 E16.13083
G1 X111.396 Y134.007 E16.15663
G1 X111.428 Y134.497 E16.18113
G1 X111.44 Y134.986 E16.20553
G1 X111.428 Y135.501 E16.23123
G1 X111.397 Y135.984 E16.25538
G1 X111.341 Y136.499 E16.28122
G1 X111.265 Y136.996 E16.30631
G1 X111.172 Y137.463 E16.33006
G1 X111.049 Y137.965 E16.35585
G1 X110.912 Y138.436 E16.38032
G1 X110.755 Y138.9 E16.40476
G1 X110.567 Y139.382 E16.43057
G1 X110.374 Y139.823 E16.45459
G1 X110.154 Y140.27 E16.47944
G1 X109.906 Y140.721 E16.50512
G1 X109.641 Y141.157 E16.53058
G1 X109.38 Y141.551 E16.55415
G1 X109.084 Y141.954 E16.5791
G1 X108.772 Y142.343 E16.60398
G1 X108.431 Y142.732 E16.62979
G1 X108.093 Y143.086 E16.65421
G1 X107.732 Y143.431 E16.67912
G1 X107.35 Y143.766 E16.70447
G1 X106.961 Y144.079 E16.72938
G1 X106.573 Y144.364 E16.75339
G1 X106.157 Y144.641 E16.77833
G1 X105.712 Y144.912 E16.80432
G1 X105.287 Y145.145 E16.8285
G1 X104.831 Y145.37 E16.85387
G1 X104.389 Y145.564 E16.87795
G1 X103.91 Y145.751 E16.90361
G1 X103.436 Y145.912 E16.92858
G1 X102.966 Y146.049 E16.95301
G1 X102.468 Y146.171 E16.97859
G1 X101.996 Y146.265 E17.0026
G1 X101.502 Y146.341 E17.02753
G1 X100.993 Y146.396 E17.05308
G1 X100.501 Y146.428 E17.07767
G1 X100 Y146.44 E17.10268
G1 X99.499 Y146.428 E17.12768
G1 X99.007 Y146.396 E17.15228
G1 X98.498 Y146.341 E17.17782
G1 X98.004 Y146.265 E17.20275
G1 X97.532 Y146.171 E17.22676
G1 X97.034 Y146.049 E17.25234
G1 X96.564 Y145.912 E17.27677
G1 X96.09 Y145.751 E17.30174
G1 X95.611 Y145.564 E17.3274
G1 X95.169 Y145.37 E17.35148
G1 X94.713 Y145.145 E17.37685
G1 X94.288 Y144.912 E17.40103
G1 X93.843 Y144.641 E17.42702
G1 X93.427 Y144.364 E17.45196
G1 X93.039 Y144.079 E17.47597
G1 X92.65 Y143.766 E17.50088
G1 X92.268 Y143.431 E17.52623
G1 X91.907 Y143.086 E17.55115
G1 X91.569 Y142.732 E17.57556
G1 X91.228 Y142.343 E17.60137
G1 X90.916 Y141.954 E17.62625
G1 X90.62 Y141.551 E17.6512
G1 X90.359 Y141.157 E17.67478
G1 X90.094 Y140.721 E17.70023
G1 X89.846 Y140.27 E17.72591
G1 X89.626 Y139.823 E17.75076
G1 X89.433 Y139.382 E17.77478
G1 X89.245 Y138.9 E17.80059
G1 X89.088 Y138.436 E17.82503
G1 X88.951 Y137.965 E17.8495
G1 X88.827 Y137.463 E17.8753
G1 X88.735 Y136.996 E17.89905
G1 X88.659 Y136.499 E17.92413
G1 X88.603 Y135.984 E17.94997
G1 X88.572 Y135.501 E17.97412
G1 X88.56 Y135.014 E17.99843
G1 X88.572 Y134.497 E18.02423
G1 X88.603 Y134.016 E18.04827
G1 X88.659 Y133.501 E18.07412
G1 X88.736 Y133 E18.09941
G1 X88.828 Y132.537 E18.12296
G1 X88.951 Y132.035 E18.14874
G1 X89.088 Y131.564 E18.17321
G1 X89.245 Y131.1 E18.19765
G1 X89.433 Y130.618 E18.22346
G1 X89.626 Y130.177 E18.24748
G1 X89.846 Y129.73 E18.27234
G1 X90.095 Y129.277 E18.29813
G1 X90.359 Y128.843 E18.32347
G1 X90.62 Y128.449 E18.34705
G1 X90.916 Y128.046 E18.37199
G1 X91.228 Y127.657 E18.39687
G1 X91.569 Y127.268 E18.42268
G1 X91.907 Y126.913 E18.44714
G1 X92.268 Y126.569 E18.47201
G1 X92.65 Y126.234 E18.49736
G1 X93.039 Y125.921 E18.52227
G1 X93.427 Y125.636 E18.54629
G0 F3600 X93.484 Y125.717
G0 X97.548 Y131.804
G0 X97.608 Y131.883
G1 F1500 X97.346 Y132.105 E18.56342
G1 X97.105 Y132.346 E18.58043
G1 X96.883 Y132.608 E18.59756
G1 X96.687 Y132.89 E18.61469
G1 X96.516 Y133.187 E18.63179
G1 X96.371 Y133.497 E18.64886
G1 X96.254 Y133.819 E18.66596
G1 X96.165 Y134.15 E18.68306
G1 X96.105 Y134.488 E18.70018
G1 X96.076 Y134.829 E18.71726
G1 X96.076 Y135.171 E18.73432
G1 X96.105 Y135.512 E18.75139
G1 X96.165 Y135.85 E18.76852
G1 X96.254 Y136.181 E18.78562
G1 X96.371 Y136.503 E18.80271
G1 X96.516 Y136.813 E18.81979
G1 X96.687 Y137.11 E18.83689
G1 X96.883 Y137.392 E18.85402
G1 X97.105 Y137.654 E18.87115
G1 X97.346 Y137.895 E18.88815
G1 X97.608 Y138.117 E18.90529
G1 X97.89 Y138.313 E18.92242
G1 X98.187 Y138.484 E18.93952
G1 X98.497 Y138.629 E18.95659
G1 X98.819 Y138.746 E18.97369
G1 X99.15 Y138.835 E18.99079
G1 X99.488 Y138.895 E19.00791
G1 X99.829 Y138.924 E19.02499
G1 X100.171 Y138.924 E19.04205
G1 X100.512 Y138.895 E19.05912
G1 X100.85 Y138.835 E19.07625
G1 X101.181 Y138.746 E19.09335
G1 X101.503 Y138.629 E19.11044
G1 X101.813 Y138.484 E19.12752
G1 X102.11 Y138.313 E19.14461
G1 X102.392 Y138.117 E19.16175
G1 X102.654 Y137.895 E19.17888
G1 X102.895 Y137.654 E19.19588
G1 X103.117 Y137.392 E19.21302
G1 X103.313 Y137.11 E19.23015
G1 X103.484 Y136.813 E19.24725
G1 X103.629 Y136.503 E19.26432
G1 X103.746 Y136.181 E19.28141
G1 X103.835 Y135.85 E19.29851
G1 X103.895 Y135.512 E19.31564
G1 X103.924 Y135.171 E19.33271
G1 X103.924 Y134.829 E19.34978
G1 X103.895 Y134.488 E19.36685
G1 X103.835 Y134.15 E19.38398
G1 X103.746 Y133.819 E19.40108
G1 X103.629 Y133.497 E19.41817
G1 X103.484 Y133.187 E19.43524
G1 X103.313 Y132.89 E19.45234
G1 X103.117 Y132.608 E19.46948
G1 X102.895 Y132.346 E19.48661
G1 X102.654 Y132.105 E19.50361
G1 X102.392 Y131.883 E19.52074
G1 X102.11 Y131.687 E19.53788
G1 X101.813 Y131.516 E19.55498
G1 X101.503 Y131.371 E19.57205
G1 X101.181 Y131.254 E19.58914
G1 X100.85 Y131.165 E19.60624
G1 X100.512 Y131.105 E19.62337
G1 X100.171 Y131.076 E19.64044
G1 X99.829 Y131.076 E19.65751
G1 X99.488 Y131.105 E19.67458
G1 X99.15 Y131.165 E19.69171
G1 X98.819 Y131.254 E19.70881
G1 X98.497 Y131.371 E19.7259
G1 X98.187 Y131.516 E19.74297
G1 X97.89 Y131.687 E19.76007
G1 X97.608 Y131.883 E19.7772
G0 F3600 X97.852 Y132.201
;TYPE:WALL-OUTER
G1 F1500 X97.617 Y132.4 E19.79257
G1 X97.4 Y132.617 E19.80788
G1 X97.201 Y132.852 E19.82324
G1 X97.025 Y133.105 E19.83862
G1 X96.871 Y133.372 E19.85399
G1 X96.741 Y133.65 E19.86931
G1 X96.636 Y133.939 E19.88465
G1 X96.556 Y134.237 E19.90004
G1 X96.502 Y134.54 E19.91539
G1 X96.476 Y134.846 E19.93072
G1 X96.476 Y135.154 E19.94608
G1 X96.502 Y135.46 E19.9614
G1 X96.556 Y135.763 E19.97676
G1 X96.636 Y136.061 E19.99215
G1 X96.741 Y136.35 E20.00749
G1 X96.871 Y136.628 E20.0228
G1 X97.025 Y136.895 E20.03818
G1 X97.201 Y137.148 E20.05356
G1 X97.4 Y137.383 E20.06892
G1 X97.617 Y137.6 E20.08423
G1 X97.852 Y137.799 E20.09959
G1 X98.105 Y137.975 E20.11497
G1 X98.372 Y138.129 E20.13035
G1 X98.65 Y138.259 E20.14566
G1 X98.939 Y138.364 E20.161
G1 X99.237 Y138.444 E20.17639
G1 X99.54 Y138.498 E20.19175
G1 X99.846 Y138.524 E20.20707
G1 X100.154 Y138.524 E20.22243
G1 X100.46 Y138.498 E20.23776
G1 X100.763 Y138.444 E20.25311
G1 X101.061 Y138.364 E20.2685
G1 X101.35 Y138.259 E20.28385
G1 X101.628 Y138.129 E20.29916
G1 X101.895 Y137.975 E20.31453
G1 X102.148 Y137.799 E20.32991
G1 X102.383 Y137.6 E20.34527
G1 X102.6 Y137.383 E20.36058
G1 X102.799 Y137.148 E20.37595
G1 X102.975 Y136.895 E20.39132
G1 X103.129 Y136.628 E20.4067
G1 X103.259 Y136.35 E20.42201
G1 X103.364 Y136.061 E20.43735
G1 X103.444 Y135.763 E20.45275
G1 X103.498 Y135.46 E20.4681
G1 X103.524 Y135.154 E20.48342
G1 X103.524 Y134.846 E20.49879
G1 X103.498 Y134.54 E20.51411
G1 X103.444 Y134.237 E20.52946
G1 X103.364 Y133.939 E20.54486
G1 X103.259 Y133.65 E20.5602
G1 X103.129 Y133.372 E20.57551
G1 X102.975 Y133.105 E20.59089
G1 X102.799 Y132.852 E20.60626
G1 X102.6 Y132.617 E20.62163
G1 X102.383 Y132.4 E20.63694
G1 X102.148 Y132.201 E20.6523
G1 X101.895 Y132.025 E20.66768
G1 X101.628 Y131.871 E20.68305
G1 X101.35 Y131.741 E20.69836
G1 X101.061 Y131.636 E20.7137
G1 X100.763 Y131.556 E20.7291
G1 X100.46 Y131.502 E20.74445
