;FLAVOR:Marlin
;TIME:4403
;Filament used: 4.52814m
;Layer height: 0.2
;Generated with Cura_SteamEngine master
M190 S65
M104 S210
M109 S210
G21 ;metric values
G90 ;absolute positioning
M82 ;set extruder to absolute mode
M107 ;start with the fan off
G28 X0 Y0 ;move X/Y to min endstops
G28 Z0 ;move Z to min endstops
G1 Z15.0 F9000 ;move the platform down 15mm
G92 E0 ;zero the extruded length
G1 F200 E3 ;extrude 3mm of feed stock
G92 E0 ;zero the extruded length again
G1 F9000
;Put printing message on LCD screen
M117 Printing...
;LAYER_COUNT:63
;LAYER:0
M107
G0 F3600 X73.034 Y102.767 Z0.3
G0 X72.617 Y103.127
;TYPE:SKIRT
G1 F1500 X73.034 Y102.767 E0.02748
G1 X73.498 Y102.47 E0.05497
G1 X74.001 Y102.244 E0.08248
G1 X74.531 Y102.093 E0.10998
G1 X75.077 Y102.021 E0.13745
G1 X75.628 Y102.028 E0.16494
G1 X76.172 Y102.114 E0.19242
G1 X76.698 Y102.279 E0.21992
G1 X77.195 Y102.518 E0.24744
G1 X77.651 Y102.826 E0.27489
G1 X77.991 Y103.127 E0.29754
G1 X91.927 Y117.062 E1.28077
G1 X91.948 Y117.052 E1.28193
G1 X92.237 Y116.925 E1.29768
G1 X93.025 Y116.617 E1.33989
G1 X93.025 Y96.9 E2.32357
G1 X93.065 Y96.35 E2.35109
G1 X93.184 Y95.812 E2.37858
G1 X93.38 Y95.297 E2.40607
G1 X93.648 Y94.816 E2.43354
G1 X93.982 Y94.378 E2.46102
G1 X94.377 Y93.994 E2.4885
G1 X94.823 Y93.67 E2.516
G1 X95.311 Y93.415 E2.54347
G1 X95.831 Y93.232 E2.57098
G1 X96.372 Y93.127 E2.59847
G1 X96.825 Y93.1 E2.62111
G1 X103.175 Y93.1 E2.93791
G1 X103.725 Y93.14 E2.96543
G1 X104.263 Y93.259 E2.99292
G1 X104.778 Y93.455 E3.02041
G1 X105.259 Y93.723 E3.04788
G1 X105.697 Y94.057 E3.07536
G1 X106.081 Y94.452 E3.10284
G1 X106.405 Y94.898 E3.13035
G1 X106.66 Y95.386 E3.15782
G1 X106.843 Y95.906 E3.18532
G1 X106.948 Y96.447 E3.21281
G1 X106.975 Y96.9 E3.23545
G1 X106.975 Y116.607 E4.21864
G1 X106.999 Y116.615 E4.2199
G1 X107.296 Y116.731 E4.23581
G1 X108.066 Y117.069 E4.27776
G1 X122.009 Y103.127 E5.26148
G1 X122.426 Y102.767 E5.28896
G1 X122.891 Y102.47 E5.31649
G1 X123.393 Y102.244 E5.34396
G1 X123.923 Y102.093 E5.37145
G1 X124.469 Y102.021 E5.39893
G1 X125.02 Y102.028 E5.42642
G1 X125.564 Y102.115 E5.4539
G1 X126.09 Y102.279 E5.48139
G1 X126.587 Y102.518 E5.50891
G1 X127.044 Y102.826 E5.5364
G1 X127.383 Y103.127 E5.55902
G1 X131.873 Y107.617 E5.87581
G1 X132.233 Y108.034 E5.9033
G1 X132.53 Y108.498 E5.93078
G1 X132.756 Y109.001 E5.95829
G1 X132.907 Y109.531 E5.98579
G1 X132.979 Y110.077 E6.01326
G1 X132.972 Y110.628 E6.04075
G1 X132.886 Y111.172 E6.06823
G1 X132.721 Y111.698 E6.09574
G1 X132.482 Y112.195 E6.12325
G1 X132.174 Y112.651 E6.1507
G1 X131.873 Y112.991 E6.17336
G1 X117.938 Y126.926 E7.15655
G1 X117.948 Y126.946 E7.15766
G1 X118.076 Y127.237 E7.17352
G1 X118.384 Y128.025 E7.21573
G1 X138.1 Y128.025 E8.19937
G1 X138.65 Y128.065 E8.22688
G1 X139.188 Y128.184 E8.25437
G1 X139.703 Y128.38 E8.28186
G1 X140.184 Y128.648 E8.30933
G1 X140.622 Y128.982 E8.33681
G1 X141.006 Y129.377 E8.3643
G1 X141.33 Y129.823 E8.3918
G1 X141.585 Y130.311 E8.41927
G1 X141.768 Y130.831 E8.44677
G1 X141.873 Y131.372 E8.47426
G1 X141.9 Y131.825 E8.49691
G1 X141.9 Y138.175 E8.81371
G1 X141.86 Y138.725 E8.84122
G1 X141.741 Y139.263 E8.86871
G1 X141.545 Y139.778 E8.8962
G1 X141.277 Y140.259 E8.92367
G1 X140.943 Y140.697 E8.95115
G1 X140.548 Y141.081 E8.97864
G1 X140.102 Y141.405 E9.00614
G1 X139.614 Y141.66 E9.03361
G1 X139.094 Y141.843 E9.06111
G1 X138.553 Y141.948 E9.08861
G1 X138.1 Y141.975 E9.11125
G1 X118.384 Y141.975 E10.09488
G1 X118.059 Y142.803 E10.13926
G1 X117.939 Y143.074 E10.15405
G1 X131.873 Y157.009 E11.1372
G1 X132.233 Y157.426 E11.16468
G1 X132.53 Y157.891 E11.19221
G1 X132.756 Y158.393 E11.21968
G1 X132.907 Y158.923 E11.24717
G1 X132.979 Y159.469 E11.27465
G1 X132.972 Y160.02 E11.30214
G1 X132.885 Y160.564 E11.32962
G1 X132.721 Y161.09 E11.35711
G1 X132.482 Y161.587 E11.38463
G1 X132.174 Y162.044 E11.41212
G1 X131.873 Y162.383 E11.43474
G1 X127.383 Y166.873 E11.75153
G1 X126.966 Y167.233 E11.77902
G1 X126.502 Y167.53 E11.8065
G1 X125.999 Y167.756 E11.83401
G1 X125.469 Y167.907 E11.86151
G1 X124.923 Y167.979 E11.88898
G1 X124.372 Y167.972 E11.91647
G1 X123.828 Y167.886 E11.94395
G1 X123.302 Y167.721 E11.97145
G1 X122.805 Y167.482 E11.99897
G1 X122.349 Y167.174 E12.02642
G1 X122.009 Y166.873 E12.04908
G1 X108.073 Y152.938 E13.0323
G1 X108.052 Y152.948 E13.03346
G1 X107.763 Y153.075 E13.04921
G1 X106.975 Y153.383 E13.09142
G1 X106.975 Y173.1 E14.0751
G1 X106.935 Y173.65 E14.10262
G1 X106.816 Y174.188 E14.13011
G1 X106.62 Y174.703 E14.1576
G1 X106.352 Y175.184 E14.18507
G1 X106.018 Y175.622 E14.21255
G1 X105.623 Y176.006 E14.24003
G1 X105.177 Y176.33 E14.26754
G1 X104.689 Y176.585 E14.29501
G1 X104.169 Y176.768 E14.32251
G1 X103.628 Y176.873 E14.35
G1 X103.175 Y176.9 E14.37264
G1 X96.825 Y176.9 E14.68945
G1 X96.275 Y176.86 E14.71696
G1 X95.737 Y176.741 E14.74445
G1 X95.222 Y176.545 E14.77194
G1 X94.741 Y176.277 E14.79941
G1 X94.303 Y175.943 E14.82689
G1 X93.919 Y175.548 E14.85437
G1 X93.595 Y175.102 E14.88188
G1 X93.34 Y174.614 E14.90935
G1 X93.157 Y174.094 E14.93685
G1 X93.052 Y173.553 E14.96434
G1 X93.025 Y173.1 E14.98698
G1 X93.025 Y153.393 E15.97017
G1 X93.001 Y153.385 E15.97143
G1 X92.704 Y153.269 E15.98734
G1 X91.934 Y152.931 E16.02929
G1 X77.991 Y166.873 E17.01301
G1 X77.574 Y167.233 E17.0405
G1 X77.109 Y167.53 E17.06802
G1 X76.607 Y167.756 E17.09549
G1 X76.077 Y167.907 E17.12298
G1 X75.531 Y167.979 E17.15046
G1 X74.98 Y167.972 E17.17795
G1 X74.436 Y167.885 E17.20544
G1 X73.91 Y167.721 E17.23292
G1 X73.413 Y167.482 E17.26044
G1 X72.956 Y167.174 E17.28793
G1 X72.617 Y166.873 E17.31055
G1 X68.127 Y162.383 E17.62734
G1 X67.767 Y161.966 E17.65483
G1 X67.47 Y161.502 E17.68231
G1 X67.244 Y160.999 E17.70982
G1 X67.093 Y160.469 E17.73732
G1 X67.021 Y159.923 E17.76479
G1 X67.028 Y159.372 E17.79229
G1 X67.114 Y158.828 E17.81976
G1 X67.279 Y158.302 E17.84727
G1 X67.518 Y157.805 E17.87478
G1 X67.826 Y157.349 E17.90223
G1 X68.127 Y157.009 E17.92489
G1 X82.062 Y143.073 E18.90811
G1 X82.052 Y143.052 E18.90927
G1 X81.925 Y142.764 E18.92498
G1 X81.617 Y141.975 E18.96723
G1 X61.9 Y141.975 E19.95092
G1 X61.35 Y141.935 E19.97843
G1 X60.812 Y141.816 E20.00592
G1 X60.297 Y141.62 E20.03341
G1 X59.816 Y141.352 E20.06088
G1 X59.378 Y141.018 E20.08836
G1 X58.994 Y140.623 E20.11585
G1 X58.67 Y140.177 E20.14335
G1 X58.415 Y139.689 E20.17082
G1 X58.232 Y139.169 E20.19832
G1 X58.127 Y138.628 E20.22582
G1 X58.1 Y138.175 E20.24846
G1 X58.1 Y131.825 E20.56526
G1 X58.14 Y131.275 E20.59277
G1 X58.259 Y130.737 E20.62026
G1 X58.455 Y130.222 E20.64775
G1 X58.723 Y129.741 E20.67522
G1 X59.057 Y129.303 E20.7027
G1 X59.452 Y128.919 E20.73019
G1 X59.898 Y128.595 E20.75769
G1 X60.386 Y128.34 E20.78516
G1 X60.906 Y128.157 E20.81266
G1 X61.447 Y128.052 E20.84016
G1 X61.9 Y128.025 E20.8628
G1 X81.626 Y128.025 E21.84693
G1 X82.076 Y126.94 E21.90553
G1 X68.127 Y112.991 E22.88971
G1 X67.767 Y112.574 E22.91719
G1 X67.47 Y112.109 E22.94472
G1 X67.244 Y111.607 E22.97219
G1 X67.093 Y111.077 E22.99968
G1 X67.021 Y110.531 E23.02716
G1 X67.028 Y109.98 E23.05465
G1 X67.115 Y109.436 E23.08213
G1 X67.279 Y108.91 E23.10962
G1 X67.518 Y108.413 E23.13714
G1 X67.826 Y107.956 E23.16463
G1 X68.127 Y107.617 E23.18725
G1 X72.617 Y103.127 E23.50404
G0 F3600 X72.9 Y103.41
G1 F1500 X73.296 Y103.071 E23.53005
G1 X73.738 Y102.796 E23.55602
G1 X74.218 Y102.592 E23.58204
G1 X74.723 Y102.464 E23.60803
G1 X75.242 Y102.415 E23.63404
G1 X75.762 Y102.445 E23.66003
G1 X76.272 Y102.555 E23.68605
G1 X76.758 Y102.741 E23.71202
G1 X77.211 Y102.999 E23.73802
G1 X77.708 Y103.41 E23.7702
G1 X91.846 Y117.547 E24.76768
G1 X92.124 Y117.411 E24.78312
G1 X92.382 Y117.297 E24.79719
G1 X93.425 Y116.889 E24.85306
G1 X93.425 Y96.9 E25.85032
G1 X93.465 Y96.38 E25.87634
G1 X93.584 Y95.873 E25.90232
G1 X93.779 Y95.39 E25.92831
G1 X94.045 Y94.942 E25.9543
G1 X94.377 Y94.54 E25.98031
G1 X94.767 Y94.194 E26.00632
G1 X95.205 Y93.911 E26.03234
G1 X95.68 Y93.698 E26.05831
G1 X96.183 Y93.561 E26.08432
G1 X96.825 Y93.5 E26.11649
G1 X103.175 Y93.5 E26.4333
G1 X103.695 Y93.54 E26.45932
G1 X104.202 Y93.659 E26.4853
G1 X104.685 Y93.854 E26.51129
G1 X105.133 Y94.12 E26.53728
G1 X105.535 Y94.452 E26.56329
G1 X105.881 Y94.842 E26.5893
G1 X106.164 Y95.28 E26.61532
G1 X106.377 Y95.755 E26.64129
G1 X106.514 Y96.258 E26.6673
G1 X106.575 Y96.9 E26.69947
G1 X106.575 Y116.892 E27.69688
G1 X106.869 Y116.993 E27.71239
G1 X107.135 Y117.097 E27.72663
G1 X108.156 Y117.545 E27.78226
G1 X122.292 Y103.41 E28.7796
G1 X122.688 Y103.071 E28.8056
G1 X123.13 Y102.796 E28.83157
G1 X123.61 Y102.592 E28.85759
G1 X124.115 Y102.464 E28.88359
G1 X124.634 Y102.415 E28.90959
G1 X125.154 Y102.445 E28.93558
G1 X125.664 Y102.555 E28.96161
G1 X126.151 Y102.741 E28.98762
G1 X126.603 Y102.999 E29.01358
G1 X127.1 Y103.41 E29.04576
G1 X131.59 Y107.9 E29.36255
G1 X131.929 Y108.296 E29.38856
G1 X132.204 Y108.738 E29.41453
G1 X132.408 Y109.218 E29.44055
G1 X132.536 Y109.723 E29.46654
G1 X132.585 Y110.242 E29.49255
G1 X132.555 Y110.762 E29.51854
G1 X132.445 Y111.272 E29.54457
G1 X132.259 Y111.758 E29.57053
G1 X132.001 Y112.211 E29.59654
G1 X131.59 Y112.708 E29.62871
G1 X117.453 Y126.845 E30.62615
G1 X117.589 Y127.122 E30.64155
G1 X117.703 Y127.382 E30.65571
G1 X118.11 Y128.425 E30.71157
G1 X138.1 Y128.425 E31.70887
G1 X138.62 Y128.465 E31.73489
G1 X139.127 Y128.584 E31.76087
G1 X139.61 Y128.779 E31.78686
G1 X140.058 Y129.045 E31.81286
G1 X140.46 Y129.377 E31.83887
G1 X140.806 Y129.767 E31.86488
G1 X141.089 Y130.205 E31.89089
G1 X141.302 Y130.68 E31.91687
G1 X141.439 Y131.183 E31.94287
G1 X141.5 Y131.825 E31.97505
G1 X141.5 Y138.175 E32.29185
G1 X141.46 Y138.695 E32.31787
G1 X141.341 Y139.202 E32.34385
G1 X141.146 Y139.685 E32.36984
G1 X140.88 Y140.133 E32.39583
G1 X140.548 Y140.535 E32.42184
G1 X140.158 Y140.881 E32.44785
G1 X139.72 Y141.164 E32.47387
G1 X139.245 Y141.377 E32.49984
G1 X138.742 Y141.514 E32.52585
G1 X138.1 Y141.575 E32.55802
G1 X118.111 Y141.575 E33.55528
G1 X117.686 Y142.657 E33.61328
G1 X117.572 Y142.915 E33.62735
G1 X117.454 Y143.155 E33.64069
G1 X131.59 Y157.292 E34.6381
G1 X131.929 Y157.688 E34.6641
G1 X132.204 Y158.13 E34.69008
G1 X132.408 Y158.61 E34.7161
G1 X132.536 Y159.115 E34.74209
G1 X132.585 Y159.634 E34.7681
G1 X132.555 Y160.154 E34.79408
G1 X132.445 Y160.664 E34.82011
G1 X132.259 Y161.151 E34.84612
G1 X132.001 Y161.603 E34.87208
G1 X131.59 Y162.1 E34.90426
G1 X127.1 Y166.59 E35.22105
G1 X126.704 Y166.929 E35.24706
G1 X126.262 Y167.204 E35.27303
G1 X125.782 Y167.408 E35.29905
G1 X125.277 Y167.536 E35.32504
G1 X124.758 Y167.585 E35.35105
G1 X124.238 Y167.555 E35.37704
G1 X123.728 Y167.445 E35.40307
G1 X123.242 Y167.259 E35.42903
G1 X122.789 Y167.001 E35.45504
G1 X122.292 Y166.59 E35.48721
G1 X108.154 Y152.453 E36.48469
G1 X107.876 Y152.589 E36.50013
G1 X107.618 Y152.703 E36.5142
G1 X106.575 Y153.111 E36.57008
G1 X106.575 Y173.1 E37.56733
G1 X106.535 Y173.62 E37.59335
G1 X106.416 Y174.127 E37.61933
G1 X106.221 Y174.61 E37.64532
G1 X105.955 Y175.058 E37.67131
G1 X105.623 Y175.46 E37.69733
G1 X105.233 Y175.806 E37.72334
G1 X104.795 Y176.089 E37.74935
G1 X104.32 Y176.302 E37.77532
G1 X103.817 Y176.439 E37.80133
G1 X103.175 Y176.5 E37.83351
G1 X96.825 Y176.5 E38.15031
G1 X96.305 Y176.46 E38.17633
G1 X95.798 Y176.341 E38.20231
G1 X95.315 Y176.146 E38.2283
G1 X94.867 Y175.88 E38.25429
G1 X94.465 Y175.548 E38.2803
G1 X94.119 Y175.158 E38.30631
G1 X93.836 Y174.72 E38.33233
G1 X93.623 Y174.245 E38.3583
G1 X93.486 Y173.742 E38.38431
G1 X93.425 Y173.1 E38.41648
G1 X93.425 Y153.108 E39.41389
G1 X93.131 Y153.007 E39.4294
G1 X92.865 Y152.903 E39.44365
G1 X91.844 Y152.455 E39.49927
G1 X77.708 Y166.59 E40.49661
G1 X77.312 Y166.929 E40.52261
G1 X76.87 Y167.204 E40.54859
G1 X76.39 Y167.408 E40.57461
G1 X75.885 Y167.536 E40.6006
G1 X75.366 Y167.585 E40.62661
G1 X74.846 Y167.555 E40.65259
G1 X74.336 Y167.445 E40.67862
G1 X73.849 Y167.259 E40.70463
G1 X73.397 Y167.001 E40.73059
G1 X72.9 Y166.59 E40.76277
G1 X68.41 Y162.1 E41.07956
G1 X68.071 Y161.704 E41.10557
G1 X67.796 Y161.262 E41.13154
G1 X67.592 Y160.782 E41.15756
G1 X67.464 Y160.277 E41.18355
G1 X67.415 Y159.758 E41.20956
G1 X67.445 Y159.238 E41.23555
G1 X67.555 Y158.728 E41.26158
G1 X67.741 Y158.242 E41.28754
G1 X67.999 Y157.789 E41.31355
G1 X68.41 Y157.292 E41.34572
G1 X82.547 Y143.154 E42.3432
G1 X82.411 Y142.876 E42.35864
G1 X82.297 Y142.618 E42.37271
G1 X81.889 Y141.575 E42.42859
G1 X61.9 Y141.575 E43.42584
G1 X61.38 Y141.535 E43.45186
G1 X60.873 Y141.416 E43.47784
G1 X60.39 Y141.221 E43.50383
G1 X59.942 Y140.955 E43.52982
G1 X59.54 Y140.623 E43.55584
G1 X59.194 Y140.233 E43.58185
G1 X58.911 Y139.795 E43.60786
G1 X58.698 Y139.32 E43.63383
G1 X58.561 Y138.817 E43.65984
G1 X58.5 Y138.175 E43.69202
G1 X58.5 Y131.825 E44.00882
G1 X58.54 Y131.305 E44.03484
G1 X58.659 Y130.798 E44.06082
G1 X58.854 Y130.315 E44.08681
G1 X59.12 Y129.867 E44.1128
G1 X59.452 Y129.465 E44.13881
G1 X59.842 Y129.119 E44.16482
G1 X60.28 Y128.836 E44.19084
G1 X60.755 Y128.623 E44.21681
G1 X61.258 Y128.486 E44.24282
G1 X61.9 Y128.425 E44.27499
G1 X81.894 Y128.425 E45.2725
G1 X82.548 Y126.847 E45.35772
G1 X68.41 Y112.708 E46.35527
G1 X68.071 Y112.312 E46.38127
G1 X67.796 Y111.87 E46.40724
G1 X67.592 Y111.39 E46.43326
G1 X67.464 Y110.885 E46.45926
G1 X67.415 Y110.366 E46.48526
G1 X67.445 Y109.846 E46.51125
G1 X67.555 Y109.336 E46.53728
G1 X67.741 Y108.849 E46.56329
G1 X67.999 Y108.397 E46.58925
G1 X68.41 Y107.9 E46.62143
G1 X72.9 Y103.41 E46.93822
G0 F3600 X73.183 Y103.693
G1 F1500 X73.556 Y103.376 E46.96264
G1 X73.976 Y103.124 E46.98708
G1 X74.431 Y102.944 E47.01149
G1 X74.909 Y102.84 E47.0359
G1 X75.398 Y102.815 E47.06033
G1 X75.884 Y102.871 E47.08473
G1 X76.355 Y103.004 E47.10915
G1 X76.798 Y103.213 E47.13359
G1 X77.201 Y103.49 E47.15798
G1 X77.425 Y103.693 E47.17307
G1 X91.765 Y118.032 E48.1848
G1 X92.3 Y117.77 E48.21452
G1 X92.528 Y117.67 E48.22694
G1 X93.764 Y117.187 E48.29314
G1 X93.825 Y117.167 E48.29634
G1 X93.825 Y96.9 E49.30747
G1 X93.865 Y96.412 E49.3319
G1 X93.984 Y95.937 E49.35633
G1 X94.178 Y95.488 E49.38073
G1 X94.443 Y95.076 E49.40517
G1 X94.771 Y94.713 E49.42958
G1 X95.154 Y94.408 E49.454
G1 X95.582 Y94.17 E49.47844
G1 X96.042 Y94.004 E49.50283
G1 X96.523 Y93.915 E49.52724
G1 X96.825 Y93.9 E49.54232
G1 X103.175 Y93.9 E49.85913
G1 X103.663 Y93.94 E49.88355
G1 X104.138 Y94.059 E49.90799
G1 X104.587 Y94.253 E49.93239
G1 X104.999 Y94.518 E49.95683
G1 X105.362 Y94.846 E49.98124
G1 X105.667 Y95.229 E50.00566
G1 X105.905 Y95.657 E50.03009
G1 X106.071 Y96.117 E50.05449
G1 X106.16 Y96.598 E50.0789
G1 X106.175 Y96.9 E50.09398
G1 X106.175 Y117.179 E51.10571
G1 X106.74 Y117.372 E51.13549
G1 X106.974 Y117.463 E51.14802
G1 X108.188 Y117.996 E51.21417
G1 X108.243 Y118.024 E51.21724
G1 X122.575 Y103.693 E52.22841
G1 X122.948 Y103.376 E52.25283
G1 X123.368 Y103.124 E52.27727
G1 X123.823 Y102.944 E52.30168
G1 X124.301 Y102.84 E52.32608
G1 X124.79 Y102.815 E52.35051
G1 X125.276 Y102.871 E52.37492
G1 X125.747 Y103.004 E52.39934
G1 X126.19 Y103.213 E52.42377
G1 X126.593 Y103.49 E52.44817
G1 X126.817 Y103.693 E52.46325
G1 X131.307 Y108.183 E52.78005
G1 X131.624 Y108.556 E52.80447
G1 X131.876 Y108.976 E52.82891
G1 X132.056 Y109.431 E52.85332
G1 X132.16 Y109.909 E52.87772
G1 X132.185 Y110.398 E52.90215
G1 X132.129 Y110.884 E52.92656
G1 X131.996 Y111.355 E52.95097
G1 X131.787 Y111.798 E52.97541
G1 X131.51 Y112.201 E52.99981
G1 X131.307 Y112.425 E53.01489
G1 X116.968 Y126.764 E54.02659
G1 X117.23 Y127.298 E54.05626
G1 X117.331 Y127.528 E54.06879
G1 X117.814 Y128.765 E54.13504
G1 X117.834 Y128.825 E54.1382
G1 X138.1 Y128.825 E55.14927
G1 X138.588 Y128.865 E55.1737
G1 X139.063 Y128.984 E55.19813
G1 X139.512 Y129.178 E55.22254
G1 X139.924 Y129.443 E55.24697
G1 X140.287 Y129.771 E55.27138
G1 X140.592 Y130.154 E55.29581
G1 X140.83 Y130.582 E55.32024
G1 X140.996 Y131.042 E55.34464
G1 X141.085 Y131.523 E55.36904
G1 X141.1 Y131.825 E55.38413
G1 X141.1 Y138.175 E55.70093
G1 X141.06 Y138.663 E55.72536
G1 X140.941 Y139.138 E55.74979
G1 X140.747 Y139.587 E55.77419
G1 X140.482 Y139.999 E55.79863
G1 X140.154 Y140.362 E55.82304
G1 X139.771 Y140.667 E55.84747
G1 X139.343 Y140.905 E55.8719
