;FLAVOR:Marlin
;TIME:1992
;Filament used: 1.85962m
;Layer height: 0.2
;Generated with Cura_SteamEngine 2.7.0
M190 S65
M104 S210
M109 S210
G21 ;metric values
G90 ;absolute positioning
M82 ;set extruder to absolute mode
M107 ;start with the fan off
G28 X0 Y0 ;move X/Y to min endstops
G28 Z0 ;move Z to min endstops
G1 Z15.0 F9000 ;move the platform down 15mm
G92 E0 ;zero the extruded length
G1 F200 E3 ;extrude 3mm of feed stock
G92 E0 ;zero the extruded length again
G1 F9000
;Put printing message on LCD screen
M117 Printing...
;LAYER_COUNT:50
;LAYER:0
M107
G0 F3600 X87.473 Y118.341 Z0.3
;TYPE:SKIRT
G1 F1500 X88.693 Y117.494 E0.0741
G1 X88.968 Y117.321 E0.09031
G1 X90.442 Y116.484 E0.17487
G1 X90.749 Y116.328 E0.19205
G1 X92.125 Y115.712 E0.26727
G1 X92.41 Y115.599 E0.28256
G1 X93.834 Y115.102 E0.35781
G1 X94.215 Y114.992 E0.37759
G1 X96.411 Y114.488 E0.49
G1 X96.794 Y114.422 E0.50939
G1 X98.295 Y114.245 E0.58479
G1 X98.614 Y114.221 E0.60075
G1 X100.114 Y114.178 E0.67562
G1 X100.423 Y114.183 E0.69104
G1 X101.909 Y114.268 E0.7653
G1 X102.223 Y114.3 E0.78104
G1 X103.723 Y114.519 E0.85667
G1 X104.03 Y114.577 E0.87226
G1 X105.501 Y114.924 E0.94766
G1 X105.798 Y115.008 E0.96306
G1 X107.079 Y115.429 E1.03033
G1 X107.359 Y115.534 E1.04525
G1 X108.903 Y116.188 E1.12891
G1 X109.251 Y116.358 E1.14823
G1 X110.906 Y117.28 E1.24275
G1 X111.288 Y117.526 E1.26542
G1 X113.372 Y119.06 E1.39452
G1 X113.706 Y119.339 E1.41623
G1 X114.809 Y120.378 E1.49183
G1 X115.028 Y120.602 E1.50746
G1 X116.034 Y121.73 E1.58286
G1 X116.236 Y121.978 E1.59882
G1 X117.148 Y123.205 E1.67509
G1 X117.395 Y123.585 E1.6977
G1 X118.771 Y126.026 E1.8375
G1 X118.971 Y126.44 E1.86044
G1 X119.605 Y128.002 E1.94454
G1 X119.717 Y128.321 E1.96141
G1 X120.146 Y129.75 E2.03585
G1 X120.238 Y130.131 E2.0554
G1 X120.651 Y132.368 E2.16889
G1 X120.701 Y132.759 E2.18856
G1 X120.811 Y134.263 E2.26379
G1 X120.821 Y134.574 E2.27932
G1 X120.801 Y136.072 E2.35406
G1 X120.783 Y136.388 E2.36985
G1 X120.631 Y137.882 E2.44477
G1 X120.585 Y138.194 E2.4605
G1 X120.301 Y139.68 E2.53598
G1 X120.206 Y140.062 E2.55562
G1 X119.538 Y142.235 E2.66904
G1 X119.401 Y142.606 E2.68877
G1 X118.8 Y143.996 E2.76432
G1 X118.641 Y144.319 E2.78228
G1 X117.724 Y145.965 E2.87629
G1 X117.478 Y146.348 E2.899
G1 X115.938 Y148.439 E3.02856
G1 X115.659 Y148.773 E3.05027
G1 X114.626 Y149.869 E3.12541
G1 X114.41 Y150.079 E3.14044
G1 X113.406 Y150.98 E3.20774
G1 X113.171 Y151.174 E3.22294
G1 X111.856 Y152.167 E3.30515
G1 X111.579 Y152.357 E3.32191
G1 X110.284 Y153.157 E3.39785
G1 X110.021 Y153.304 E3.41288
G1 X108.839 Y153.904 E3.47902
G1 X108.564 Y154.03 E3.49411
G1 X107.002 Y154.664 E3.57821
G1 X106.683 Y154.776 E3.59508
G1 X105.254 Y155.205 E3.66952
G1 X104.873 Y155.297 E3.68907
G1 X102.636 Y155.71 E3.80256
G1 X102.246 Y155.76 E3.82218
G1 X100.739 Y155.871 E3.89756
G1 X100.424 Y155.881 E3.91329
G1 X98.937 Y155.86 E3.98748
G1 X98.626 Y155.842 E4.00302
G1 X97.124 Y155.69 E4.07834
G1 X96.81 Y155.644 E4.09417
G1 X95.324 Y155.36 E4.16965
G1 X94.942 Y155.265 E4.18929
G1 X92.769 Y154.597 E4.30271
G1 X92.398 Y154.46 E4.32244
G1 X91.008 Y153.859 E4.39799
G1 X90.729 Y153.724 E4.41346
G1 X89.421 Y153.019 E4.48759
G1 X89.15 Y152.858 E4.50331
G1 X87.899 Y152.035 E4.57802
G1 X87.648 Y151.853 E4.59349
G1 X86.469 Y150.923 E4.66841
G1 X86.172 Y150.661 E4.68817
G1 X84.553 Y149.065 E4.80159
G1 X84.292 Y148.778 E4.82094
G1 X83.347 Y147.621 E4.89547
G1 X83.155 Y147.364 E4.91148
G1 X82.305 Y146.11 E4.98706
G1 X82.141 Y145.844 E5.00265
G1 X81.402 Y144.519 E5.07834
G1 X81.26 Y144.236 E5.09413
G1 X80.652 Y142.878 E5.16836
G1 X80.539 Y142.593 E5.18366
G1 X80.043 Y141.171 E5.2588
G1 X79.934 Y140.792 E5.27847
G1 X79.429 Y138.596 E5.39089
G1 X79.353 Y138.131 E5.4144
G1 X79.139 Y135.888 E5.52681
G1 X79.123 Y135.498 E5.54628
G1 X79.143 Y134.007 E5.62067
G1 X79.161 Y133.691 E5.63647
G1 X79.315 Y132.176 E5.71244
G1 X79.361 Y131.863 E5.72822
G1 X79.646 Y130.374 E5.80386
G1 X79.738 Y130.003 E5.82293
G1 X80.35 Y127.991 E5.92785
G1 X80.479 Y127.634 E5.94678
G1 X81.129 Y126.1 E6.0299
G1 X81.275 Y125.797 E6.04668
G1 X81.984 Y124.482 E6.12122
G1 X82.14 Y124.22 E6.13643
G1 X82.875 Y123.096 E6.20343
G1 X83.047 Y122.855 E6.2182
G1 X84.059 Y121.555 E6.3004
G1 X84.336 Y121.239 E6.32136
G1 X85.939 Y119.612 E6.43531
G1 X86.217 Y119.358 E6.4541
G1 X87.24 Y118.517 E6.52017
G1 X87.473 Y118.341 E6.53474
G0 F3600 X87.701 Y118.669
G1 F1500 X88.921 Y117.822 E6.60883
G1 X89.166 Y117.668 E6.62327
G1 X90.64 Y116.831 E6.70784
G1 X90.912 Y116.693 E6.72305
G1 X92.288 Y116.077 E6.79827
G1 X92.542 Y115.977 E6.81189
G1 X93.966 Y115.48 E6.88713
G1 X94.304 Y115.382 E6.90469
G1 X96.5 Y114.878 E7.0171
G1 X96.841 Y114.819 E7.03436
G1 X98.342 Y114.642 E7.10977
G1 X98.625 Y114.621 E7.12392
G1 X100.125 Y114.578 E7.19879
G1 X100.4 Y114.582 E7.21251
G1 X101.886 Y114.667 E7.28677
G1 X102.165 Y114.696 E7.30076
G1 X103.665 Y114.915 E7.37639
G1 X103.938 Y114.966 E7.39025
G1 X105.409 Y115.313 E7.46565
G1 X105.673 Y115.388 E7.47934
G1 X106.954 Y115.809 E7.54662
G1 X107.203 Y115.902 E7.55988
G1 X108.747 Y116.556 E7.64353
G1 X109.056 Y116.708 E7.66071
G1 X110.711 Y117.63 E7.75523
G1 X111.051 Y117.848 E7.77538
G1 X113.135 Y119.382 E7.90448
G1 X113.432 Y119.63 E7.92378
G1 X114.535 Y120.669 E7.99938
G1 X114.729 Y120.868 E8.01325
G1 X115.735 Y121.996 E8.08865
G1 X115.915 Y122.217 E8.10287
G1 X116.827 Y123.444 E8.17915
G1 X117.047 Y123.782 E8.19927
G1 X118.423 Y126.223 E8.33907
G1 X118.6 Y126.591 E8.35944
G1 X119.234 Y128.153 E8.44354
G1 X119.334 Y128.436 E8.45852
G1 X119.763 Y129.865 E8.53295
G1 X119.845 Y130.204 E8.55035
G1 X120.258 Y132.441 E8.66384
G1 X120.302 Y132.789 E8.68134
G1 X120.412 Y134.293 E8.75658
G1 X120.421 Y134.569 E8.77036
G1 X120.401 Y136.067 E8.8451
G1 X120.385 Y136.348 E8.85914
G1 X120.233 Y137.842 E8.93406
G1 X120.192 Y138.119 E8.94803
G1 X119.908 Y139.605 E9.02351
G1 X119.824 Y139.944 E9.04093
G1 X119.156 Y142.117 E9.15435
G1 X119.034 Y142.447 E9.1719
G1 X118.433 Y143.837 E9.24746
G1 X118.291 Y144.124 E9.26343
G1 X117.374 Y145.77 E9.35744
G1 X117.156 Y146.111 E9.37763
G1 X115.616 Y148.202 E9.50719
G1 X115.368 Y148.499 E9.52649
G1 X114.335 Y149.595 E9.60163
G1 X114.143 Y149.782 E9.615
G1 X113.139 Y150.683 E9.6823
G1 X112.93 Y150.855 E9.69581
G1 X111.615 Y151.848 E9.77802
G1 X111.369 Y152.016 E9.79288
G1 X110.074 Y152.816 E9.86882
G1 X109.84 Y152.947 E9.8822
G1 X108.658 Y153.547 E9.94833
G1 X108.413 Y153.659 E9.96177
G1 X106.851 Y154.293 E10.04588
G1 X106.568 Y154.393 E10.06085
G1 X105.139 Y154.822 E10.13529
G1 X104.8 Y154.904 E10.15269
G1 X102.563 Y155.317 E10.26618
G1 X102.217 Y155.361 E10.28358
G1 X100.71 Y155.472 E10.35897
G1 X100.43 Y155.481 E10.37294
G1 X98.943 Y155.46 E10.44714
G1 X98.666 Y155.444 E10.46098
G1 X97.164 Y155.292 E10.5363
G1 X96.885 Y155.251 E10.55037
G1 X95.399 Y154.967 E10.62585
G1 X95.06 Y154.883 E10.64327
G1 X92.887 Y154.215 E10.75669
G1 X92.557 Y154.093 E10.77424
G1 X91.167 Y153.492 E10.84979
G1 X90.919 Y153.372 E10.86354
G1 X89.611 Y152.667 E10.93767
G1 X89.37 Y152.523 E10.95168
G1 X88.119 Y151.7 E11.02638
G1 X87.896 Y151.539 E11.04011
G1 X86.717 Y150.609 E11.11502
G1 X86.453 Y150.376 E11.13259
G1 X84.834 Y148.78 E11.24601
G1 X84.602 Y148.525 E11.26321
G1 X83.657 Y147.368 E11.33774
G1 X83.486 Y147.139 E11.352
G1 X82.636 Y145.885 E11.42758
G1 X82.49 Y145.649 E11.44142
G1 X81.751 Y144.324 E11.51711
G1 X81.625 Y144.073 E11.53113
G1 X81.017 Y142.715 E11.60536
G1 X80.917 Y142.461 E11.61898
G1 X80.421 Y141.039 E11.69411
G1 X80.323 Y140.702 E11.71162
G1 X79.818 Y138.506 E11.82404
G1 X79.751 Y138.093 E11.84491
G1 X79.537 Y135.85 E11.95733
G1 X79.523 Y135.503 E11.97465
G1 X79.543 Y134.012 E12.04905
G1 X79.559 Y133.731 E12.06309
G1 X79.713 Y132.216 E12.13906
G1 X79.754 Y131.938 E12.15308
G1 X80.039 Y130.449 E12.22871
G1 X80.12 Y130.12 E12.24562
G1 X80.732 Y128.108 E12.35054
G1 X80.848 Y127.791 E12.36738
G1 X81.498 Y126.257 E12.4505
G1 X81.627 Y125.986 E12.46547
G1 X82.336 Y124.671 E12.54001
G1 X82.475 Y124.439 E12.5535
G1 X83.21 Y123.315 E12.6205
G1 X83.363 Y123.1 E12.63367
G1 X84.375 Y121.8 E12.71586
G1 X84.621 Y121.52 E12.73445
G1 X86.224 Y119.893 E12.8484
G1 X86.471 Y119.667 E12.86511
G1 X87.494 Y118.826 E12.93118
G1 X87.701 Y118.669 E12.94414
G1 F1500 E6.44414
G0 F3600 X89.194 Y120.709
G0 X89.941 Y121.73
G0 X89.884 Y121.894
G0 X89.824 Y121.815
;TYPE:WALL-INNER
G1 F1500 E12.94414
G1 X90.418 Y121.38 E12.98087
G1 X91.008 Y120.985 E13.01629
G1 X91.638 Y120.604 E13.05302
G1 X92.291 Y120.245 E13.0902
G1 X92.935 Y119.928 E13.12601
G1 X93.592 Y119.639 E13.16182
G1 X94.272 Y119.374 E13.19823
G1 X94.958 Y119.141 E13.23438
G1 X95.655 Y118.938 E13.27059
G1 X96.374 Y118.762 E13.30752
G1 X97.075 Y118.623 E13.34318
G1 X97.794 Y118.512 E13.37947
G1 X98.525 Y118.432 E13.41616
G1 X99.244 Y118.385 E13.45211
G1 X99.972 Y118.369 E13.48844
G1 X100.701 Y118.385 E13.52482
G1 X101.42 Y118.432 E13.56076
G1 X102.15 Y118.512 E13.5974
G1 X102.869 Y118.623 E13.6337
G1 X103.574 Y118.763 E13.66956
G1 X104.29 Y118.938 E13.70633
G1 X104.987 Y119.141 E13.74255
G1 X105.664 Y119.371 E13.77822
G1 X106.36 Y119.642 E13.81548
G1 X107.011 Y119.928 E13.85096
G1 X107.654 Y120.245 E13.88672
G1 X108.307 Y120.604 E13.9239
G1 X108.922 Y120.976 E13.95976
G1 X109.519 Y121.375 E13.99558
G1 X110.119 Y121.815 E14.0327
G1 X110.673 Y122.258 E14.06809
G1 X111.239 Y122.755 E14.10567
G1 X111.752 Y123.246 E14.1411
G1 X112.249 Y123.765 E14.17695
G1 X112.74 Y124.324 E14.21407
G1 X113.189 Y124.885 E14.24992
G1 X113.625 Y125.477 E14.2866
G1 X114.019 Y126.067 E14.32199
G1 X114.401 Y126.697 E14.35875
G1 X114.747 Y127.326 E14.39457
G1 X115.076 Y127.993 E14.43167
G1 X115.362 Y128.644 E14.46715
G1 X115.635 Y129.345 E14.50468
G1 X115.86 Y130.008 E14.53961
G1 X116.066 Y130.714 E14.5763
G1 X116.241 Y131.43 E14.61307
G1 X116.38 Y132.126 E14.64848
G1 X116.491 Y132.845 E14.68478
G1 X116.572 Y133.584 E14.72187
G1 X116.619 Y134.301 E14.75772
G1 X116.635 Y135.019 E14.79355
G1 X116.619 Y135.761 E14.83057
G1 X116.573 Y136.47 E14.86602
G1 X116.492 Y137.21 E14.90316
G1 X116.383 Y137.92 E14.939
G1 X116.243 Y138.625 E14.97485
G1 X116.066 Y139.349 E15.01204
G1 X115.865 Y140.039 E15.04789
G1 X115.635 Y140.719 E15.08371
G1 X115.365 Y141.411 E15.12077
G1 X115.076 Y142.069 E15.15662
G1 X114.759 Y142.713 E15.19243
G1 X114.4 Y143.366 E15.22961
G1 X114.028 Y143.981 E15.26547
G1 X113.622 Y144.589 E15.30194
G1 X113.191 Y145.177 E15.33831
G1 X112.746 Y145.732 E15.3738
G1 X112.254 Y146.292 E15.41099
G1 X111.758 Y146.811 E15.44681
G1 X111.239 Y147.308 E15.48266
G1 X110.68 Y147.799 E15.51978
G1 X110.113 Y148.254 E15.55605
G1 X109.541 Y148.674 E15.59145
G1 X108.93 Y149.081 E15.62808
G1 X108.296 Y149.467 E15.66511
G1 X107.671 Y149.809 E15.70066
G1 X107.01 Y150.135 E15.73743
G1 X106.36 Y150.421 E15.77286
G1 X105.669 Y150.69 E15.80985
G1 X104.98 Y150.924 E15.84615
G1 X104.29 Y151.125 E15.88201
G1 X103.574 Y151.3 E15.91878
G1 X102.869 Y151.44 E15.95464
G1 X102.15 Y151.551 E15.99094
G1 X101.42 Y151.631 E16.02757
G1 X100.7 Y151.678 E16.06357
G1 X99.972 Y151.695 E16.0999
G1 X99.244 Y151.678 E16.13623
G1 X98.525 Y151.631 E16.17218
G1 X97.794 Y151.551 E16.20887
G1 X97.075 Y151.44 E16.24516
G1 X96.374 Y151.301 E16.28082
G1 X95.654 Y151.125 E16.31779
G1 X94.958 Y150.922 E16.35396
G1 X94.269 Y150.688 E16.39027
G1 X93.592 Y150.424 E16.42652
G1 X92.936 Y150.135 E16.46228
G1 X92.274 Y149.809 E16.4991
G1 X91.649 Y149.467 E16.53464
G1 X91.015 Y149.081 E16.57167
G1 X90.404 Y148.674 E16.6083
G1 X89.831 Y148.254 E16.64375
G1 X89.265 Y147.799 E16.67998
G1 X88.706 Y147.308 E16.7171
G1 X88.187 Y146.811 E16.75295
G1 X87.691 Y146.292 E16.78876
G1 X87.199 Y145.732 E16.82595
G1 X86.745 Y145.166 E16.86215
G1 X86.325 Y144.593 E16.8976
G1 X85.917 Y143.981 E16.93429
G1 X85.535 Y143.351 E16.97105
G1 X85.192 Y142.725 E17.00666
G1 X84.869 Y142.069 E17.04314
G1 X84.58 Y141.411 E17.079
G1 X84.31 Y140.719 E17.11605
G1 X84.08 Y140.039 E17.15187
G1 X83.879 Y139.349 E17.18772
G1 X83.702 Y138.625 E17.22491
G1 X83.562 Y137.92 E17.26077
G1 X83.453 Y137.21 E17.2966
G1 X83.372 Y136.47 E17.33374
G1 X83.326 Y135.761 E17.36919
G1 X83.309 Y135.046 E17.40487
G1 X83.326 Y134.301 E17.44205
G1 X83.372 Y133.593 E17.47745
G1 X83.453 Y132.854 E17.51453
G1 X83.562 Y132.143 E17.55042
G1 X83.702 Y131.438 E17.58628
G1 X83.879 Y130.714 E17.62346
G1 X84.08 Y130.024 E17.65932
G1 X84.31 Y129.345 E17.69509
G1 X84.58 Y128.651 E17.73224
G1 X84.865 Y128.001 E17.76765
G1 X85.194 Y127.334 E17.80475
G1 X85.535 Y126.712 E17.84014
G1 X85.917 Y126.082 E17.8769
G1 X86.325 Y125.47 E17.91359
G1 X86.745 Y124.898 E17.949
G1 X87.199 Y124.331 E17.98524
G1 X87.696 Y123.765 E18.02282
G1 X88.187 Y123.252 E18.05824
G1 X88.706 Y122.755 E18.09409
G1 X89.265 Y122.264 E18.13121
G1 X89.824 Y121.815 E18.16698
G0 F3600 X89.884 Y121.894
G0 X97.614 Y131.958
G0 X97.674 Y132.037
G1 F1500 X97.421 Y132.248 E18.18342
G1 X97.189 Y132.481 E18.19982
G1 X96.976 Y132.733 E18.21629
G1 X96.788 Y133.004 E18.23274
G1 X96.623 Y133.288 E18.24913
G1 X96.484 Y133.587 E18.26558
G1 X96.371 Y133.897 E18.28204
G1 X96.287 Y134.215 E18.29845
G1 X96.23 Y134.538 E18.31481
G1 X96.2 Y134.866 E18.33124
G1 X96.2 Y135.197 E18.34776
G1 X96.23 Y135.525 E18.36419
G1 X96.287 Y135.848 E18.38055
G1 X96.371 Y136.166 E18.39696
G1 X96.484 Y136.477 E18.41347
G1 X96.623 Y136.776 E18.42992
G1 X96.789 Y137.061 E18.44638
G1 X96.976 Y137.33 E18.46272
G1 X97.189 Y137.583 E18.47922
G1 X97.421 Y137.815 E18.49559
G1 X97.674 Y138.028 E18.51209
G1 X97.943 Y138.215 E18.52843
G1 X98.228 Y138.381 E18.54489
G1 X98.527 Y138.52 E18.56134
G1 X98.838 Y138.633 E18.57785
G1 X99.156 Y138.717 E18.59426
G1 X99.479 Y138.774 E18.61062
G1 X99.807 Y138.804 E18.62705
G1 X100.138 Y138.804 E18.64357
G1 X100.466 Y138.774 E18.66
G1 X100.789 Y138.717 E18.67636
G1 X101.107 Y138.633 E18.69277
G1 X101.417 Y138.52 E18.70923
G1 X101.716 Y138.381 E18.72568
G1 X102 Y138.216 E18.74207
G1 X102.271 Y138.028 E18.75852
G1 X102.523 Y137.815 E18.77499
G1 X102.756 Y137.583 E18.79139
G1 X102.967 Y137.33 E18.80783
G1 X103.156 Y137.062 E18.82419
G1 X103.322 Y136.776 E18.84068
G1 X103.461 Y136.475 E18.85723
G1 X103.573 Y136.166 E18.87362
G1 X103.658 Y135.849 E18.89
G1 X103.715 Y135.524 E18.90646
G1 X103.744 Y135.197 E18.92284
G1 X103.744 Y134.866 E18.93935
G1 X103.715 Y134.539 E18.95573
G1 X103.658 Y134.214 E18.97219
G1 X103.573 Y133.897 E18.98856
G1 X103.461 Y133.589 E19.00491
G1 X103.322 Y133.288 E19.02146
G1 X103.156 Y133.002 E19.03795
G1 X102.967 Y132.733 E19.05436
G1 X102.756 Y132.481 E19.07075
G1 X102.523 Y132.248 E19.08719
G1 X102.271 Y132.037 E19.10359
G1 X102.002 Y131.848 E19.11999
G1 X101.716 Y131.682 E19.13649
G1 X101.415 Y131.543 E19.15303
G1 X101.107 Y131.431 E19.16938
G1 X100.79 Y131.346 E19.18575
G1 X100.465 Y131.289 E19.20222
G1 X100.138 Y131.26 E19.21859
G1 X99.807 Y131.26 E19.23511
G1 X99.48 Y131.289 E19.25149
G1 X99.155 Y131.346 E19.26795
G1 X98.838 Y131.431 E19.28432
G1 X98.529 Y131.543 E19.30072
G1 X98.228 Y131.682 E19.31726
G1 X97.942 Y131.848 E19.33376
G1 X97.674 Y132.037 E19.35012
G0 F3600 X97.918 Y132.354
;TYPE:WALL-OUTER
G1 F1500 X97.692 Y132.543 E19.36482
G1 X97.484 Y132.752 E19.37953
G1 X97.294 Y132.977 E19.39422
G1 X97.126 Y133.219 E19.40892
G1 X96.978 Y133.473 E19.42358
G1 X96.854 Y133.74 E19.43827
G1 X96.753 Y134.017 E19.45298
G1 X96.678 Y134.301 E19.46764
G1 X96.627 Y134.591 E19.48233
G1 X96.6 Y134.884 E19.49701
G1 X96.6 Y135.179 E19.51172
G1 X96.627 Y135.472 E19.5264
G1 X96.678 Y135.762 E19.54109
G1 X96.753 Y136.046 E19.55575
G1 X96.854 Y136.324 E19.5705
G1 X96.978 Y136.591 E19.58519
G1 X97.126 Y136.846 E19.5999
G1 X97.294 Y137.086 E19.61452
