;FLAVOR:Marlin
;TIME:7640
;Filament used: 6.23227m
;Layer height: 0.2
;Generated with Cura_SteamEngine 2.7.0
M190 S65
M104 S210
M109 S210
G21 ;metric values
G90 ;absolute positioning
M82 ;set extruder to absolute mode
M107 ;start with the fan off
G28 X0 Y0 ;move X/Y to min endstops
G28 Z0 ;move Z to min endstops
G1 Z15.0 F9000 ;move the platform down 15mm
G92 E0 ;zero the extruded length
G1 F200 E3 ;extrude 3mm of feed stock
G92 E0 ;zero the extruded length again
G1 F9000
;Put printing message on LCD screen
M117 Printing...
;LAYER_COUNT:18
;LAYER:0
M107
G0 F3600 X48.811 Y56.9 Z0.3
;TYPE:SKIRT
G1 F1500 X49.704 Y56.165 E0.0577
G1 X49.99 Y55.953 E0.07546
G1 X51.021 Y55.263 E0.13736
G1 X51.346 Y55.07 E0.15621
G1 X53.581 Y53.893 E0.28224
G1 X54.098 Y53.67 E0.31033
G1 X55.825 Y53.082 E0.40134
G1 X56.316 Y52.953 E0.42667
G1 X58.321 Y52.574 E0.52847
G1 X58.839 Y52.514 E0.55449
G1 X61.357 Y52.408 E0.68022
G1 X61.508 Y52.405 E0.68776
G1 X139.186 Y52.412 E4.56313
G1 X139.448 Y52.422 E4.57621
G1 X141.768 Y52.591 E4.69226
G1 X142.278 Y52.665 E4.71797
G1 X144.022 Y53.048 E4.80705
G1 X144.572 Y53.216 E4.83575
G1 X146.963 Y54.16 E4.96399
G1 X147.447 Y54.394 E4.99081
G1 X149.177 Y55.397 E5.09058
G1 X149.599 Y55.684 E5.11604
G1 X151.638 Y57.291 E5.24556
G1 X152.017 Y57.636 E5.27113
G1 X153.366 Y59.053 E5.36874
G1 X153.629 Y59.362 E5.38899
G1 X154.839 Y60.96 E5.48899
G1 X155.054 Y61.277 E5.5081
G1 X156.08 Y62.982 E5.60737
G1 X156.254 Y63.308 E5.62581
G1 X157.126 Y65.165 E5.72816
G1 X157.262 Y65.497 E5.74606
G1 X157.949 Y67.443 E5.84902
G1 X158.05 Y67.78 E5.86657
G1 X158.516 Y69.673 E5.96383
G1 X158.579 Y69.995 E5.9802
G1 X158.893 Y72.069 E6.08485
G1 X158.93 Y72.435 E6.10321
G1 X159.062 Y75.181 E6.24036
G1 X159.066 Y75.354 E6.249
G1 X159.053 Y195.285 E12.23238
G1 X159.042 Y195.567 E12.24646
G1 X158.813 Y198.485 E12.39248
G1 X158.755 Y198.905 E12.41364
G1 X158.27 Y201.345 E12.53775
G1 X158.161 Y201.762 E12.55925
G1 X157.293 Y204.415 E12.69852
G1 X157.132 Y204.82 E12.72026
G1 X156.267 Y206.671 E12.82219
G1 X156.104 Y206.981 E12.83967
G1 X155.424 Y208.13 E12.90628
G1 X155.245 Y208.403 E12.92256
G1 X153.68 Y210.571 E13.05596
G1 X153.297 Y211.019 E13.08537
G1 X151.374 Y212.928 E13.22055
G1 X151.12 Y213.157 E13.23761
G1 X150.278 Y213.847 E13.29193
G1 X149.998 Y214.055 E13.30933
G1 X148.979 Y214.737 E13.3705
G1 X148.656 Y214.93 E13.38927
G1 X146.423 Y216.107 E13.51521
G1 X145.903 Y216.33 E13.54343
G1 X144.174 Y216.918 E13.63455
G1 X143.684 Y217.047 E13.65983
G1 X141.679 Y217.426 E13.76163
G1 X141.161 Y217.486 E13.78764
G1 X138.643 Y217.592 E13.91338
G1 X138.492 Y217.595 E13.92091
G1 X60.806 Y217.588 E17.79668
G1 X60.585 Y217.581 E17.80771
G1 X58.517 Y217.454 E17.91108
G1 X58.028 Y217.39 E17.93569
G1 X56.279 Y217.038 E18.02469
G1 X55.836 Y216.92 E18.04756
G1 X54.241 Y216.381 E18.13156
G1 X53.879 Y216.236 E18.15102
G1 X52.739 Y215.707 E18.21372
G1 X52.386 Y215.518 E18.23369
G1 X50.213 Y214.199 E18.36051
G1 X49.782 Y213.892 E18.38691
G1 X48.293 Y212.656 E18.48346
G1 X47.979 Y212.362 E18.50492
G1 X46.59 Y210.896 E18.60567
G1 X46.319 Y210.575 E18.62663
G1 X45.058 Y208.887 E18.73175
G1 X44.852 Y208.579 E18.75024
G1 X43.898 Y206.983 E18.843
G1 X43.726 Y206.66 E18.86126
G1 X42.87 Y204.828 E18.96214
G1 X42.737 Y204.5 E18.9798
G1 X42.043 Y202.53 E19.084
G1 X41.942 Y202.191 E19.10165
G1 X41.484 Y200.323 E19.19761
G1 X41.42 Y200.004 E19.21384
G1 X41.104 Y197.915 E19.31925
G1 X41.068 Y197.548 E19.33764
G1 X40.938 Y194.819 E19.47395
G1 X40.934 Y194.648 E19.48248
G1 X40.947 Y74.67 E25.46821
G1 X40.958 Y74.387 E25.48234
G1 X41.181 Y71.559 E25.62387
G1 X41.239 Y71.14 E25.64497
G1 X41.748 Y68.581 E25.77514
G1 X41.86 Y68.157 E25.79702
G1 X42.712 Y65.57 E25.9329
G1 X42.871 Y65.169 E25.95442
G1 X43.734 Y63.326 E26.05595
G1 X43.896 Y63.019 E26.07327
G1 X44.576 Y61.87 E26.13988
G1 X44.726 Y61.637 E26.15371
G1 X45.862 Y60.017 E26.25242
G1 X46.064 Y59.756 E26.26889
G1 X46.938 Y58.725 E26.33632
G1 X47.177 Y58.469 E26.35379
G1 X48.592 Y57.096 E26.45216
G1 X48.811 Y56.9 E26.46682
G0 F3600 X49.065 Y57.209
G1 F1500 X49.958 Y56.474 E26.52452
G1 X50.212 Y56.286 E26.54029
G1 X51.243 Y55.596 E26.60218
G1 X51.532 Y55.424 E26.61896
G1 X53.767 Y54.247 E26.74498
G1 X54.227 Y54.049 E26.76996
G1 X55.954 Y53.461 E26.86098
G1 X56.391 Y53.346 E26.88353
G1 X58.396 Y52.967 E26.98533
G1 X58.855 Y52.914 E27.00838
G1 X61.373 Y52.808 E27.13411
G1 X61.508 Y52.805 E27.14085
G1 X139.186 Y52.812 E31.01622
G1 X139.418 Y52.82 E31.0278
G1 X141.738 Y52.989 E31.14386
G1 X142.192 Y53.055 E31.16674
G1 X143.936 Y53.438 E31.25583
G1 X144.425 Y53.588 E31.28134
G1 X146.816 Y54.532 E31.40959
G1 X147.246 Y54.74 E31.43342
G1 X148.976 Y55.743 E31.53319
G1 X149.352 Y55.998 E31.55586
G1 X151.391 Y57.605 E31.68538
G1 X151.728 Y57.912 E31.70812
G1 X153.077 Y59.329 E31.80573
G1 X153.31 Y59.603 E31.82367
G1 X154.52 Y61.201 E31.92367
G1 X154.711 Y61.483 E31.94067
G1 X155.737 Y63.188 E32.03994
G1 X155.892 Y63.478 E32.05635
G1 X156.764 Y65.335 E32.1587
G1 X156.884 Y65.63 E32.17459
G1 X157.571 Y67.576 E32.27755
G1 X157.661 Y67.876 E32.29317
G1 X158.127 Y69.769 E32.39043
G1 X158.184 Y70.055 E32.40498
G1 X158.498 Y72.129 E32.50964
G1 X158.53 Y72.454 E32.52593
G1 X158.662 Y75.2 E32.66308
G1 X158.666 Y75.354 E32.67077
G1 X158.653 Y195.285 E38.65415
G1 X158.643 Y195.535 E38.66663
G1 X158.414 Y198.453 E38.81266
G1 X158.363 Y198.827 E38.83149
G1 X157.878 Y201.267 E38.95561
G1 X157.78 Y201.638 E38.97475
G1 X156.912 Y204.291 E39.11401
G1 X156.77 Y204.651 E39.13332
G1 X155.905 Y206.502 E39.23525
G1 X155.76 Y206.777 E39.25076
G1 X155.08 Y207.926 E39.31737
G1 X154.921 Y208.169 E39.33186
G1 X153.356 Y210.337 E39.46526
G1 X153.015 Y210.735 E39.49141
G1 X151.092 Y212.644 E39.62659
G1 X150.866 Y212.848 E39.64178
G1 X150.024 Y213.538 E39.69609
G1 X149.776 Y213.722 E39.7115
G1 X148.757 Y214.404 E39.77267
G1 X148.469 Y214.576 E39.78941
G1 X146.236 Y215.753 E39.91534
G1 X145.774 Y215.952 E39.94044
G1 X144.045 Y216.54 E40.03155
G1 X143.609 Y216.654 E40.05403
G1 X141.604 Y217.033 E40.15584
G1 X141.145 Y217.086 E40.17889
G1 X138.627 Y217.192 E40.30462
G1 X138.492 Y217.195 E40.31136
G1 X60.806 Y217.188 E44.18713
G1 X60.61 Y217.182 E44.19691
G1 X58.542 Y217.055 E44.30028
G1 X58.107 Y216.998 E44.32217
G1 X56.358 Y216.646 E44.41118
G1 X55.965 Y216.541 E44.43147
G1 X54.37 Y216.002 E44.51547
G1 X54.047 Y215.873 E44.53282
G1 X52.907 Y215.344 E44.59552
G1 X52.594 Y215.176 E44.61324
G1 X50.421 Y213.857 E44.74006
G1 X50.037 Y213.584 E44.76357
G1 X48.548 Y212.348 E44.86011
G1 X48.269 Y212.087 E44.87917
G1 X46.88 Y210.621 E44.97993
G1 X46.639 Y210.335 E44.99859
G1 X45.378 Y208.647 E45.1037
G1 X45.195 Y208.374 E45.1201
G1 X44.241 Y206.778 E45.21287
G1 X44.089 Y206.491 E45.22907
G1 X43.233 Y204.659 E45.32995
G1 X43.114 Y204.367 E45.34569
G1 X42.42 Y202.397 E45.44989
G1 X42.33 Y202.096 E45.46556
G1 X41.872 Y200.228 E45.56152
G1 X41.816 Y199.945 E45.57591
G1 X41.5 Y197.856 E45.68132
G1 X41.468 Y197.529 E45.69771
G1 X41.338 Y194.8 E45.83401
G1 X41.334 Y194.648 E45.8416
G1 X41.347 Y74.67 E51.82733
G1 X41.357 Y74.418 E51.83991
G1 X41.58 Y71.59 E51.98144
G1 X41.631 Y71.218 E52.00017
G1 X42.14 Y68.659 E52.13034
G1 X42.24 Y68.282 E52.1498
G1 X43.092 Y65.695 E52.28568
G1 X43.233 Y65.339 E52.30479
G1 X44.096 Y63.496 E52.40632
G1 X44.24 Y63.223 E52.42171
G1 X44.92 Y62.074 E52.48832
G1 X45.054 Y61.867 E52.50063
G1 X46.19 Y60.247 E52.59934
G1 X46.369 Y60.015 E52.61396
G1 X47.243 Y58.984 E52.68139
G1 X47.456 Y58.756 E52.69696
G1 X48.871 Y57.383 E52.79532
G1 X49.065 Y57.209 E52.80832
G1 F1500 E46.30832
G0 F3600 X50.691 Y59.156
G0 X51.502 Y60.126
G0 X51.05 Y60.632
G0 X50.982 Y60.56
;TYPE:WALL-INNER
G1 F1500 E52.80832
G1 X52.389 Y59.384 E52.89981
G1 X53.9 Y58.4 E52.98977
G1 X55.495 Y57.619 E53.07837
G1 X57.148 Y57.058 E53.16546
G1 X58.836 Y56.72 E53.25135
G1 X60.58 Y56.605 E53.33854
G1 X139.419 Y56.606 E57.27184
G1 X141.163 Y56.722 E57.35904
G1 X142.851 Y57.06 E57.44493
G1 X144.501 Y57.62 E57.53186
G1 X146.104 Y58.402 E57.62084
G1 X147.612 Y59.384 E57.71062
G1 X149.023 Y60.563 E57.80235
G1 X150.316 Y61.925 E57.89605
G1 X151.471 Y63.45 E57.99149
G1 X152.478 Y65.122 E58.08887
G1 X153.319 Y66.915 E58.18767
G1 X153.992 Y68.824 E58.28866
G1 X154.473 Y70.793 E58.38978
G1 X154.766 Y72.822 E58.49206
G1 X154.77 Y72.897 E58.4958
G1 X154.77 Y72.907 E58.4963
G1 X154.863 Y74.852 E58.59345
G1 X154.863 Y74.869 E58.5943
G1 X154.866 Y74.905 E58.5961
G1 X154.865 Y195.086 E64.59195
G1 X154.864 Y195.116 E64.59345
G1 X154.863 Y195.146 E64.59495
G1 X154.77 Y197.093 E64.6922
G1 X154.769 Y197.116 E64.69334
G1 X154.765 Y197.177 E64.69639
G1 X154.473 Y199.203 E64.79852
G1 X153.99 Y201.179 E64.9
G1 X153.322 Y203.079 E65.00048
G1 X152.481 Y204.875 E65.09942
G1 X151.469 Y206.555 E65.19727
G1 X150.321 Y208.071 E65.29214
G1 X149.014 Y209.445 E65.38675
G1 X147.619 Y210.611 E65.47746
G1 X146.1 Y211.6 E65.56789
G1 X144.505 Y212.381 E65.65649
G1 X142.852 Y212.942 E65.74358
G1 X141.164 Y213.28 E65.82946
G1 X139.42 Y213.395 E65.91666
G1 X60.58 Y213.394 E69.85001
G1 X58.837 Y213.279 E69.93715
G1 X57.149 Y212.941 E70.02304
G1 X55.499 Y212.38 E70.10999
G1 X53.896 Y211.598 E70.19897
G1 X52.388 Y210.617 E70.28872
G1 X50.977 Y209.438 E70.38046
G1 X49.684 Y208.075 E70.47419
G1 X48.532 Y206.554 E70.56938
G1 X47.519 Y204.874 E70.66725
G1 X46.678 Y203.079 E70.76615
G1 X46.008 Y201.177 E70.86675
G1 X45.526 Y199.203 E70.96813
G1 X45.234 Y197.178 E71.0702
G1 X45.23 Y197.104 E71.0739
G1 X45.23 Y197.094 E71.0744
G1 X45.137 Y195.15 E71.1715
G1 X45.134 Y195.096 E71.17419
G1 X45.134 Y74.914 E77.1701
G1 X45.137 Y74.853 E77.17315
G1 X45.23 Y72.906 E77.27039
G1 X45.231 Y72.883 E77.27154
G1 X45.235 Y72.822 E77.27459
G1 X45.528 Y70.793 E77.37687
G1 X46.009 Y68.823 E77.47804
G1 X46.678 Y66.921 E77.57863
G1 X47.519 Y65.125 E77.67757
G1 X48.531 Y63.445 E77.77542
G1 X49.679 Y61.929 E77.87029
G1 X50.982 Y60.56 E77.96458
G0 F3600 X51.154 Y61.161
G1 F1500 X49.902 Y62.481 E78.05535
G1 X48.783 Y63.953 E78.14759
G1 X47.817 Y65.564 E78.24131
G1 X47.008 Y67.285 E78.33618
G1 X46.369 Y69.102 E78.43228
G1 X45.908 Y70.99 E78.52924
G1 X45.631 Y72.903 E78.62567
G1 X45.628 Y72.925 E78.62678
G1 X45.536 Y74.872 E78.72378
G1 X45.539 Y75.718 E78.76599
G1 X45.537 Y195.129 E84.72342
G1 X45.629 Y197.073 E84.8204
G1 X45.63 Y197.082 E84.82085
G1 X45.908 Y199.009 E84.91798
G1 X46.369 Y200.898 E85.01499
G1 X47.009 Y202.715 E85.1111
G1 X47.817 Y204.437 E85.206
G1 X48.783 Y206.047 E85.29967
G1 X49.902 Y207.519 E85.39192
G1 X51.154 Y208.839 E85.48269
G1 X52.528 Y209.986 E85.57198
G1 X54.003 Y210.949 E85.65987
G1 X55.564 Y211.711 E85.74653
G1 X57.192 Y212.262 E85.83227
G1 X58.863 Y212.597 E85.9173
G1 X60.536 Y212.708 E86.00095
G1 X139.464 Y212.708 E89.93868
G1 X141.136 Y212.597 E90.02228
G1 X142.808 Y212.262 E90.10736
G1 X144.436 Y211.711 E90.19311
G1 X145.996 Y210.948 E90.27974
G1 X147.472 Y209.986 E90.36764
G1 X148.846 Y208.839 E90.45694
G1 X150.098 Y207.52 E90.54767
G1 X151.217 Y206.048 E90.63992
G1 X152.183 Y204.438 E90.73359
G1 X152.992 Y202.717 E90.82846
G1 X153.631 Y200.898 E90.92465
G1 X154.092 Y199.009 E91.02166
G1 X154.369 Y197.096 E91.11809
G1 X154.372 Y197.074 E91.1192
G1 X154.464 Y195.129 E91.21598
G1 X154.464 Y195.099 E91.21747
G1 X154.464 Y93.338 E96.29435
G1 X154.464 Y93.327 E96.2949
G1 X154.464 Y93.316 E96.29545
G1 X154.464 Y74.888 E97.21482
G1 X154.464 Y74.871 E97.21567
G1 X154.371 Y72.927 E97.31253
G1 X154.37 Y72.918 E97.31298
G1 X154.092 Y70.991 E97.41011
G1 X153.631 Y69.102 E97.50712
G1 X152.991 Y67.286 E97.60318
G1 X152.183 Y65.564 E97.69808
G1 X151.217 Y63.954 E97.79175
G1 X150.098 Y62.482 E97.884
G1 X148.846 Y61.162 E97.97477
G1 X147.472 Y60.015 E98.06406
G1 X145.997 Y59.052 E98.15195
G1 X144.436 Y58.29 E98.23861
G1 X142.808 Y57.739 E98.32436
G1 X141.137 Y57.404 E98.40938
G1 X139.464 Y57.292 E98.49304
G1 X60.536 Y57.293 E102.43077
G1 X58.864 Y57.404 E102.51437
G1 X57.192 Y57.738 E102.59943
G1 X55.564 Y58.289 E102.68518
G1 X54.004 Y59.053 E102.77184
G1 X52.528 Y60.015 E102.85974
G1 X51.154 Y61.161 E102.949
G1 F1500 E96.449
G0 F3600 X51.086 Y61.089
G0 X49.902 Y62.481
G0 X50.867 Y63.301
G0 X50.028 Y73.851
G0 X50.029 Y75.135
G0 X50.037 Y75.215
G0 X50.028 Y75.116
G1 F1500 E102.949
G1 X60.072 Y75.115 E103.4501
G1 X63.26 Y75.723 E103.61202
G1 X63.431 Y75.755 E103.6207
G1 X63.492 Y75.683 E103.6254
G1 X63.884 Y75.225 E103.65548
G1 X62.459 Y71.282 E103.86465
G1 X62.329 Y70.922 E103.88375
G1 X62.698 Y71.021 E103.89436
G1 X78.752 Y75.352 E104.72393
G1 X82.832 Y63.098 E105.36828
G1 X82.944 Y62.76 E105.38605
G1 X83.173 Y63.033 E105.39606
G1 X91.244 Y72.632 E106.02174
G1 X98.632 Y66.843 E106.49001
G1 X98.633 Y66.842 E106.49008
G1 X98.894 Y66.638 E106.5066
G1 X98.951 Y66.965 E106.51606
G1 X101.69 Y82.525 E107.30429
G1 X112.661 Y81.978 E107.85231
G1 X112.662 Y81.977 E107.85238
G1 X113.051 Y81.959 E107.87181
G1 X112.839 Y82.286 E107.88261
G1 X103.604 Y96.508 E108.72861
G1 X112.987 Y104.285 E109.33662
G1 X113.331 Y104.57 E109.35891
G1 X112.889 Y104.634 E109.371
G1 X112.888 Y104.635 E109.37107
G1 X101.218 Y106.364 E109.95964
G1 X101.624 Y114.615 E110.37179
G1 X101.622 Y114.614 E110.3719
G1 X101.744 Y117.08 E110.49508
G1 X101.745 Y117.081 E110.49515
G1 X101.762 Y117.461 E110.51412
G1 X101.439 Y117.259 E110.5247
G1 X92.401 Y111.611 E111.05641
G1 X86.766 Y119.352 E111.5341
G1 X87.186 Y120.143 E111.57878
G1 X87.201 Y120.171 E111.58037
G1 X87.283 Y120.495 E111.59704
G1 X87.386 Y120.903 E111.61804
G1 X87.766 Y122.391 E111.69466
G1 X87.768 Y128.549 E112.00188
G1 X87.392 Y130.023 E112.07777
G1 X87.205 Y130.759 E112.11566
G1 X87.201 Y130.773 E112.11638
G1 X87.192 Y130.757
G1 X87.005 Y130.021 E112.1365
G1 X86.634 Y128.561 E112.21165
G1 X86.633 Y122.4 E112.51903
G1 X87 Y120.95 E112.59365
G1 X87.103 Y120.542 E112.60919
G1 X87.042 Y120.514
G1 X87.014 Y120.501 E112.61069
G1 X86.206 Y120.122 E112.65521
G1 X84.537 Y122.416 E112.79674
G1 X84.027 Y122.369 E112.8223
G1 X71.407 Y108.18 E113.76967
G1 X62.323 Y113.723 E114.30059
G1 X61.927 Y113.964 E114.32371
G1 X62.023 Y113.511 E114.33621
G1 X62.834 Y109.706 E114.53031
G1 X62.898 Y109.404 E114.54571
G1 X62.596 Y109.469 E114.55464
G1 X62.564 Y109.476 E114.55628
G1 X59.538 Y110.134 E114.71077
G1 X50.463 Y110.135 E115.16353
G1 X47.428 Y109.474 E115.31849
G1 X47.146 Y109.413 E115.33289
G1 X47.037 Y109.364 E115.33885
G1 X46.838 Y109.274 E115.34975
G1 X47.042 Y109.182
G1 X47.138 Y109.139
G1 X47.42 Y109.078 E115.36192
G1 X50.446 Y108.42 E115.51642
G1 X59.538 Y108.417 E115.97002
G1 X62.615 Y109.086 E116.12712
G1 X62.754 Y109.116 E116.13421
G1 X62.949 Y109.158 E116.14416
G1 X62.99 Y108.963 E116.15058
G1 X65.606 Y96.664 E116.77791
G1 X51.912 Y90.628 E117.52453
G1 X51.484 Y90.44 E117.54785
G1 X51.916 Y90.262 E117.56043
G1 X67.053 Y84 E118.37769
G1 X64.149 Y75.959 E118.80421
G1 X63.587 Y76.066 E118.83276
G1 X63.494 Y76.083 E118.8371
G1 X63.323 Y76.115 E118.84506
G1 X60.089 Y76.733 E119.00933
G1 X50.028 Y76.736 E119.51127
G1 X46.821 Y76.125 E119.67415
G1 X46.339 Y76.034 E119.69862
G1 X46.256 Y76.001 E119.70308
G1 X46.05 Y75.92 E119.71412
G1 X46.269 Y75.842
G1 X46.326 Y75.821
G1 X46.808 Y75.73 E119.73296
G1 X50.028 Y75.116 E119.8965
G1 F1500 E113.3965
G0 F3600 X50.037 Y75.215
G0 X63.444 Y75.792
G0 X69.341 Y72.833
G0 X69.9 Y72.166
G0 X69.802 Y71.125
G0 X69.704 Y71.142
G1 F1500 E119.8965
G1 X69.334 Y69.183 E119.99597
G1 X69.333 Y60.783 E120.41504
G1 X69.704 Y58.808 E120.5153
G1 X69.705 Y58.807 E120.51537
G1 X69.9 Y57.763 E120.56836
G1 X70.096 Y58.807 E120.5953
G1 X70.466 Y60.768 E120.69487
G1 X70.467 Y69.167 E121.11389
G1 X70.096 Y71.141 E121.2141
G1 X70.095 Y71.142 E121.21417
