;FLAVOR:Marlin
;TIME:798
;Filament used: 0.608529m
;Layer height: 0.2
;Generated with Cura_SteamEngine 2.7.0
M190 S65
M104 S210
M109 S210
G21 ;metric values
G90 ;absolute positioning
M82 ;set extruder to absolute mode
M107 ;start with the fan off
G28 X0 Y0 ;move X/Y to min endstops
G28 Z0 ;move Z to min endstops
G1 Z15.0 F9000 ;move the platform down 15mm
G92 E0 ;zero the extruded length
G1 F200 E3 ;extrude 3mm of feed stock
G92 E0 ;zero the extruded length again
G1 F9000
;Put printing message on LCD screen
M117 Printing...
;LAYER_COUNT:60
;LAYER:0
M107
G0 F3600 X79.018 Y107.602 Z0.3
;TYPE:SKIRT
G1 F1500 X79.46 Y107.299 E0.02674
G1 X79.943 Y107.064 E0.05353
G1 X80.454 Y106.904 E0.08025
G1 X80.889 Y106.83 E0.10226
G1 X88.054 Y106.066 E0.46175
G1 X94.709 Y104.931 E0.79856
G1 X95.329 Y104.88 E0.8296
G1 X96.566 Y104.885 E0.89132
G1 X97.287 Y104.961 E0.92749
G1 X104.397 Y106.446 E1.28986
G1 X109.341 Y107.199 E1.53936
G1 X109.864 Y107.319 E1.56613
G1 X110.363 Y107.515 E1.59288
G1 X110.827 Y107.784 E1.61964
G1 X111.247 Y108.118 E1.64641
G1 X111.612 Y108.511 E1.67317
G1 X111.914 Y108.954 E1.69992
G1 X112.148 Y109.436 E1.72665
G1 X112.307 Y109.949 E1.75344
G1 X112.366 Y110.268 E1.76963
G1 X112.699 Y112.69 E1.8916
G1 X113.662 Y118.087 E2.16511
G1 X114.912 Y123.345 E2.43474
G1 X116.484 Y128.62 E2.70935
G1 X118.332 Y133.736 E2.98073
G1 X120.482 Y138.776 E3.2541
G1 X121.603 Y141.133 E3.38431
G1 X121.797 Y141.633 E3.41107
G1 X121.887 Y141.998 E3.42982
G1 X122.259 Y143.928 E3.52788
G1 X122.321 Y144.46 E3.55461
G1 X122.303 Y144.996 E3.58136
G1 X122.206 Y145.524 E3.60814
G1 X122.031 Y146.031 E3.6349
G1 X121.783 Y146.506 E3.66164
G1 X121.468 Y146.94 E3.68839
G1 X121.091 Y147.322 E3.71517
G1 X120.683 Y147.629 E3.74064
G1 X117.659 Y149.591 E3.92048
G1 X113.171 Y152.752 E4.19435
G1 X108.909 Y156.129 E4.46564
G1 X104.816 Y159.77 E4.73894
G1 X101.405 Y163.141 E4.9782
G1 X100.997 Y163.488 E5.00492
G1 X100.541 Y163.771 E5.0317
G1 X100.049 Y163.983 E5.05843
G1 X99.558 Y164.115 E5.08379
G1 X94.545 Y165.083 E5.33851
G1 X94.012 Y165.145 E5.36528
G1 X93.476 Y165.127 E5.39204
G1 X92.948 Y165.03 E5.41882
G1 X92.441 Y164.856 E5.44556
G1 X91.966 Y164.608 E5.4723
G1 X91.532 Y164.292 E5.49908
G1 X91.15 Y163.916 E5.52582
G1 X90.829 Y163.487 E5.55255
G1 X90.574 Y163.015 E5.57932
G1 X90.393 Y162.51 E5.60608
G1 X90.276 Y161.866 E5.63874
G1 X90.019 Y158.966 E5.78399
G1 X89.291 Y153.536 E6.05731
G1 X88.258 Y148.161 E6.33038
G1 X87.648 Y145.578 E6.46279
G1 X86.94 Y142.921 E6.59998
G1 X85.306 Y137.696 E6.8731
G1 X83.389 Y132.595 E7.14497
G1 X81.191 Y127.62 E7.41632
G1 X78.075 Y121.613 E7.75393
G1 X77.865 Y121.119 E7.78071
G1 X77.729 Y120.6 E7.80748
G1 X77.671 Y119.955 E7.83979
G1 X77.671 Y110.41 E8.31599
G1 X77.711 Y109.875 E8.34275
G1 X77.83 Y109.352 E8.36951
G1 X78.025 Y108.853 E8.39624
G1 X78.293 Y108.388 E8.42302
G1 X78.626 Y107.968 E8.44976
G1 X79.018 Y107.602 E8.47651
G0 F3600 X79.407 Y107.809
G1 F1500 X79.84 Y107.548 E8.50174
G1 X80.308 Y107.358 E8.52694
G1 X80.932 Y107.228 E8.55874
G1 X88.114 Y106.462 E8.91908
G1 X94.776 Y105.326 E9.25625
G1 X95.327 Y105.28 E9.28383
G1 X96.564 Y105.285 E9.34555
G1 X97.205 Y105.353 E9.37771
G1 X104.308 Y106.837 E9.73973
G1 X109.281 Y107.594 E9.99069
G1 X109.773 Y107.71 E10.01591
G1 X110.241 Y107.901 E10.04113
G1 X110.673 Y108.164 E10.06636
G1 X111.058 Y108.492 E10.09159
G1 X111.387 Y108.876 E10.11682
G1 X111.651 Y109.307 E10.14204
G1 X111.844 Y109.774 E10.16725
G1 X111.969 Y110.323 E10.19534
G1 X112.301 Y112.741 E10.3171
G1 X113.268 Y118.157 E10.59158
G1 X114.526 Y123.451 E10.86306
G1 X116.104 Y128.744 E11.13861
G1 X117.961 Y133.886 E11.41136
G1 X120.111 Y138.926 E11.68473
G1 X121.242 Y141.304 E11.81611
G1 X121.422 Y141.777 E11.84135
G1 X121.494 Y142.073 E11.85655
G1 X121.866 Y144.003 E11.95461
G1 X121.922 Y144.506 E11.97986
G1 X121.899 Y145.011 E12.00508
G1 X121.796 Y145.506 E12.03031
G1 X121.616 Y145.978 E12.05551
G1 X121.364 Y146.417 E12.08076
G1 X121.047 Y146.81 E12.10595
G1 X120.466 Y147.294 E12.14368
G1 X117.421 Y149.269 E12.32475
G1 X112.929 Y152.433 E12.59887
G1 X108.649 Y155.826 E12.87136
G1 X104.541 Y159.479 E13.14562
G1 X101.124 Y162.856 E13.3853
G1 X100.738 Y163.182 E13.41051
G1 X100.305 Y163.443 E13.43573
G1 X99.836 Y163.632 E13.46096
G1 X99.482 Y163.722 E13.47918
G1 X94.469 Y164.69 E13.7339
G1 X93.966 Y164.746 E13.75915
G1 X93.461 Y164.723 E13.78437
G1 X92.966 Y164.62 E13.8096
G1 X92.494 Y164.441 E13.83478
G1 X92.055 Y164.189 E13.86003
G1 X91.662 Y163.871 E13.88526
G1 X91.323 Y163.496 E13.91048
G1 X91.048 Y163.072 E13.93569
G1 X90.843 Y162.61 E13.96091
G1 X90.714 Y162.121 E13.98614
G1 X90.674 Y161.83 E14.00079
G1 X90.416 Y158.921 E14.14649
G1 X89.686 Y153.481 E14.42033
G1 X88.646 Y148.063 E14.69557
G1 X88.031 Y145.464 E14.82881
G1 X87.325 Y142.812 E14.96573
G1 X85.684 Y137.563 E15.2401
G1 X83.76 Y132.444 E15.51293
G1 X81.551 Y127.446 E15.78555
G1 X78.43 Y121.428 E16.12377
G1 X78.234 Y120.963 E16.14894
G1 X78.113 Y120.472 E16.17417
G1 X78.071 Y119.955 E16.20005
G1 X78.071 Y110.41 E16.67625
G1 X78.111 Y109.906 E16.70148
G1 X78.23 Y109.415 E16.72668
G1 X78.424 Y108.948 E16.75191
G1 X78.69 Y108.518 E16.77714
G1 X79.02 Y108.135 E16.80236
G1 X79.407 Y107.809 E16.8276
G1 F1500 E10.3276
G0 F3600 X81.866 Y109.733
G0 X81.875 Y111.012
G0 X82.061 Y111.098
G0 X82.061 Y110.998
;TYPE:WALL-INNER
G1 F1500 E16.8276
G1 X83.261 Y111.002 E16.88747
G1 X84.46 Y110.996 E16.94729
G1 X84.461 Y110.995 E16.94736
G1 X84.661 Y110.995 E16.95734
G1 X84.661 Y111.195 E16.9638
G1 X84.661 Y111.196 E16.96385
G1 X84.661 Y118.348 E17.32066
G1 X85.662 Y118.901 E17.37772
G1 X86.432 Y119.247 E17.41983
G1 X87.259 Y119.543 E17.46366
G1 X88.071 Y119.773 E17.50576
G1 X88.89 Y119.956 E17.54763
G1 X89.714 Y120.096 E17.58933
G1 X90.628 Y120.208 E17.63527
G1 X91.783 Y120.306 E17.6931
G1 X92.143 Y119.565 E17.7342
G1 X91.328 Y118.693 E17.79375
G1 X91.084 Y118.375 E17.81374
G1 X90.865 Y118.048 E17.83338
G1 X90.662 Y117.693 E17.85378
G1 X90.486 Y117.328 E17.874
G1 X90.332 Y116.945 E17.89459
G1 X90.202 Y116.54 E17.91581
G1 X90.097 Y116.112 E17.9378
G1 X90.027 Y115.691 E17.95909
G1 X89.99 Y115.299 E17.97874
G1 X89.979 Y114.891 E17.9991
G1 X89.998 Y114.465 E18.02037
G1 X90.045 Y114.063 E18.04056
G1 X90.114 Y113.687 E18.05964
G1 X90.219 Y113.275 E18.08085
G1 X90.332 Y112.93 E18.09896
G1 X90.487 Y112.546 E18.11962
G1 X90.652 Y112.204 E18.13856
G1 X90.852 Y111.851 E18.15881
G1 X91.08 Y111.508 E18.17935
G1 X91.33 Y111.184 E18.19977
G1 X91.598 Y110.881 E18.21995
G1 X91.902 Y110.583 E18.24119
G1 X92.209 Y110.321 E18.26133
G1 X92.535 Y110.08 E18.28155
G1 X92.898 Y109.849 E18.30302
G1 X93.257 Y109.655 E18.32338
G1 X93.622 Y109.489 E18.34338
G1 X94.002 Y109.348 E18.3636
G1 X94.392 Y109.231 E18.38392
G1 X94.774 Y109.145 E18.40345
G1 X95.168 Y109.084 E18.42334
G1 X95.542 Y109.05 E18.44208
G1 X95.941 Y109.041 E18.46199
G1 X96.362 Y109.061 E18.48302
G1 X96.753 Y109.106 E18.50265
G1 X97.157 Y109.182 E18.52316
G1 X97.568 Y109.289 E18.54435
G1 X97.942 Y109.413 E18.56401
G1 X98.338 Y109.578 E18.58541
G1 X98.699 Y109.758 E18.60554
G1 X99.053 Y109.968 E18.62607
G1 X99.397 Y110.203 E18.64686
G1 X99.707 Y110.451 E18.66666
G1 X100.014 Y110.732 E18.68743
G1 X100.281 Y111.014 E18.7068
G1 X100.549 Y111.335 E18.72766
G1 X100.766 Y111.636 E18.74618
G1 X100.978 Y111.973 E18.76604
G1 X101.173 Y112.335 E18.78655
G1 X101.326 Y112.673 E18.80506
G1 X101.473 Y113.066 E18.826
G1 X101.593 Y113.472 E18.84712
G1 X101.679 Y113.861 E18.86699
G1 X101.742 Y114.286 E18.88843
G1 X101.773 Y114.685 E18.90839
G1 X101.776 Y115.098 E18.929
G1 X101.751 Y115.505 E18.94934
G1 X101.697 Y115.918 E18.97012
G1 X101.615 Y116.32 E18.99059
G1 X101.51 Y116.7 E19.01026
G1 X101.375 Y117.083 E19.03052
G1 X100.977 Y118.012 E19.08094
G1 X102.034 Y118.501 E19.13905
G1 X102.768 Y117.036 E19.2208
G1 X103.22 Y116.079 E19.2736
G1 X103.648 Y115.115 E19.32622
G1 X104.053 Y114.143 E19.37876
G1 X104.47 Y113.066 E19.43637
G1 X104.826 Y112.074 E19.48896
G1 X105.067 Y111.348 E19.52712
G1 X107.785 Y111.346 E19.66272
G1 X107.955 Y111.346 E19.6712
G1 X108.002 Y111.345 E19.67355
G1 X107.956 Y111.501 E19.67495
G1 X107.902 Y111.662 E19.68132
G1 X107.241 Y113.632 E19.78498
G1 X106.756 Y114.915 E19.85341
G1 X106.231 Y116.191 E19.92225
G1 X105.662 Y117.465 E19.99186
G1 X105.071 Y118.693 E20.05985
G1 X104.437 Y119.92 E20.12876
G1 X103.771 Y121.126 E20.19749
G1 X102.886 Y122.623 E20.28425
G1 X103.993 Y132.481 E20.77916
G1 X104.019 Y132.717 E20.79101
G1 X104.247 Y132.65 E20.79831
G1 X112.055 Y130.336 E21.2046
G1 X112.282 Y130.269 E21.21641
G1 X112.309 Y130.504 E21.22368
G1 X113.877 Y143.812 E21.89221
G1 X117.88 Y143.342 E22.0933
G1 X118.045 Y144.206 E22.13718
G1 X110.557 Y146.179 E22.52351
G1 X110.335 Y146.237 E22.53496
G1 X110.309 Y146.009 E22.54208
G1 X109.052 Y135.347 E23.07769
G1 X109.02 Y135.071 E23.09156
G1 X108.769 Y135.19 E23.09977
G1 X98.516 Y140.05 E23.66585
G1 X98.271 Y160.107 E24.66658
G1 X94.661 Y160.796 E24.84993
G1 X94.433 Y160.839 E24.86151
G1 X94.425 Y160.607 E24.86869
G1 X93.545 Y135.909 E26.10166
G1 X92.179 Y123.251 E26.73684
G1 X90.954 Y123.121 E26.7983
G1 X90.262 Y123.029 E26.83313
G1 X89.554 Y122.916 E26.8689
G1 X88.887 Y122.79 E26.90276
G1 X88.245 Y122.647 E26.93558
G1 X87.591 Y122.481 E26.96924
G1 X86.96 Y122.299 E27.002
G1 X86.299 Y122.082 E27.03671
G1 X85.672 Y121.85 E27.07007
G1 X85.049 Y121.59 E27.10375
G1 X84.442 Y121.308 E27.13714
G1 X83.859 Y121.004 E27.16994
G1 X83.276 Y120.666 E27.20356
G1 X82.712 Y120.303 E27.23702
G1 X82.168 Y119.914 E27.27039
G1 X81.861 Y119.669 E27.28999
G1 X81.861 Y111.198 E27.71261
G1 X81.861 Y110.998 E27.72258
G1 X82.061 Y110.998 E27.72904
G0 F3600 X82.261 Y110.595
;TYPE:WALL-OUTER
G1 F1500 X83.261 Y110.602 E27.77894
G1 X84.711 Y110.595 E27.85128
G1 X84.76 Y110.595 E27.85372
G1 X85.061 Y110.599 E27.86874
G1 X85.061 Y110.648 E27.87118
G1 X85.061 Y118.112 E28.24357
G1 X85.841 Y118.543 E28.28803
G1 X86.582 Y118.876 E28.32856
G1 X87.381 Y119.162 E28.37089
G1 X88.169 Y119.385 E28.41175
G1 X88.967 Y119.563 E28.45254
G1 X89.772 Y119.7 E28.49328
G1 X90.669 Y119.81 E28.53837
G1 X91.381 Y119.871 E28.57402
G1 X91.543 Y119.884 E28.58213
G1 X91.663 Y119.637 E28.59583
G1 X91.552 Y119.518 E28.60275
G1 X91.022 Y118.951 E28.64147
G1 X90.76 Y118.61 E28.66293
G1 X90.528 Y118.264 E28.68371
G1 X90.306 Y117.875 E28.70606
G1 X90.12 Y117.49 E28.72739
G1 X89.953 Y117.073 E28.7498
G1 X89.821 Y116.663 E28.77129
G1 X89.703 Y116.185 E28.79585
G1 X89.632 Y115.756 E28.81754
G1 X89.59 Y115.319 E28.83945
G1 X89.579 Y114.884 E28.86116
G1 X89.598 Y114.448 E28.88293
G1 X89.649 Y114.006 E28.90513
G1 X89.726 Y113.588 E28.92633
G1 X89.833 Y113.169 E28.94791
G1 X89.957 Y112.791 E28.96775
G1 X90.119 Y112.389 E28.98938
G1 X90.298 Y112.018 E29.00993
G1 X90.51 Y111.644 E29.03138
G1 X90.758 Y111.271 E29.05372
G1 X91.017 Y110.935 E29.07489
G1 X91.318 Y110.595 E29.09754
G1 X91.629 Y110.29 E29.11928
G1 X91.958 Y110.009 E29.14086
G1 X92.32 Y109.742 E29.1633
G1 X92.688 Y109.508 E29.18506
G1 X93.075 Y109.299 E29.207
G1 X93.478 Y109.116 E29.22908
G1 X93.869 Y108.97 E29.24991
G1 X94.289 Y108.844 E29.27178
G1 X94.698 Y108.752 E29.2927
G1 X95.118 Y108.687 E29.3139
G1 X95.526 Y108.65 E29.33434
G1 X95.952 Y108.641 E29.3556
G1 X96.383 Y108.661 E29.37712
G1 X96.814 Y108.711 E29.39877
G1 X97.248 Y108.792 E29.4208
G1 X97.674 Y108.903 E29.44276
G1 X98.088 Y109.041 E29.46453
G1 X98.504 Y109.214 E29.48701
G1 X98.892 Y109.407 E29.50863
G1 X99.269 Y109.631 E29.53051
G1 X99.633 Y109.88 E29.55251
G1 X99.968 Y110.148 E29.57391
G1 X100.292 Y110.444 E29.59581
G1 X100.581 Y110.749 E29.61677
G1 X100.864 Y111.089 E29.63884
G1 X101.105 Y111.423 E29.65939
G1 X101.321 Y111.767 E29.67965
G1 X101.529 Y112.153 E29.70153
G1 X101.701 Y112.533 E29.72234
G1 X101.853 Y112.94 E29.74401
G1 X101.981 Y113.373 E29.76654
G1 X102.073 Y113.789 E29.7878
G1 X102.14 Y114.239 E29.81049
G1 X102.173 Y114.665 E29.83181
G1 X102.176 Y115.106 E29.85381
G1 X102.148 Y115.557 E29.87636
G1 X102.093 Y115.979 E29.89759
G1 X102.006 Y116.407 E29.91938
G1 X101.891 Y116.822 E29.94086
G1 X101.746 Y117.233 E29.96261
G1 X101.583 Y117.613 E29.98324
G1 X101.498 Y117.812 E29.99403
G1 X101.85 Y117.975 E30.01338
G1 X101.947 Y117.781 E30.02403
G1 X102.408 Y116.861 E30.07537
G1 X102.856 Y115.912 E30.12772
G1 X103.281 Y114.957 E30.17988
G1 X103.682 Y113.994 E30.23192
G1 X104.095 Y112.926 E30.28905
G1 X104.448 Y111.943 E30.34115
G1 X104.778 Y110.948 E30.39345
G1 X108.271 Y110.944 E30.56772
G1 X108.272 Y110.944 E30.56777
G1 X108.54 Y110.944 E30.58114
G1 X108.463 Y111.201 E30.58916
G1 X108.335 Y111.628 E30.6114
G1 X107.615 Y113.773 E30.72428
G1 X107.126 Y115.067 E30.79329
G1 X106.596 Y116.354 E30.86273
G1 X106.027 Y117.628 E30.93234
G1 X105.426 Y118.877 E31.0015
G1 X104.787 Y120.113 E31.07091
G1 X104.115 Y121.33 E31.14027
G1 X103.298 Y122.711 E31.22032
G1 X104.337 Y131.962 E31.68476
G1 X104.363 Y132.198 E31.69661
G1 X104.591 Y132.131 E31.70391
G1 X112.396 Y129.817 E32.11005
G1 X112.623 Y129.75 E32.12186
G1 X112.65 Y129.985 E32.12914
G1 X114.227 Y143.368 E32.80144
G1 X118.203 Y142.901 E33.00117
G1 X118.508 Y144.498 E33.08228
G1 X110.214 Y146.683 E33.51019
G1 X109.992 Y146.741 E33.52164
G1 X109.966 Y146.513 E33.52876
G1 X108.72 Y135.947 E34.05955
G1 X108.688 Y135.671 E34.07341
G1 X108.437 Y135.79 E34.08163
G1 X98.913 Y140.305 E34.60747
G1 X98.667 Y160.439 E35.61204
G1 X94.278 Y161.276 E35.83495
G1 X94.05 Y161.319 E35.84653
G1 X94.042 Y161.087 E35.85372
G1 X93.146 Y135.938 E37.1092
G1 X91.816 Y123.615 E37.72757
G1 X90.912 Y123.519 E37.77292
G1 X90.199 Y123.424 E37.80881
G1 X89.491 Y123.311 E37.84458
G1 X88.813 Y123.183 E37.879
G1 X88.147 Y123.035 E37.91304
G1 X87.493 Y122.869 E37.9467
G1 X86.834 Y122.679 E37.98092
G1 X86.174 Y122.462 E38.01558
G1 X85.527 Y122.223 E38.04999
G1 X84.884 Y121.954 E38.08477
G1 X84.259 Y121.664 E38.11914
G1 X83.674 Y121.359 E38.15205
G1 X83.061 Y121.004 E38.1874
G1 X82.489 Y120.635 E38.22136
G1 X81.926 Y120.232 E38.2559
G1 X81.461 Y119.862 E38.28554
G1 X81.461 Y110.6 E38.74763
G1 X82.261 Y110.595 E38.78754
G0 F3600 X82.461 Y110.596
G0 X82.459 Y111.099
G0 X85.686 Y121.813
G0 X105.036 Y118.676
G0 X107.71 Y111.669
G0 X107.637 Y111.596
G1 F1500 X107.283 Y111.808 E38.81271
;TYPE:SKIN
G1 X107.637 Y112.162
G0 F3600 X107.425 Y112.516
G1 F1500 X106.435 Y111.526 E38.88256
G1 X106.365 Y111.456
G0 F3600 X105.869 Y111.526
G1 F1500 X107.282 Y112.939 E38.98225
G1 X107.352 Y113.009
G0 F3600 X107.14 Y113.363
G1 F1500 X105.304 Y111.527 E39.11179
G1 X105.234 Y111.457
G0 F3600 X105.082 Y111.87
G1 F1500 X106.991 Y113.779 E39.24648
G1 X107.061 Y113.849
G0 F3600 X106.836 Y114.19
G1 F1500 X104.938 Y112.292 E39.3804
G1 X104.868 Y112.222
G0 F3600 X104.788 Y112.707
G1 F1500 X106.681 Y114.601 E39.51399
G1 X106.751 Y114.671
G0 F3600 X106.522 Y115.008
G1 F1500 X104.639 Y113.124 E39.64688
G1 X104.569 Y113.054
G0 F3600 X104.482 Y113.533
G1 F1500 X106.358 Y115.409 E39.77925
G1 X106.428 Y115.479
G0 F3600 X106.193 Y115.809
G1 F1500 X104.324 Y113.941 E39.91108
G1 X104.254 Y113.871
G0 F3600 X104.163 Y114.346
G1 F1500 X106.025 Y116.208 E40.04245
G1 X106.095 Y116.278
G0 F3600 X105.851 Y116.599
G1 F1500 X103.997 Y114.745 E40.17326
G1 X103.927 Y114.675
G0 F3600 X103.83 Y115.143
G1 F1500 X105.676 Y116.99 E40.30354
G1 X105.746 Y117.06
G0 F3600 X105.501 Y117.381
G1 F1500 X103.656 Y115.536 E40.43372
G1 X103.586 Y115.466
G0 F3600 X103.482 Y115.928
G1 F1500 X105.317 Y117.762 E40.56315
G1 X105.387 Y117.832
G0 F3600 X105.134 Y118.145
G1 F1500 X103.306 Y116.316 E40.69216
G1 X103.236 Y116.246
G0 F3600 X103.124 Y116.7
G1 F1500 X104.95 Y118.527 E40.82103
G1 X105.02 Y118.597
