;FLAVOR:Marlin
;TIME:980
;Filament used: 0.761727m
;Layer height: 0.2
;Generated with Cura_SteamEngine 2.7.0
M190 S65
M104 S210
M109 S210
G21 ;metric values
G90 ;absolute positioning
M82 ;set extruder to absolute mode
M107 ;start with the fan off
G28 X0 Y0 ;move X/Y to min endstops
G28 Z0 ;move Z to min endstops
G1 Z15.0 F9000 ;move the platform down 15mm
G92 E0 ;zero the extruded length
G1 F200 E3 ;extrude 3mm of feed stock
G92 E0 ;zero the extruded length again
G1 F9000
;Put printing message on LCD screen
M117 Printing...
;LAYER_COUNT:80
;LAYER:0
M107
G0 F3600 X91.543 Y110.466 Z0.3
;TYPE:SKIRT
G1 F1500 X91.956 Y110.124 E0.02675
G1 X92.416 Y109.847 E0.05354
G1 X92.911 Y109.641 E0.08029
G1 X93.431 Y109.512 E0.10702
G1 X94.039 Y109.46 E0.13746
G1 X105.957 Y109.46 E0.73205
G1 X106.492 Y109.5 E0.75882
G1 X107.015 Y109.619 E0.78558
G1 X107.514 Y109.814 E0.81231
G1 X107.979 Y110.082 E0.83908
G1 X108.481 Y110.493 E0.87145
G1 X108.716 Y110.724 E0.88789
G1 X109.069 Y111.127 E0.91462
G1 X109.359 Y111.578 E0.94137
G1 X109.487 Y111.841 E0.95596
G1 X110.916 Y115.088 E1.13295
G1 X113.363 Y120.025 E1.40785
G1 X115.293 Y123.491 E1.60578
G1 X115.518 Y123.978 E1.63254
G1 X115.669 Y124.493 E1.65931
G1 X115.741 Y125.024 E1.68605
G1 X115.701 Y125.825 E1.72606
G1 X112.996 Y142.325 E2.56024
G1 X112.834 Y142.951 E2.5925
G1 X112.018 Y145.243 E2.71388
G1 X110.355 Y150.588 E2.99315
G1 X109.374 Y153.925 E3.16668
G1 X109.076 Y154.641 E3.20537
G1 X108.579 Y155.547 E3.25692
G1 X108.255 Y156.038 E3.28627
G1 X107.589 Y156.887 E3.34011
G1 X107.245 Y157.267 E3.36568
G1 X106.699 Y157.789 E3.40337
G1 X106.347 Y158.085 E3.42631
G1 X105.594 Y158.64 E3.47298
G1 X105.058 Y158.967 E3.5043
G1 X103.895 Y159.544 E3.56908
G1 X103.195 Y159.805 E3.60635
G1 X101.805 Y160.164 E3.67797
G1 X101.277 Y160.259 E3.70473
G1 X100.964 Y160.278 E3.72038
G1 X99.37 Y160.304 E3.79991
G1 X98.834 Y160.272 E3.8267
G1 X98.533 Y160.219 E3.84195
G1 X97.123 Y159.907 E3.914
G1 X96.384 Y159.657 E3.95292
G1 X95.168 Y159.092 E4.01981
G1 X94.661 Y158.804 E4.04891
G1 X93.983 Y158.343 E4.08981
G1 X93.606 Y158.048 E4.11369
G1 X92.975 Y157.483 E4.15595
G1 X92.523 Y156.996 E4.1891
G1 X91.565 Y155.751 E4.26747
G1 X91.27 Y155.303 E4.29423
G1 X91.138 Y155.04 E4.30891
G1 X90.538 Y153.714 E4.38152
G1 X90.343 Y153.171 E4.41031
G1 X89.558 Y150.274 E4.56005
G1 X87.89 Y144.963 E4.83778
G1 X87.107 Y142.736 E4.95555
G1 X86.95 Y142.12 E4.98727
G1 X84.298 Y125.826 E5.81088
G1 X84.251 Y125.292 E5.83762
G1 X84.285 Y124.757 E5.86437
G1 X84.397 Y124.232 E5.89115
G1 X84.586 Y123.731 E5.91786
G1 X84.718 Y123.474 E5.93228
G1 X85.93 Y121.334 E6.05497
G1 X88.434 Y116.464 E6.32817
G1 X89.951 Y113.115 E6.5116
G1 X89.971 Y113.071 E6.51401
G1 X90.622 Y111.683 E6.5905
G1 X90.885 Y111.216 E6.61724
G1 X91.385 Y110.618 E6.65612
G1 X91.543 Y110.466 E6.66706
G0 F3600 X91.82 Y110.754
G1 F1500 X92.211 Y110.433 E6.6923
G1 X92.648 Y110.178 E6.71754
G1 X93.119 Y109.995 E6.74275
G1 X93.613 Y109.888 E6.76797
G1 X94.039 Y109.86 E6.78927
G1 X105.957 Y109.86 E7.38386
G1 X106.461 Y109.9 E7.40908
G1 X106.952 Y110.019 E7.43429
G1 X107.419 Y110.213 E7.45952
G1 X107.849 Y110.479 E7.48474
G1 X108.2 Y110.778 E7.50775
G1 X108.435 Y111.009 E7.52419
G1 X108.767 Y111.391 E7.54944
G1 X109.121 Y112.002 E7.58467
G1 X110.561 Y115.274 E7.76302
G1 X113 Y120.195 E8.03703
G1 X114.944 Y123.686 E8.23638
G1 X115.154 Y124.146 E8.26161
G1 X115.289 Y124.633 E8.28682
G1 X115.346 Y125.135 E8.31203
G1 X115.306 Y125.761 E8.34332
G1 X112.601 Y142.261 E9.1775
G1 X112.457 Y142.817 E9.20615
G1 X111.638 Y145.116 E9.32791
G1 X109.973 Y150.469 E9.60759
G1 X108.99 Y153.813 E9.78148
G1 X108.726 Y154.449 E9.81584
G1 X108.229 Y155.355 E9.86739
G1 X107.941 Y155.791 E9.89346
G1 X107.275 Y156.64 E9.9473
G1 X106.968 Y156.978 E9.97008
G1 X106.422 Y157.5 E10.00776
G1 X106.11 Y157.763 E10.02812
G1 X105.357 Y158.318 E10.07479
G1 X104.88 Y158.609 E10.10267
G1 X103.717 Y159.186 E10.16744
G1 X103.095 Y159.417 E10.20054
G1 X101.705 Y159.776 E10.27216
G1 X100.957 Y159.878 E10.30983
G1 X99.363 Y159.904 E10.38936
G1 X98.62 Y159.828 E10.42662
G1 X97.21 Y159.516 E10.49867
G1 X96.553 Y159.294 E10.53327
G1 X95.337 Y158.729 E10.60017
G1 X94.886 Y158.473 E10.62604
G1 X94.208 Y158.012 E10.66694
G1 X93.872 Y157.75 E10.6882
G1 X93.241 Y157.185 E10.73046
G1 X92.84 Y156.752 E10.7599
G1 X91.882 Y155.507 E10.83827
G1 X91.503 Y154.875 E10.87504
G1 X90.903 Y153.549 E10.94765
G1 X90.729 Y153.067 E10.97322
G1 X89.938 Y150.146 E11.12419
G1 X88.276 Y144.855 E11.40088
G1 X87.484 Y142.603 E11.51998
G1 X87.345 Y142.056 E11.54813
G1 X84.693 Y125.762 E12.37174
G1 X84.651 Y125.258 E12.39697
G1 X84.689 Y124.754 E12.42219
G1 X84.807 Y124.262 E12.44743
G1 X85.066 Y123.671 E12.47962
G1 X86.276 Y121.535 E12.6021
G1 X88.796 Y116.634 E12.87704
G1 X90.315 Y113.28 E13.06073
G1 X90.333 Y113.241 E13.06288
G1 X90.984 Y111.853 E13.13936
G1 X91.234 Y111.414 E13.16457
G1 X91.662 Y110.906 E13.19771
G1 X91.82 Y110.754 E13.20865
G0 F3600 X94.116 Y113.25
;TYPE:SUPPORT
G1 F1500 X98.884 Y113.25 E13.44652
G1 X99.718 Y114.085 E13.5054
G1 X100.282 Y114.085 E13.53354
G1 X101.116 Y113.25 E13.59242
G1 X105.884 Y113.25 E13.83029
G1 X106 Y113.366 E13.83848
G1 X106 Y124.35 E14.38647
G1 X94 Y124.35 E14.98515
G1 X94 Y113.366 E15.53315
G1 X94.116 Y113.25 E15.54133
G0 F3600 X94.16 Y114.638
G1 F1500 X105.84 Y114.638 E16.12405
G0 F3600 X103.974 Y113.41
G1 F1500 X103.974 Y124.19 E16.66187
G0 F3600 X105.839 Y122.636
G1 F1500 X94.159 Y122.636 E17.24458
G0 F3600 X95.976 Y124.19
G1 F1500 X95.976 Y113.41 E17.7824
G0 F3600 X98.642 Y113.41
G1 F1500 X98.642 Y124.19 E18.32022
G0 F3600 X101.308 Y124.19
G1 F1500 X101.308 Y113.41 E18.85803
G0 F3600 X105.84 Y117.304
G1 F1500 X94.16 Y117.304 E19.44075
G0 F3600 X94.159 Y119.97
G1 F1500 X105.839 Y119.97 E20.02347
G1 F1500 E13.52347
G0 F3600 X105.386 Y124.585
G0 X105.386 Y125.864
G0 X105.33 Y125.92
G0 X105.4 Y125.85
;TYPE:WALL-INNER
G1 F1500 E20.02347
G1 X105.4 Y138.816 E20.67034
G1 X106.504 Y138.903 E20.72559
G1 X108.621 Y125.85 E21.38532
G1 X111.222 Y125.85 E21.51508
G1 X111.224 Y125.85 E21.51518
G1 X111.457 Y125.85 E21.52681
G1 X111.42 Y126.081 E21.53403
G1 X108.97 Y141.188 E22.29757
G1 X108.884 Y141.555 E22.31638
G1 X108.765 Y141.859 E22.33267
G1 X108.59 Y142.168 E22.35038
G1 X108.385 Y142.433 E22.3671
G1 X108.128 Y142.681 E22.38492
G1 X107.854 Y142.878 E22.40175
G1 X107.52 Y143.047 E22.42043
G1 X107.234 Y143.149 E22.43558
G1 X106.232 Y143.411 E22.48725
G1 X105.181 Y143.642 E22.54093
G1 X104.019 Y143.844 E22.59978
G1 X102.653 Y144.03 E22.66855
G1 X102.479 Y144.86 E22.71086
G1 X103.272 Y145.34 E22.75711
G1 X103.666 Y145.628 E22.78146
G1 X104.021 Y145.933 E22.80481
G1 X104.372 Y146.29 E22.82978
G1 X104.686 Y146.666 E22.85422
G1 X104.979 Y147.085 E22.87973
G1 X105.217 Y147.495 E22.90338
G1 X105.438 Y147.964 E22.92925
G1 X105.61 Y148.424 E22.95375
G1 X105.744 Y148.905 E22.97866
G1 X105.835 Y149.378 E23.00269
G1 X105.887 Y149.875 E23.02762
G1 X105.899 Y150.353 E23.05148
G1 X105.871 Y150.83 E23.07532
G1 X105.809 Y151.281 E23.09803
G1 X105.709 Y151.735 E23.12122
G1 X105.574 Y152.185 E23.14466
G1 X105.4 Y152.629 E23.16845
G1 X105.187 Y153.059 E23.19239
G1 X104.926 Y153.495 E23.21775
G1 X104.644 Y153.889 E23.24192
G1 X104.323 Y154.264 E23.26655
G1 X103.962 Y154.62 E23.29184
G1 X103.586 Y154.934 E23.31628
G1 X103.171 Y155.225 E23.34157
G1 X102.743 Y155.473 E23.36625
G1 X102.299 Y155.684 E23.39077
G1 X101.836 Y155.857 E23.41543
G1 X101.377 Y155.987 E23.43923
G1 X100.919 Y156.078 E23.46253
G1 X100.459 Y156.131 E23.48563
G1 X100.001 Y156.149 E23.5085
G1 X99.513 Y156.128 E23.53286
G1 X99.049 Y156.073 E23.55618
G1 X98.574 Y155.974 E23.58038
G1 X98.094 Y155.832 E23.60536
G1 X97.647 Y155.659 E23.62927
G1 X97.183 Y155.434 E23.655
G1 X96.768 Y155.186 E23.67912
G1 X96.364 Y154.896 E23.70393
G1 X95.984 Y154.571 E23.72887
G1 X95.63 Y154.213 E23.75399
G1 X95.317 Y153.837 E23.7784
G1 X95.036 Y153.437 E23.80279
G1 X94.786 Y153.01 E23.82747
G1 X94.585 Y152.593 E23.85057
G1 X94.422 Y152.171 E23.87314
G1 X94.288 Y151.725 E23.89637
G1 X94.187 Y151.26 E23.92011
G1 X94.124 Y150.778 E23.94436
G1 X94.1 Y150.307 E23.96789
G1 X94.117 Y149.814 E23.9925
G1 X94.174 Y149.315 E24.01756
G1 X94.273 Y148.833 E24.04211
G1 X94.411 Y148.363 E24.06655
G1 X94.591 Y147.896 E24.09152
G1 X94.819 Y147.428 E24.11749
G1 X95.06 Y147.025 E24.14091
G1 X95.358 Y146.609 E24.16644
G1 X95.674 Y146.239 E24.19072
G1 X96.005 Y145.909 E24.21404
G1 X96.374 Y145.598 E24.23811
G1 X96.751 Y145.326 E24.26131
G1 X97.521 Y144.86 E24.30621
G1 X97.347 Y144.03 E24.34852
G1 X95.875 Y143.829 E24.42264
G1 X94.812 Y143.639 E24.47651
G1 X93.771 Y143.412 E24.52967
G1 X92.763 Y143.148 E24.58165
G1 X92.441 Y143.033 E24.59871
G1 X92.131 Y142.869 E24.61621
G1 X91.855 Y142.667 E24.63327
G1 X91.606 Y142.424 E24.65063
G1 X91.402 Y142.155 E24.66747
G1 X91.23 Y141.848 E24.68503
G1 X91.11 Y141.537 E24.70166
G1 X91.031 Y141.192 E24.71932
G1 X88.58 Y126.081 E25.48306
G1 X88.543 Y125.85 E25.49473
G1 X88.776 Y125.85 E25.50193
G1 X88.778 Y125.85 E25.50203
G1 X91.379 Y125.85 E25.63179
G1 X93.496 Y138.903 E26.29152
G1 X94.6 Y138.816 E26.34677
G1 X94.6 Y125.85 E26.99365
G1 X105.4 Y125.85 E27.53246
G0 F3600 X105.8 Y125.45
;TYPE:WALL-OUTER
G1 F1500 X105.8 Y138.254 E28.17125
G1 X105.8 Y138.446 E28.18083
G1 X106.168 Y138.475 E28.19925
G1 X106.198 Y138.286 E28.20843
G1 X108.28 Y125.45 E28.85719
G1 X111.692 Y125.45 E29.02741
G1 X111.694 Y125.45 E29.02751
G1 X111.927 Y125.45 E29.03914
G1 X111.89 Y125.681 E29.04636
G1 X109.362 Y141.27 E29.83426
G1 X109.269 Y141.668 E29.85465
G1 X109.126 Y142.033 E29.87421
G1 X108.924 Y142.39 E29.89467
G1 X108.681 Y142.703 E29.91444
G1 X108.387 Y142.987 E29.93484
G1 X108.06 Y143.222 E29.95493
G1 X107.679 Y143.415 E29.97624
G1 X107.354 Y143.531 E29.99345
G1 X106.318 Y143.802 E30.04688
G1 X105.266 Y144.033 E30.10061
G1 X104.089 Y144.238 E30.16022
G1 X103.15 Y144.366 E30.2075
G1 X102.987 Y144.388 E30.2157
G1 X102.929 Y144.665 E30.22982
G1 X103.07 Y144.75 E30.2369
G1 X103.496 Y145.009 E30.26177
G1 X103.913 Y145.313 E30.28752
G1 X104.297 Y145.643 E30.31278
G1 X104.665 Y146.017 E30.33896
G1 X105.006 Y146.426 E30.36552
G1 X105.314 Y146.866 E30.39232
G1 X105.575 Y147.317 E30.41831
G1 X105.807 Y147.807 E30.44536
G1 X105.988 Y148.292 E30.47119
G1 X106.135 Y148.819 E30.49849
G1 X106.231 Y149.321 E30.52398
G1 X106.287 Y149.848 E30.55042
G1 X106.299 Y150.354 E30.57568
G1 X106.269 Y150.872 E30.60156
G1 X106.202 Y151.358 E30.62604
G1 X106.098 Y151.83 E30.65015
G1 X105.952 Y152.316 E30.67547
G1 X105.763 Y152.798 E30.7013
G1 X105.54 Y153.249 E30.7264
G1 X105.262 Y153.713 E30.75338
G1 X104.958 Y154.137 E30.77941
G1 X104.614 Y154.539 E30.80581
G1 X104.23 Y154.918 E30.83273
G1 X103.833 Y155.25 E30.85855
G1 X103.385 Y155.563 E30.88581
G1 X102.937 Y155.823 E30.91165
G1 X102.446 Y156.056 E30.93877
G1 X101.963 Y156.237 E30.9645
G1 X101.476 Y156.375 E30.98976
G1 X100.981 Y156.473 E31.01493
G1 X100.481 Y156.531 E31.04004
G1 X100 Y156.55 E31.06406
G1 X99.487 Y156.528 E31.08968
G1 X98.98 Y156.467 E31.11515
G1 X98.477 Y156.363 E31.14078
G1 X97.966 Y156.212 E31.16736
G1 X97.486 Y156.026 E31.19304
G1 X97 Y155.79 E31.22
G1 X96.546 Y155.519 E31.24638
G1 X96.116 Y155.21 E31.27279
G1 X95.709 Y154.863 E31.29948
G1 X95.337 Y154.486 E31.3259
G1 X94.999 Y154.08 E31.35226
G1 X94.699 Y153.653 E31.37829
G1 X94.435 Y153.202 E31.40436
G1 X94.216 Y152.747 E31.42956
G1 X94.043 Y152.3 E31.45347
G1 X93.9 Y151.822 E31.47836
G1 X93.792 Y151.326 E31.50369
G1 X93.727 Y150.83 E31.52864
G1 X93.7 Y150.307 E31.55477
G1 X93.717 Y149.791 E31.58053
G1 X93.78 Y149.247 E31.60785
G1 X93.884 Y148.738 E31.63377
G1 X94.031 Y148.236 E31.65987
G1 X94.226 Y147.731 E31.68687
G1 X94.463 Y147.245 E31.71385
G1 X94.727 Y146.803 E31.73954
G1 X95.044 Y146.361 E31.76667
G1 X95.376 Y145.972 E31.79219
G1 X95.741 Y145.608 E31.8179
G1 X96.13 Y145.28 E31.84329
G1 X96.523 Y144.997 E31.86745
G1 X96.93 Y144.75 E31.8912
G1 X97.071 Y144.665 E31.89942
G1 X97.013 Y144.388 E31.91354
G1 X96.85 Y144.366 E31.92061
G1 X95.805 Y144.223 E31.97323
G1 X94.735 Y144.032 E32.02745
G1 X93.682 Y143.802 E32.08123
G1 X92.65 Y143.532 E32.13445
G1 X92.274 Y143.397 E32.15438
G1 X91.92 Y143.21 E32.17435
G1 X91.599 Y142.975 E32.1942
G1 X91.306 Y142.689 E32.21463
G1 X91.066 Y142.374 E32.23438
G1 X90.867 Y142.018 E32.25473
G1 X90.726 Y141.652 E32.2743
G1 X90.638 Y141.271 E32.29381
G1 X88.11 Y125.681 E33.08176
G1 X88.073 Y125.45 E33.09343
G1 X88.306 Y125.45 E33.10062
G1 X88.308 Y125.45 E33.10072
G1 X91.72 Y125.45 E33.27095
G1 X93.802 Y138.286 E33.91971
G1 X93.832 Y138.475 E33.92926
G1 X94.2 Y138.446 E33.94767
G1 X94.2 Y138.254 E33.95688
G1 X94.2 Y125.45 E34.59568
G1 X105.8 Y125.45 E35.1744
G0 F3600 X105.8 Y125.65
G0 X105.33 Y125.92
G0 X105.371 Y138.843
G0 X106.528 Y138.934
G0 X111.178 Y126.451
;TYPE:SKIN
G1 F1500 X110.755 Y126.029 E35.20421
G0 F3600 X110.189 Y126.029
G1 F1500 X111.099 Y126.938 E35.26838
G1 X111.169 Y127.008
G0 F3600 X111.02 Y127.424
G1 F1500 X109.624 Y126.029 E35.36684
G1 X109.554 Y125.959
G0 F3600 X109.058 Y126.029
G1 F1500 X110.941 Y127.912 E35.4997
G1 X111.011 Y127.982
G0 F3600 X110.862 Y128.398
G1 F1500 X108.734 Y126.27 E35.64984
G1 X108.664 Y126.2
G0 F3600 X108.655 Y126.757
G1 F1500 X110.783 Y128.885 E35.79998
G1 X110.853 Y128.955
G0 F3600 X110.704 Y129.372
G1 F1500 X108.576 Y127.244 E35.95012
G1 X108.506 Y127.174
G0 F3600 X108.497 Y127.731
G1 F1500 X110.625 Y129.858 E36.10023
G1 X110.695 Y129.928
G0 F3600 X110.546 Y130.345
G1 F1500 X108.418 Y128.217 E36.25037
G1 X108.348 Y128.147
G0 F3600 X108.34 Y128.704
G1 F1500 X110.467 Y130.832 E36.40048
G1 X110.537 Y130.902
G0 F3600 X110.388 Y131.318
G1 F1500 X108.26 Y129.191 E36.55059
G1 X108.19 Y129.121
G0 F3600 X108.181 Y129.677
G1 F1500 X110.31 Y131.806 E36.7008
G1 X110.38 Y131.876
G0 F3600 X110.23 Y132.292
G1 F1500 X108.103 Y130.164 E36.85091
G1 X108.033 Y130.094
G0 F3600 X108.023 Y130.651
G1 F1500 X110.151 Y132.779 E37.00105
G1 X110.221 Y132.849
G0 F3600 X110.073 Y133.266
G1 F1500 X107.945 Y131.138 E37.15119
G1 X107.875 Y131.068
G0 F3600 X107.866 Y131.625
G1 F1500 X109.993 Y133.752 E37.30126
G1 X110.063 Y133.822
G0 F3600 X109.914 Y134.239
G1 F1500 X107.787 Y132.111 E37.45137
G1 X107.717 Y132.041
G0 F3600 X107.708 Y132.598
G1 F1500 X109.836 Y134.726 E37.60151
G1 X109.906 Y134.796
G0 F3600 X109.757 Y135.212
G1 F1500 X107.629 Y133.085 E37.75162
G1 X107.559 Y133.015
G0 F3600 X107.55 Y133.571
G1 F1500 X109.677 Y135.699 E37.90172
G1 X109.747 Y135.769
G0 F3600 X109.599 Y136.186
G1 F1500 X107.471 Y134.058 E38.05186
G1 X107.401 Y133.988
G0 F3600 X107.392 Y134.545
G1 F1500 X109.52 Y136.673 E38.20201
G1 X109.59 Y136.743
G0 F3600 X109.441 Y137.16
G1 F1500 X107.313 Y135.031 E38.35218
G1 X107.243 Y134.961
G0 F3600 X107.234 Y135.519
G1 F1500 X109.362 Y137.646 E38.50229
G1 X109.432 Y137.716
G0 F3600 X109.283 Y138.133
G1 F1500 X107.155 Y136.005 E38.65243
G1 X107.085 Y135.935
G0 F3600 X107.076 Y136.492
G1 F1500 X109.204 Y138.62 E38.80257
G1 X109.274 Y138.69
G0 F3600 X109.125 Y139.106
G1 F1500 X106.997 Y136.979 E38.95268
G1 X106.927 Y136.909
G0 F3600 X106.918 Y137.465
G1 F1500 X109.046 Y139.593 E39.10282
G1 X109.116 Y139.663
G0 F3600 X108.967 Y140.08
G1 F1500 X106.84 Y137.952 E39.25293
G1 X106.77 Y137.882
G0 F3600 X106.761 Y138.439
G1 F1500 X108.888 Y140.567 E39.40304
G1 X108.958 Y140.637
G0 F3600 X108.809 Y141.053
G1 F1500 X106.681 Y138.925 E39.55318
G1 X106.611 Y138.855
G0 F3600 X106.254 Y139.063
G1 F1500 X108.705 Y141.515 E39.72614
G1 X108.775 Y141.585
G0 F3600 X108.53 Y141.906
G1 F1500 X105.639 Y139.015 E39.93012
G1 X105.569 Y138.945
G0 F3600 X105.22 Y138.595
