;FLAVOR:Marlin
;TIME:6268
;Filament used: 5.64135m
;Layer height: 0.2
;Generated with Cura_SteamEngine 2.7.0
M190 S65
M104 S210
M109 S210
G21 ;metric values
G90 ;absolute positioning
M82 ;set extruder to absolute mode
M107 ;start with the fan off
G28 X0 Y0 ;move X/Y to min endstops
G28 Z0 ;move Z to min endstops
G1 Z15.0 F9000 ;move the platform down 15mm
G92 E0 ;zero the extruded length
G1 F200 E3 ;extrude 3mm of feed stock
G92 E0 ;zero the extruded length again
G1 F9000
;Put printing message on LCD screen
M117 Printing...
;LAYER_COUNT:83
;LAYER:0
M107
G0 F3600 X57.612 Y103.778 Z0.3
;TYPE:SKIRT
G1 F1500 X58.007 Y103.573 E0.0222
G1 X58.936 Y103.163 E0.07286
G1 X59.371 Y103.004 E0.09597
G1 X60.35 Y102.715 E0.1469
G1 X60.864 Y102.604 E0.17313
G1 X62.291 Y102.402 E0.24503
G1 X62.795 Y102.366 E0.27024
G1 X129.824 Y102.348 E3.61433
G1 X129.997 Y102.352 E3.62297
G1 X132.356 Y102.465 E3.74079
G1 X132.795 Y102.513 E3.76282
G1 X134.003 Y102.721 E3.82398
G1 X134.392 Y102.811 E3.8439
G1 X136.694 Y103.477 E3.96346
G1 X137.167 Y103.65 E3.98858
G1 X138.278 Y104.148 E4.04932
G1 X138.631 Y104.331 E4.06916
G1 X140.69 Y105.543 E4.18836
G1 X141.106 Y105.828 E4.21352
G1 X142.09 Y106.611 E4.27626
G1 X142.391 Y106.88 E4.2964
G1 X144.069 Y108.555 E4.41468
G1 X144.398 Y108.932 E4.43965
G1 X145.126 Y109.895 E4.49987
G1 X145.347 Y110.223 E4.51961
G1 X146.584 Y112.299 E4.64017
G1 X146.813 Y112.754 E4.66558
G1 X147.274 Y113.857 E4.72523
G1 X147.406 Y114.231 E4.74501
G1 X148.089 Y116.557 E4.86596
G1 X148.205 Y117.11 E4.89415
G1 X148.467 Y119.138 E4.99616
G1 X148.497 Y119.602 E5.01936
G1 X148.475 Y150.49 E6.56037
G1 X148.444 Y150.959 E6.58382
G1 X148.176 Y152.986 E6.68583
G1 X148.065 Y153.514 E6.71275
G1 X147.399 Y155.817 E6.83235
G1 X147.226 Y156.29 E6.85748
G1 X146.727 Y157.403 E6.91833
G1 X146.544 Y157.757 E6.93821
G1 X145.329 Y159.82 E7.05766
G1 X145.044 Y160.234 E7.08273
G1 X144.293 Y161.178 E7.14292
G1 X144.028 Y161.476 E7.16281
G1 X142.319 Y163.194 E7.28371
G1 X141.939 Y163.526 E7.30888
G1 X140.982 Y164.25 E7.36875
G1 X140.651 Y164.472 E7.38864
G1 X138.573 Y165.709 E7.50929
G1 X138.121 Y165.937 E7.53454
G1 X137.028 Y166.394 E7.59365
G1 X136.655 Y166.527 E7.61341
G1 X134.312 Y167.216 E7.73525
G1 X133.763 Y167.332 E7.76324
G1 X131.793 Y167.59 E7.86236
G1 X131.325 Y167.62 E7.88576
G1 X62.524 Y167.609 E11.31826
G1 X62 Y167.57 E11.34447
G1 X60.922 Y167.411 E11.39884
G1 X60.462 Y167.313 E11.4223
G1 X59.492 Y167.037 E11.47261
G1 X59.064 Y166.885 E11.49527
G1 X58.12 Y166.482 E11.54648
G1 X57.714 Y166.278 E11.56915
G1 X56.836 Y165.764 E11.61991
G1 X56.46 Y165.511 E11.64252
G1 X55.659 Y164.895 E11.69293
G1 X55.315 Y164.593 E11.71577
G1 X54.563 Y163.845 E11.76869
G1 X54.259 Y163.502 E11.79155
G1 X53.66 Y162.731 E11.84026
G1 X53.412 Y162.367 E11.86224
G1 X52.897 Y161.504 E11.91238
G1 X52.691 Y161.105 E11.93478
G1 X52.281 Y160.17 E11.98571
G1 X52.092 Y159.622 E12.01463
G1 X51.689 Y158.058 E12.09521
G1 X51.595 Y157.536 E12.12167
G1 X51.512 Y156.746 E12.1613
G1 X51.492 Y156.368 E12.18019
G1 X51.52 Y113.318 E14.32796
G1 X51.561 Y112.781 E14.35483
G1 X51.701 Y111.856 E14.4015
G1 X51.804 Y111.388 E14.42541
G1 X52.189 Y110.067 E14.49406
G1 X52.466 Y109.384 E14.53083
G1 X53.276 Y107.86 E14.61693
G1 X53.596 Y107.362 E14.64647
G1 X54.222 Y106.544 E14.69785
G1 X54.527 Y106.195 E14.72098
G1 X55.265 Y105.452 E14.77323
G1 X55.604 Y105.151 E14.79584
G1 X56.369 Y104.554 E14.84426
G1 X56.735 Y104.303 E14.8664
G1 X57.612 Y103.778 E14.91739
G0 F3600 X57.817 Y104.121
G1 F1500 X58.169 Y103.939 E14.93716
G1 X59.098 Y103.529 E14.98782
G1 X59.484 Y103.388 E15.00832
G1 X60.463 Y103.099 E15.05925
G1 X60.92 Y103 E15.08258
G1 X62.347 Y102.798 E15.15448
G1 X62.795 Y102.766 E15.17689
G1 X129.824 Y102.748 E18.52098
G1 X129.978 Y102.752 E18.52867
G1 X132.337 Y102.865 E18.64649
G1 X132.727 Y102.907 E18.66606
G1 X133.935 Y103.115 E18.72722
G1 X134.281 Y103.195 E18.74493
G1 X136.583 Y103.861 E18.86449
G1 X137.003 Y104.015 E18.88681
G1 X138.114 Y104.513 E18.94755
G1 X138.428 Y104.675 E18.96518
G1 X140.487 Y105.887 E19.08438
G1 X140.857 Y106.141 E19.10677
G1 X141.841 Y106.924 E19.1695
G1 X142.109 Y107.163 E19.18742
G1 X143.787 Y108.838 E19.30571
G1 X144.079 Y109.173 E19.32788
G1 X144.807 Y110.136 E19.3881
G1 X145.003 Y110.428 E19.40565
G1 X146.24 Y112.504 E19.52622
G1 X146.443 Y112.908 E19.54877
G1 X146.904 Y114.011 E19.60841
G1 X147.022 Y114.343 E19.62599
G1 X147.705 Y116.669 E19.74694
G1 X147.809 Y117.161 E19.77202
G1 X148.071 Y119.189 E19.87404
G1 X148.097 Y119.601 E19.89464
G1 X148.075 Y150.489 E21.43565
G1 X148.047 Y150.906 E21.4565
G1 X147.779 Y152.933 E21.55851
G1 X147.681 Y153.403 E21.58246
G1 X147.015 Y155.706 E21.70206
G1 X146.861 Y156.126 E21.72438
G1 X146.362 Y157.239 E21.78524
G1 X146.199 Y157.554 E21.80293
G1 X144.984 Y159.617 E21.92238
G1 X144.731 Y159.985 E21.94466
G1 X143.98 Y160.929 E22.00484
G1 X143.745 Y161.194 E22.02251
G1 X142.036 Y162.912 E22.14341
G1 X141.698 Y163.207 E22.16579
G1 X140.741 Y163.931 E22.22566
G1 X140.447 Y164.129 E22.24334
G1 X138.369 Y165.366 E22.36399
G1 X137.966 Y165.568 E22.38648
G1 X136.873 Y166.025 E22.44559
G1 X136.542 Y166.143 E22.46312
G1 X134.199 Y166.832 E22.58496
G1 X133.712 Y166.935 E22.60979
G1 X131.742 Y167.193 E22.70892
G1 X131.325 Y167.22 E22.72977
G1 X62.524 Y167.209 E26.16226
G1 X62.058 Y167.175 E26.18557
G1 X60.98 Y167.016 E26.23994
G1 X60.571 Y166.928 E26.26081
G1 X59.601 Y166.652 E26.31112
G1 X59.221 Y166.517 E26.33124
G1 X58.277 Y166.114 E26.38245
G1 X57.916 Y165.933 E26.4026
G1 X57.038 Y165.419 E26.45335
G1 X56.704 Y165.194 E26.47345
G1 X55.903 Y164.578 E26.52386
G1 X55.597 Y164.31 E26.54415
G1 X54.845 Y163.562 E26.59707
G1 X54.575 Y163.256 E26.61743
G1 X53.976 Y162.485 E26.66614
G1 X53.755 Y162.162 E26.68566
G1 X53.24 Y161.299 E26.7358
G1 X53.057 Y160.944 E26.75573
G1 X52.647 Y160.009 E26.80666
G1 X52.479 Y159.522 E26.83237
G1 X52.076 Y157.958 E26.91294
G1 X51.993 Y157.494 E26.93646
G1 X51.91 Y156.704 E26.97609
G1 X51.892 Y156.368 E26.99288
G1 X51.92 Y113.318 E29.14065
G1 X51.956 Y112.841 E29.16452
G1 X52.096 Y111.916 E29.21119
G1 X52.188 Y111.5 E29.23245
G1 X52.573 Y110.179 E29.30109
G1 X52.819 Y109.572 E29.33377
G1 X53.629 Y108.048 E29.41987
G1 X53.914 Y107.605 E29.44615
G1 X54.54 Y106.787 E29.49754
G1 X54.811 Y106.477 E29.51808
G1 X55.549 Y105.734 E29.57033
G1 X55.85 Y105.466 E29.59044
G1 X56.615 Y104.869 E29.63885
G1 X56.94 Y104.646 E29.65851
G1 X57.817 Y104.121 E29.70951
G1 F1500 E23.20951
G0 F3600 X59.035 Y106.336
G0 X59.647 Y107.443
G0 X60.002 Y107.36
G0 X59.96 Y107.27
;TYPE:WALL-INNER
G1 F1500 E29.70951
G1 X60.845 Y106.916 E29.75706
G1 X61.755 Y106.682 E29.80394
G1 X62.685 Y106.564 E29.85071
G1 X63.77 Y106.558 E29.90484
G1 X63.77 Y106.545 E29.90549
G1 X130.508 Y106.548 E33.23506
G1 X132.22 Y106.656 E33.32064
G1 X133.924 Y106.981 E33.40719
G1 X135.575 Y107.518 E33.49381
G1 X137.15 Y108.258 E33.58062
G1 X138.625 Y109.194 E33.66778
G1 X139.953 Y110.293 E33.75378
G1 X141.15 Y111.568 E33.84103
G1 X142.178 Y112.984 E33.92833
G1 X143.009 Y114.491 E34.01418
G1 X143.652 Y116.119 E34.10151
G1 X144.081 Y117.79 E34.18758
G1 X144.301 Y119.523 E34.27473
G1 X144.301 Y120.995 E34.34817
G1 X144.33 Y120.995 E34.34962
G1 X144.326 Y149.65 E35.77922
G1 X144.219 Y151.345 E35.86395
G1 X143.894 Y153.049 E35.9505
G1 X143.357 Y154.7 E36.03712
G1 X142.619 Y156.271 E36.12371
G1 X141.678 Y157.752 E36.21125
G1 X140.582 Y159.078 E36.29708
G1 X139.307 Y160.275 E36.38433
G1 X137.897 Y161.3 E36.4713
G1 X136.376 Y162.136 E36.55789
G1 X134.756 Y162.777 E36.64481
G1 X133.074 Y163.209 E36.73144
G1 X131.352 Y163.427 E36.81804
G1 X129.88 Y163.427 E36.89148
G1 X129.88 Y163.455 E36.89288
G1 X63.142 Y163.452 E40.22245
G1 X62.227 Y163.394 E40.26819
G1 X61.304 Y163.218 E40.31507
G1 X60.411 Y162.928 E40.36191
G1 X59.559 Y162.527 E40.40889
G1 X58.758 Y162.019 E40.45621
G1 X58.044 Y161.428 E40.50245
G1 X57.393 Y160.734 E40.54993
G1 X56.833 Y159.963 E40.59747
G1 X56.387 Y159.154 E40.64355
G1 X56.037 Y158.269 E40.69103
G1 X55.803 Y157.36 E40.73786
G1 X55.686 Y156.415 E40.78537
G1 X55.686 Y155.355 E40.83825
G1 X55.67 Y155.355 E40.83905
G1 X55.67 Y114.02 E42.90126
G1 X55.731 Y113.1 E42.94726
G1 X55.903 Y112.201 E42.99293
G1 X56.192 Y111.298 E43.04023
G1 X56.595 Y110.441 E43.08748
G1 X57.095 Y109.648 E43.13425
G1 X57.689 Y108.927 E43.18085
G1 X58.382 Y108.276 E43.22829
G1 X59.147 Y107.718 E43.27553
G1 X59.96 Y107.27 E43.32184
G0 F3600 X60.002 Y107.36
G0 X63.372 Y106.661
G0 X63.37 Y106.16
;TYPE:WALL-OUTER
G1 F1500 X63.37 Y106.145 E43.32259
G1 X130.517 Y106.148 E46.67257
G1 X132.273 Y106.259 E46.76035
G1 X134.021 Y106.592 E46.84913
G1 X135.724 Y107.146 E46.93847
G1 X137.344 Y107.907 E47.02777
G1 X138.859 Y108.869 E47.1173
G1 X140.231 Y110.004 E47.20614
G1 X141.458 Y111.311 E47.29557
G1 X142.514 Y112.765 E47.38523
G1 X143.372 Y114.323 E47.47396
G1 X144.032 Y115.991 E47.56346
G1 X144.475 Y117.72 E47.6525
G1 X144.701 Y119.497 E47.74187
G1 X144.701 Y120.595 E47.79665
G1 X144.73 Y120.595 E47.7981
G1 X144.726 Y149.659 E49.24811
G1 X144.616 Y151.398 E49.33504
G1 X144.283 Y153.146 E49.42382
G1 X143.729 Y154.849 E49.51316
G1 X142.968 Y156.469 E49.60246
G1 X142.006 Y157.983 E49.69195
G1 X140.871 Y159.356 E49.78082
G1 X139.564 Y160.583 E49.87026
G1 X138.11 Y161.64 E49.95995
G1 X136.551 Y162.497 E50.0487
G1 X134.884 Y163.157 E50.13815
G1 X133.144 Y163.603 E50.22776
G1 X131.378 Y163.827 E50.31658
G1 X130.28 Y163.827 E50.37136
G1 X130.28 Y163.855 E50.37275
G1 X63.133 Y163.852 E53.72273
G1 X62.174 Y163.791 E53.77067
G1 X61.207 Y163.607 E53.81978
G1 X60.262 Y163.3 E53.86935
G1 X59.365 Y162.878 E53.91881
G1 X58.524 Y162.344 E53.96851
G1 X57.766 Y161.717 E54.01759
G1 X57.085 Y160.991 E54.06725
G1 X56.497 Y160.182 E54.11715
G1 X56.024 Y159.323 E54.16607
G1 X55.657 Y158.397 E54.21576
G1 X55.409 Y157.43 E54.26557
G1 X55.286 Y156.44 E54.31534
G1 X55.286 Y155.755 E54.34951
G1 X55.27 Y155.755 E54.35031
G1 X55.27 Y114.008 E56.43308
G1 X55.334 Y113.048 E56.48108
G1 X55.514 Y112.102 E56.52912
G1 X55.819 Y111.152 E56.5789
G1 X56.242 Y110.252 E56.62851
G1 X56.773 Y109.41 E56.67818
G1 X57.399 Y108.65 E56.7273
G1 X58.124 Y107.969 E56.77693
G1 X58.929 Y107.382 E56.82663
G1 X59.794 Y106.905 E56.87591
G1 X60.716 Y106.537 E56.92544
G1 X61.683 Y106.288 E56.97526
G1 X62.658 Y106.164 E57.02429
G1 X63.37 Y106.16 E57.05981
G0 F3600 X63.37 Y106.145
G0 X63.555 Y106.145
G0 X63.557 Y106.66
G0 X59.011 Y161.966
;TYPE:SKIN
G1 F1500 X57.184 Y160.139 E57.18872
G1 X57.114 Y160.069
G0 F3600 X56.46 Y158.849
G1 F1500 X60.275 Y162.664 E57.45789
G1 X60.345 Y162.734
G0 F3600 X61.156 Y162.979
G1 F1500 X56.145 Y157.969 E57.81141
G1 X56.075 Y157.899
G0 F3600 X55.966 Y157.224
G1 F1500 X61.887 Y163.145 E58.22916
G1 X61.957 Y163.215
G0 F3600 X62.54 Y163.232
G1 F1500 X55.886 Y156.578 E58.69864
G1 X55.816 Y156.508
G0 F3600 X55.865 Y155.991
G1 F1500 X63.144 Y163.27 E59.21221
G1 X63.214 Y163.34
G0 F3600 X63.711 Y163.271
G1 F1500 X55.865 Y155.426 E59.76575
G1 X55.795 Y155.356
G0 F3600 X55.85 Y154.845
G1 F1500 X64.276 Y163.271 E60.36025
G1 X64.346 Y163.341
G0 F3600 X64.842 Y163.271
G1 F1500 X55.85 Y154.279 E60.99469
G1 X55.78 Y154.209
G0 F3600 X55.85 Y153.713
G1 F1500 X65.408 Y163.271 E61.66906
G1 X65.478 Y163.341
G0 F3600 X65.973 Y163.271
G1 F1500 X55.85 Y153.148 E62.38329
G1 X55.78 Y153.078
G0 F3600 X55.85 Y152.582
G1 F1500 X66.539 Y163.271 E63.13746
G1 X66.609 Y163.341
G0 F3600 X67.105 Y163.271
G1 F1500 X55.85 Y152.016 E63.93156
G1 X55.78 Y151.946
G0 F3600 X55.85 Y151.45
G1 F1500 X67.67 Y163.271 E64.76556
G1 X67.74 Y163.341
G0 F3600 X68.236 Y163.271
G1 F1500 X55.85 Y150.885 E65.63946
G1 X55.78 Y150.815
G0 F3600 X55.85 Y150.319
G1 F1500 X68.802 Y163.271 E66.55329
G1 X68.872 Y163.341
G0 F3600 X69.367 Y163.271
G1 F1500 X55.85 Y149.753 E67.50702
G1 X55.78 Y149.683
G0 F3600 X55.85 Y149.188
G1 F1500 X69.933 Y163.271 E68.50065
G1 X70.003 Y163.341
G0 F3600 X70.499 Y163.271
G1 F1500 X55.85 Y148.622 E69.53422
G1 X55.78 Y148.552
G0 F3600 X55.85 Y148.056
G1 F1500 X71.064 Y163.271 E70.60769
G1 X71.134 Y163.341
G0 F3600 X71.63 Y163.271
G1 F1500 X55.85 Y147.491 E71.72105
G1 X55.78 Y147.421
G0 F3600 X55.85 Y146.925
G1 F1500 X72.196 Y163.271 E72.87435
G1 X72.266 Y163.341
G0 F3600 X72.761 Y163.271
G1 F1500 X55.85 Y146.359 E74.06755
G1 X55.78 Y146.289
G0 F3600 X55.85 Y145.794
G1 F1500 X73.327 Y163.271 E75.30064
G1 X73.397 Y163.341
G0 F3600 X73.893 Y163.271
G1 F1500 X55.85 Y145.228 E76.57367
G1 X55.78 Y145.158
G0 F3600 X55.85 Y144.662
G1 F1500 X74.459 Y163.271 E77.88664
G1 X74.529 Y163.341
G0 F3600 X75.024 Y163.271
G1 F1500 X55.85 Y144.097 E79.23947
G1 X55.78 Y144.027
G0 F3600 X55.85 Y143.531
G1 F1500 X75.59 Y163.271 E80.63223
G1 X75.66 Y163.341
G0 F3600 X76.156 Y163.271
G1 F1500 X55.85 Y142.965 E82.06493
G1 X55.78 Y142.895
G0 F3600 X55.85 Y142.399
G1 F1500 X76.721 Y163.271 E83.53753
G1 X76.791 Y163.341
G0 F3600 X77.287 Y163.271
G1 F1500 X55.85 Y141.834 E85.05002
G1 X55.78 Y141.764
G0 F3600 X55.85 Y141.268
G1 F1500 X77.853 Y163.271 E86.60245
G1 X77.923 Y163.341
G0 F3600 X78.418 Y163.271
G1 F1500 X55.85 Y140.702 E88.19478
G1 X55.78 Y140.632
G0 F3600 X55.85 Y140.137
G1 F1500 X78.984 Y163.271 E89.82701
G1 X79.054 Y163.341
G0 F3600 X79.55 Y163.271
G1 F1500 X55.85 Y139.571 E91.49918
G1 X55.78 Y139.501
G0 F3600 X55.85 Y139.005
G1 F1500 X80.116 Y163.272 E93.21131
G1 X80.186 Y163.342
G0 F3600 X80.682 Y163.272
G1 F1500 X55.85 Y138.44 E94.96334
G1 X55.78 Y138.37
G0 F3600 X55.85 Y137.874
G1 F1500 X81.247 Y163.272 E96.75527
G1 X81.317 Y163.342
G0 F3600 X81.813 Y163.272
G1 F1500 X55.85 Y137.308 E98.58714
G1 X55.78 Y137.238
G0 F3600 X55.85 Y136.743
G1 F1500 X82.379 Y163.272 E100.4589
G1 X82.449 Y163.342
G0 F3600 X82.945 Y163.272
G1 F1500 X55.85 Y136.177 E102.3706
G1 X55.78 Y136.107
G0 F3600 X55.85 Y135.611
G1 F1500 X83.51 Y163.272 E104.3222
G1 X83.58 Y163.342
G0 F3600 X84.076 Y163.272
G1 F1500 X55.85 Y135.046 E106.31369
G1 X55.78 Y134.976
G0 F3600 X55.85 Y134.48
G1 F1500 X84.642 Y163.272 E108.34512
G1 X84.712 Y163.342
G0 F3600 X85.207 Y163.272
G1 F1500 X55.85 Y133.914 E110.41645
G1 X55.78 Y133.844
G0 F3600 X55.85 Y133.349
G1 F1500 X85.773 Y163.272 E112.52768
G1 X85.843 Y163.342
G0 F3600 X86.339 Y163.272
G1 F1500 X55.85 Y132.783 E114.67885
G1 X55.78 Y132.713
G0 F3600 X55.85 Y132.217
G1 F1500 X86.904 Y163.272 E116.86991
G1 X86.974 Y163.342
G0 F3600 X87.47 Y163.272
G1 F1500 X55.85 Y131.651 E119.10091
G1 X55.78 Y131.581
G0 F3600 X55.85 Y131.086
G1 F1500 X88.036 Y163.272 E121.3718
G1 X88.106 Y163.342
G0 F3600 X88.601 Y163.272
G1 F1500 X55.85 Y130.52 E123.6826
G1 X55.78 Y130.45
G0 F3600 X55.85 Y129.954
G1 F1500 X89.167 Y163.272 E126.03333
G1 X89.237 Y163.342
G0 F3600 X89.733 Y163.272
G1 F1500 X55.85 Y129.389 E128.42396
G1 X55.78 Y129.319
G0 F3600 X55.85 Y128.823
G1 F1500 X90.298 Y163.272 E130.85448
G1 X90.368 Y163.342
G0 F3600 X90.864 Y163.272
G1 F1500 X55.85 Y128.257 E133.32495
G1 X55.78 Y128.187
G0 F3600 X55.85 Y127.692
G1 F1500 X91.43 Y163.272 E135.83531
G1 X91.5 Y163.342
G0 F3600 X91.996 Y163.272
G1 F1500 X55.85 Y127.126 E138.3856
G1 X55.78 Y127.056
G0 F3600 X55.85 Y126.56
G1 F1500 X92.561 Y163.272 E140.9758
G1 X92.631 Y163.342
G0 F3600 X93.127 Y163.272
G1 F1500 X55.85 Y125.995 E143.60589
G1 X55.78 Y125.925
G0 F3600 X55.85 Y125.429
G1 F1500 X93.693 Y163.272 E146.27592
G1 X93.763 Y163.342
G0 F3600 X94.258 Y163.272
G1 F1500 X55.85 Y124.863 E148.98585
G1 X55.78 Y124.793
G0 F3600 X55.85 Y124.298
G1 F1500 X94.824 Y163.272 E151.73567
G1 X94.894 Y163.342
G0 F3600 X95.39 Y163.272
G1 F1500 X55.85 Y123.732 E154.52543
G1 X55.78 Y123.662
G0 F3600 X55.85 Y123.166
G1 F1500 X95.955 Y163.272 E157.35509
G1 X96.025 Y163.342
