;FLAVOR:Marlin
;TIME:3616
;Filament used: 3.12498m
;Layer height: 0.2
;Generated with Cura_SteamEngine 2.7.0
M190 S65
M104 S210
M109 S210
G21 ;metric values
G90 ;absolute positioning
M82 ;set extruder to absolute mode
M107 ;start with the fan off
G28 X0 Y0 ;move X/Y to min endstops
G28 Z0 ;move Z to min endstops
G1 Z15.0 F9000 ;move the platform down 15mm
G92 E0 ;zero the extruded length
G1 F200 E3 ;extrude 3mm of feed stock
G92 E0 ;zero the extruded length again
G1 F9000
;Put printing message on LCD screen
M117 Printing...
;LAYER_COUNT:25
;LAYER:0
M107
G0 F3600 X57.388 Y103.901 Z0.3
;TYPE:SKIRT
G1 F1500 X58.301 Y103.432 E0.05121
G1 X58.718 Y103.25 E0.07391
G1 X59.652 Y102.911 E0.12348
G1 X60.083 Y102.784 E0.1459
G1 X61.096 Y102.554 E0.19772
G1 X61.695 Y102.47 E0.2279
G1 X63.872 Y102.35 E0.33667
G1 X64.071 Y102.345 E0.3466
G1 X130.851 Y102.36 E3.67827
G1 X131.229 Y102.38 E3.69716
G1 X133.457 Y102.616 E3.80893
G1 X133.907 Y102.693 E3.83171
G1 X135.078 Y102.97 E3.89175
G1 X135.461 Y103.083 E3.91167
G1 X137.729 Y103.894 E4.03184
G1 X138.187 Y104.095 E4.05679
G1 X139.228 Y104.64 E4.11541
G1 X139.569 Y104.843 E4.13521
G1 X141.603 Y106.213 E4.25756
G1 X142.007 Y106.529 E4.28315
G1 X142.908 Y107.344 E4.34376
G1 X143.188 Y107.628 E4.36366
G1 X144.787 Y109.434 E4.484
G1 X145.097 Y109.837 E4.50937
G1 X145.78 Y110.872 E4.57123
G1 X145.981 Y111.218 E4.5912
G1 X147.062 Y113.335 E4.70979
G1 X147.257 Y113.791 E4.73453
G1 X147.648 Y114.917 E4.794
G1 X147.758 Y115.301 E4.81392
G1 X148.299 Y117.685 E4.93589
G1 X148.383 Y118.298 E4.96675
G1 X148.524 Y121.055 E5.10448
G1 X148.529 Y121.241 E5.11376
G1 X148.515 Y149.977 E6.54741
G1 X148.495 Y150.354 E6.56624
G1 X148.259 Y152.582 E6.67802
G1 X148.182 Y153.032 E6.7008
G1 X147.905 Y154.203 E6.76083
G1 X147.813 Y154.525 E6.77754
G1 X147.255 Y156.178 E6.86458
G1 X147.088 Y156.588 E6.88667
G1 X146.301 Y158.224 E6.97724
G1 X146.077 Y158.622 E7.00003
G1 X145.069 Y160.176 E7.09244
G1 X144.759 Y160.587 E7.11812
G1 X143.167 Y162.407 E7.23876
G1 X142.803 Y162.768 E7.26433
G1 X141.845 Y163.591 E7.32734
G1 X141.527 Y163.835 E7.34734
G1 X139.57 Y165.169 E7.4655
G1 X139.138 Y165.421 E7.49045
G1 X138.05 Y165.959 E7.55101
G1 X137.681 Y166.116 E7.57101
G1 X135.411 Y166.939 E7.69148
G1 X134.929 Y167.077 E7.71649
G1 X133.724 Y167.332 E7.77794
G1 X133.329 Y167.393 E7.79788
G1 X131.036 Y167.617 E7.91282
G1 X130.686 Y167.634 E7.9303
G1 X62.831 Y167.636 E11.3156
G1 X62.435 Y167.614 E11.33539
G1 X61.379 Y167.497 E11.3884
G1 X60.931 Y167.419 E11.41108
G1 X59.948 Y167.182 E11.46153
G1 X59.515 Y167.048 E11.48415
G1 X58.548 Y166.681 E11.53575
G1 X58.138 Y166.495 E11.55821
G1 X57.254 Y166.026 E11.60813
G1 X56.867 Y165.788 E11.6308
G1 X56.03 Y165.198 E11.68189
G1 X55.678 Y164.916 E11.70439
G1 X54.941 Y164.244 E11.75415
G1 X54.629 Y163.921 E11.77656
G1 X53.959 Y163.136 E11.82804
G1 X53.685 Y162.77 E11.85085
G1 X53.13 Y161.922 E11.90142
G1 X52.908 Y161.532 E11.92381
G1 X52.467 Y160.63 E11.9739
G1 X52.293 Y160.209 E11.99662
G1 X51.959 Y159.228 E12.04833
G1 X51.839 Y158.782 E12.07137
G1 X51.64 Y157.799 E12.1214
G1 X51.568 Y157.081 E12.15741
G1 X51.576 Y149.816 E12.51986
G1 X51.473 Y147.418 E12.6396
G1 X51.47 Y147.258 E12.64759
G1 X51.48 Y140.832 E12.96818
G1 X51.484 Y140.666 E12.97647
G1 X51.81 Y133.861 E13.31636
G1 X51.733 Y128.398 E13.58894
G1 X51.476 Y124.119 E13.8028
G1 X51.47 Y123.898 E13.81383
G1 X51.483 Y113.843 E14.31548
G1 X51.5 Y113.494 E14.33291
G1 X51.605 Y112.43 E14.38625
G1 X51.672 Y112.013 E14.40732
G1 X51.876 Y111.083 E14.45482
G1 X51.999 Y110.651 E14.47723
G1 X52.356 Y109.644 E14.53054
G1 X52.535 Y109.225 E14.55327
G1 X52.982 Y108.339 E14.60278
G1 X53.212 Y107.948 E14.62541
G1 X53.776 Y107.112 E14.67572
G1 X54.047 Y106.758 E14.69796
G1 X54.717 Y105.99 E14.74881
G1 X55.042 Y105.663 E14.77181
G1 X55.827 Y104.967 E14.82415
G1 X56.186 Y104.687 E14.84687
G1 X57.004 Y104.129 E14.89627
G1 X57.388 Y103.901 E14.91855
G0 F3600 X57.571 Y104.257
G1 F1500 X58.484 Y103.788 E14.96976
G1 X58.854 Y103.626 E14.98991
G1 X59.788 Y103.287 E15.03948
G1 X60.171 Y103.174 E15.0594
G1 X61.184 Y102.944 E15.11123
G1 X61.717 Y102.87 E15.13807
G1 X63.894 Y102.75 E15.24685
G1 X64.071 Y102.745 E15.25568
G1 X130.851 Y102.76 E18.58735
G1 X131.187 Y102.778 E18.60414
G1 X133.415 Y103.014 E18.71591
G1 X133.815 Y103.082 E18.73616
G1 X134.986 Y103.359 E18.79619
G1 X135.326 Y103.46 E18.81389
G1 X137.594 Y104.271 E18.93405
G1 X138.001 Y104.449 E18.95622
G1 X139.042 Y104.994 E19.01484
G1 X139.346 Y105.175 E19.03249
G1 X141.38 Y106.545 E19.15484
G1 X141.739 Y106.826 E19.17758
G1 X142.64 Y107.641 E19.2382
G1 X142.889 Y107.893 E19.25587
G1 X144.488 Y109.699 E19.37621
G1 X144.763 Y110.057 E19.39873
G1 X145.446 Y111.092 E19.4606
G1 X145.625 Y111.4 E19.47837
G1 X146.706 Y113.517 E19.59696
G1 X146.879 Y113.922 E19.61894
G1 X147.27 Y115.048 E19.6784
G1 X147.368 Y115.39 E19.69615
G1 X147.909 Y117.774 E19.81811
G1 X147.984 Y118.319 E19.84556
G1 X148.125 Y121.076 E19.98329
G1 X148.129 Y121.241 E19.99152
G1 X148.115 Y149.977 E21.42517
G1 X148.097 Y150.312 E21.4419
G1 X147.861 Y152.54 E21.55368
G1 X147.793 Y152.94 E21.57392
G1 X147.516 Y154.111 E21.63396
G1 X147.434 Y154.397 E21.6488
G1 X146.876 Y156.05 E21.73584
G1 X146.728 Y156.414 E21.75545
G1 X145.941 Y158.05 E21.84602
G1 X145.742 Y158.404 E21.86628
G1 X144.734 Y159.958 E21.95869
G1 X144.458 Y160.324 E21.98156
G1 X142.866 Y162.144 E22.1022
G1 X142.542 Y162.464 E22.12491
G1 X141.584 Y163.287 E22.18792
G1 X141.301 Y163.504 E22.20572
G1 X139.344 Y164.838 E22.32388
G1 X138.96 Y165.062 E22.34606
G1 X137.872 Y165.6 E22.40661
G1 X137.545 Y165.74 E22.42436
G1 X135.275 Y166.563 E22.54482
G1 X134.847 Y166.686 E22.56704
G1 X133.642 Y166.941 E22.62849
G1 X133.29 Y166.995 E22.64625
G1 X130.997 Y167.219 E22.7612
G1 X130.686 Y167.234 E22.77673
G1 X62.831 Y167.236 E26.16203
G1 X62.479 Y167.217 E26.17962
G1 X61.423 Y167.1 E26.23262
G1 X61.025 Y167.03 E26.25279
G1 X60.042 Y166.793 E26.30323
G1 X59.657 Y166.674 E26.32334
G1 X58.69 Y166.307 E26.37494
G1 X58.325 Y166.142 E26.39492
G1 X57.441 Y165.673 E26.44485
G1 X57.097 Y165.462 E26.46498
G1 X56.26 Y164.872 E26.51607
G1 X55.948 Y164.621 E26.53605
G1 X55.211 Y163.949 E26.58581
G1 X54.933 Y163.661 E26.60578
G1 X54.263 Y162.876 E26.65727
G1 X54.019 Y162.551 E26.67754
G1 X53.464 Y161.703 E26.72811
G1 X53.267 Y161.357 E26.74797
G1 X52.826 Y160.455 E26.79806
G1 X52.672 Y160.08 E26.81829
G1 X52.338 Y159.099 E26.86999
G1 X52.231 Y158.703 E26.89045
G1 X52.032 Y157.72 E26.94049
G1 X51.968 Y157.082 E26.97248
G1 X51.976 Y149.799 E27.33583
G1 X51.873 Y147.401 E27.45558
G1 X51.87 Y147.259 E27.46266
G1 X51.88 Y140.833 E27.78326
G1 X51.884 Y140.685 E27.79064
G1 X52.21 Y133.874 E28.13083
G1 X52.133 Y128.368 E28.40556
G1 X51.876 Y124.095 E28.61912
G1 X51.87 Y123.899 E28.62891
G1 X51.883 Y113.844 E29.13055
G1 X51.898 Y113.534 E29.14604
G1 X52.003 Y112.47 E29.19938
G1 X52.062 Y112.098 E29.21817
G1 X52.266 Y111.168 E29.26567
G1 X52.376 Y110.785 E29.28555
G1 X52.733 Y109.778 E29.33885
G1 X52.892 Y109.406 E29.35904
G1 X53.339 Y108.52 E29.40855
G1 X53.543 Y108.171 E29.42871
G1 X54.107 Y107.335 E29.47903
G1 X54.349 Y107.021 E29.4988
G1 X55.019 Y106.253 E29.54965
G1 X55.307 Y105.963 E29.57004
G1 X56.092 Y105.267 E29.62238
G1 X56.412 Y105.017 E29.64264
G1 X57.23 Y104.459 E29.69204
G1 X57.571 Y104.257 E29.71182
G1 F1500 E23.21182
G0 F3600 X58.88 Y106.406
G0 X59.568 Y107.49
G0 X59.607 Y107.56
G0 X59.559 Y107.473
;TYPE:WALL-INNER
G1 F1500 E29.71182
G1 X60.412 Y107.072 E29.75884
G1 X61.306 Y106.781 E29.80575
G1 X62.225 Y106.606 E29.85242
G1 X63.145 Y106.545 E29.89842
G1 X129.88 Y106.545 E33.22784
G1 X129.88 Y106.573 E33.22924
G1 X131.352 Y106.573 E33.30268
G1 X133.074 Y106.791 E33.38927
G1 X134.241 Y107.091 E33.44939
G1 X134.582 Y107.178 E33.46695
G1 X134.756 Y107.223 E33.47591
G1 X134.783 Y107.234 E33.47737
G1 X136.376 Y107.864 E33.56283
G1 X137.897 Y108.7 E33.64942
G1 X139.307 Y109.725 E33.73639
G1 X140.582 Y110.922 E33.82364
G1 X141.678 Y112.248 E33.90947
G1 X142.619 Y113.729 E33.99701
G1 X143.357 Y115.3 E34.0836
G1 X143.894 Y116.951 E34.17022
G1 X144.219 Y118.654 E34.25671
G1 X144.329 Y120.368 E34.3424
G1 X144.33 Y149.005 E35.77111
G1 X144.302 Y149.005 E35.7725
G1 X144.302 Y150.477 E35.84594
G1 X144.084 Y152.199 E35.93254
G1 X143.652 Y153.881 E36.01918
G1 X143.011 Y155.501 E36.1061
G1 X142.175 Y157.022 E36.19269
G1 X141.15 Y158.432 E36.27966
G1 X139.953 Y159.707 E36.36691
G1 X138.627 Y160.803 E36.45273
G1 X137.146 Y161.744 E36.54027
G1 X135.575 Y162.482 E36.62687
G1 X134.665 Y162.778 E36.67461
G1 X134.597 Y162.8 E36.67818
G1 X134.28 Y162.903 E36.6948
G1 X133.924 Y163.019 E36.71348
G1 X132.22 Y163.344 E36.80003
G1 X130.508 Y163.452 E36.88561
G1 X63.77 Y163.455 E40.21518
G1 X63.77 Y163.439 E40.21598
G1 X62.696 Y163.439 E40.26956
G1 X61.765 Y163.321 E40.31638
G1 X60.856 Y163.088 E40.3632
G1 X59.971 Y162.738 E40.41068
G1 X59.162 Y162.292 E40.45677
G1 X58.39 Y161.731 E40.50438
G1 X57.697 Y161.081 E40.55178
G1 X57.106 Y160.367 E40.59802
G1 X56.598 Y159.566 E40.64534
G1 X56.199 Y158.719 E40.69205
G1 X55.965 Y157.996 E40.72997
G1 X55.906 Y157.814 E40.73951
G1 X55.883 Y157.694 E40.74561
G1 X55.906 Y157.694
G1 X56.098 Y157.694 E40.75248
G1 X69.28 Y157.694 E41.41013
G1 X69.28 Y146.994 E41.94396
G1 X55.67 Y146.994 E42.62296
G1 X55.67 Y141.438 E42.90015
G1 X76.13 Y141.438 E43.92091
G1 X76.13 Y123.638 E44.80895
G1 X55.67 Y123.638 E45.82971
G1 X55.67 Y114.645 E46.27837
G1 X55.686 Y114.645 E46.27917
G1 X55.686 Y113.572 E46.3327
G1 X55.804 Y112.647 E46.37922
G1 X56.04 Y111.723 E46.4268
G1 X56.387 Y110.846 E46.47386
G1 X56.833 Y110.037 E46.51994
G1 X57.393 Y109.266 E46.56748
G1 X58.044 Y108.572 E46.61496
G1 X58.758 Y107.981 E46.6612
G1 X59.559 Y107.473 E46.70852
G0 F3600 X59.607 Y107.56
G0 X74.315 Y107.41
G0 X74.385 Y107.48
G1 F1500 X74.385 Y114.26 E47.04678
G1 X134.505 Y114.26 E50.04617
G1 X134.505 Y107.51 E50.38293
G1 X134.505 Y107.48 E50.3837
G1 X134.153 Y107.48 E50.39933
G1 X74.385 Y107.48 E53.38117
G0 F3600 X74.315 Y107.41
G0 X74.315 Y123.598
G0 X76.158 Y123.61
G0 X76.158 Y141.466
G0 X74.315 Y155.67
G0 X74.385 Y155.74
G1 F1500 X74.385 Y162.52 E53.71942
G1 X134.171 Y162.52 E56.70216
G1 X134.505 Y162.52 E56.71664
G1 X134.505 Y162.448 E56.71985
G1 X134.505 Y155.74 E57.05451
G1 X74.385 Y155.74 E60.05391
G0 F3600 X74.315 Y155.67
G0 X121.15 Y154.975
G0 X121.22 Y154.905
G1 F1500 X128.42 Y154.905 E60.41312
G1 X128.42 Y147.705 E60.77233
G1 X121.22 Y147.705 E61.13154
G1 X121.22 Y154.905 E61.49075
G0 F3600 X121.62 Y154.505
;TYPE:WALL-OUTER
G1 F1500 X128.02 Y154.505 E61.81005
G1 X128.02 Y148.105 E62.12935
G1 X121.62 Y148.105 E62.44864
G1 X121.62 Y154.505 E62.76794
G0 F3600 X121.82 Y154.505
G0 X121.82 Y155.005
G0 X134.105 Y155.64
G0 X134.105 Y156.14
G1 F1500 X74.785 Y156.14 E65.72743
G1 X74.785 Y162.12 E66.02577
G1 X134.105 Y162.12 E68.98526
G1 X134.105 Y156.14 E69.2836
G0 F3600 X133.905 Y156.14
G0 X133.905 Y155.64
G0 X134.533 Y155.712
G0 X137.098 Y161.657
G0 X137.344 Y162.093
G1 F1500 X135.724 Y162.854 E69.3729
G1 X134.021 Y163.408 E69.46224
G1 X132.273 Y163.741 E69.55102
G1 X130.517 Y163.852 E69.6388
G1 X63.37 Y163.855 E72.98878
G1 X63.37 Y163.839 E72.98958
G1 X62.67 Y163.839 E73.0245
G1 X61.695 Y163.716 E73.07353
G1 X60.728 Y163.468 E73.12333
G1 X59.802 Y163.101 E73.17303
G1 X58.943 Y162.628 E73.22195
G1 X58.134 Y162.04 E73.27185
G1 X57.408 Y161.359 E73.32151
G1 X56.781 Y160.601 E73.37059
G1 X56.247 Y159.76 E73.42029
G1 X55.825 Y158.863 E73.46974
G1 X55.518 Y157.916 E73.51941
G1 X55.444 Y157.53 E73.53902
G1 X55.399 Y157.294 E73.551
G1 X55.639 Y157.294 E73.55836
G1 X55.64 Y157.294 E73.55841
G1 X68.88 Y157.294 E74.21896
G1 X68.88 Y147.394 E74.71287
G1 X55.27 Y147.394 E75.39188
G1 X55.27 Y141.038 E75.70898
G1 X75.73 Y141.038 E76.72973
G1 X75.73 Y124.038 E77.57787
G1 X55.27 Y124.038 E78.59862
G1 X55.27 Y114.245 E79.0872
G1 X55.286 Y114.245 E79.08799
G1 X55.286 Y113.545 E79.12292
G1 X55.41 Y112.571 E79.1719
G1 X55.657 Y111.603 E79.22174
G1 X56.024 Y110.677 E79.27144
G1 X56.497 Y109.818 E79.32036
G1 X57.085 Y109.009 E79.37026
G1 X57.766 Y108.283 E79.41992
G1 X58.524 Y107.656 E79.469
G1 X59.365 Y107.122 E79.5187
G1 X60.263 Y106.7 E79.5682
G1 X61.209 Y106.392 E79.61783
G1 X62.173 Y106.209 E79.66679
G1 X63.133 Y106.145 E79.71479
G1 X130.28 Y106.145 E83.06476
G1 X130.28 Y106.173 E83.06616
G1 X131.378 Y106.173 E83.12094
G1 X133.144 Y106.397 E83.20975
G1 X134.884 Y106.843 E83.29937
G1 X136.551 Y107.503 E83.38882
G1 X138.11 Y108.36 E83.47757
G1 X139.564 Y109.417 E83.56725
G1 X140.871 Y110.644 E83.65669
G1 X142.006 Y112.017 E83.74557
G1 X142.968 Y113.531 E83.83506
G1 X143.729 Y115.151 E83.92435
G1 X144.283 Y116.854 E84.0137
G1 X144.616 Y118.602 E84.10248
G1 X144.729 Y120.358 E84.19026
G1 X144.73 Y149.405 E85.63943
G1 X144.702 Y149.405 E85.64082
G1 X144.702 Y150.503 E85.6956
G1 X144.478 Y152.269 E85.78441
G1 X144.032 Y154.009 E85.87403
G1 X143.372 Y155.676 E85.96348
G1 X142.515 Y157.235 E86.05223
G1 X141.458 Y158.689 E86.14192
G1 X140.231 Y159.996 E86.23135
G1 X138.858 Y161.131 E86.32023
G1 X137.344 Y162.093 E86.40972
G0 F3600 X137.163 Y162.178
G0 X136.951 Y161.725
G0 X134.605 Y113.86
G0 X134.105 Y113.86
G1 F1500 X134.105 Y107.88 E86.70806
G1 X74.785 Y107.88 E89.66755
G1 X74.785 Y113.86 E89.96589
G1 X134.105 Y113.86 E92.92538
G0 F3600 X134.105 Y113.66
G0 X134.605 Y113.66
G0 X142.103 Y113.253
;TYPE:SKIN
G1 F1500 X137.583 Y108.733 E93.24429
G1 X137.513 Y108.663
G0 F3600 X136.325 Y108.041
G1 F1500 X142.78 Y114.496 E93.69973
G1 X142.85 Y114.566
G0 F3600 X143.239 Y115.52
G1 F1500 X135.384 Y107.666 E94.2539
G1 X135.314 Y107.596
G0 F3600 X134.684 Y107.531
G1 F1500 X143.511 Y116.358 E94.8767
G1 X143.581 Y116.428
G0 F3600 X143.751 Y117.164
G1 F1500 X134.684 Y108.096 E95.51646
G1 X134.614 Y108.026
G0 F3600 X134.684 Y108.662
G1 F1500 X143.884 Y117.863 E96.1656
G1 X143.954 Y117.933
G0 F3600 X144.018 Y118.562
G1 F1500 X134.684 Y109.228 E96.82417
G1 X134.614 Y109.158
G0 F3600 X134.684 Y109.793
G1 F1500 X144.071 Y119.181 E97.4865
G1 X144.141 Y119.251
G0 F3600 X144.11 Y119.786
G1 F1500 X134.684 Y110.359 E98.1516
G1 X134.614 Y110.289
G0 F3600 X134.684 Y110.925
G1 F1500 X144.149 Y120.39 E98.8194
G1 X144.219 Y120.46
G0 F3600 X144.149 Y120.956
G1 F1500 X134.684 Y111.49 E99.48724
G1 X134.614 Y111.42
G0 F3600 X134.684 Y112.056
G1 F1500 X144.149 Y121.521 E100.15505
G1 X144.219 Y121.591
G0 F3600 X144.149 Y122.087
G1 F1500 X134.684 Y112.622 E100.82286
G1 X134.614 Y112.552
G0 F3600 X134.684 Y113.187
G1 F1500 X144.149 Y122.653 E101.4907
G1 X144.219 Y122.723
G0 F3600 X144.149 Y123.219
G1 F1500 X134.684 Y113.753 E102.15854
G1 X134.614 Y113.683
G0 F3600 X134.684 Y114.319
G1 F1500 X144.149 Y123.784 E102.82635
G1 X144.219 Y123.854
G0 F3600 X144.149 Y124.35
G1 F1500 X134.238 Y114.439 E103.52562
G1 X134.168 Y114.369
G0 F3600 X133.672 Y114.439
G1 F1500 X144.149 Y124.916 E104.26483
G1 X144.219 Y124.986
G0 F3600 X144.149 Y125.481
G1 F1500 X133.107 Y114.439 E105.04391
G1 X133.037 Y114.369
G0 F3600 X132.541 Y114.439
G1 F1500 X144.149 Y126.047 E105.86291
G1 X144.219 Y126.117
G0 F3600 X144.149 Y126.613
G1 F1500 X131.975 Y114.439 E106.72185
G1 X131.905 Y114.369
G0 F3600 X131.41 Y114.439
G1 F1500 X144.149 Y127.178 E107.62066
G1 X144.219 Y127.248
G0 F3600 X144.149 Y127.744
G1 F1500 X130.844 Y114.439 E108.5594
G1 X130.774 Y114.369
G0 F3600 X130.278 Y114.439
G1 F1500 X144.149 Y128.31 E109.53807
G1 X144.219 Y128.38
G0 F3600 X144.149 Y128.875
G1 F1500 X129.713 Y114.439 E110.55661
G1 X129.643 Y114.369
G0 F3600 X129.147 Y114.439
G1 F1500 X144.149 Y129.441 E111.61508
G1 X144.219 Y129.511
G0 F3600 X144.149 Y130.007
